public/textures/LUTs/ARCHIVE.CUBE
TITLE "Generated by Resolve"
LUT_3D_SIZE 5
0.0263828 0.0394141 0.0567788
0.126757 0.0504463 0.0493324
0.5028 0.00248722 0.0120394
0.681178 0 0.0115511
0.72546 0 0.0113527
0 0.113756 0.0729534
0.127657 0.11902 0.0490883
0.562203 0.141299 0.00512703
0.749493 0.116945 0.00784314
0.798383 0.132372 0.00839246
0 0.353475 0.0406958
0.0143893 0.400702 0.00714122
0.737148 0.550408 0
0.952529 0.580041 0.0113375
0.998413 0.599817 0.0124819
0 0.487144 0.00677501
0.0144198 0.557488 0.00695811
0.710063 0.789487 0.00169375
0.986236 0.852857 0.015671
1 0.84947 0.0159915
0 0.551629 0.00683604
0.0132296 0.633524 0.00723278
0.670741 0.835752 0.00231937
0.984848 0.916609 0.0167849
1 0.911955 0.0169528
0.00750744 0.0391394 0.15462
0.124224 0.05066 0.154025
0.513771 0.00228885 0.148989
0.697627 0 0.143236
0.742809 0 0.146288
0.000457771 0.120302 0.181827
0.108476 0.129992 0.153964
0.556771 0.120775 0.105089
0.751125 0.026688 0.0701762
0.798016 0.0577859 0.0628519
0 0.386847 0.190417
0.0107271 0.42562 0.152789
0.734127 0.562417 0.0183261
0.961837 0.590585 0.0341039
0.998993 0.607172 0.0345159
0 0.513634 0.176318
0.013077 0.570352 0.104814
0.696803 0.798657 0.0210269
0.985748 0.863722 0.0356298
1 0.858824 0.0351873
0 0.587411 0.274098
0.00640879 0.654704 0.241611
0.624353 0.819654 0.0335241
0.982544 0.908354 0.0333715
1 0.902419 0.0327611
0.000595102 0.0145876 0.45507
0.10518 0.0113985 0.470008
0.543359 0 0.514336
0.728328 0 0.528344
0.774594 0 0.535271
0 0.041062 0.494713
0.0255283 0.11931 0.502037
0.564538 0.0878157 0.539315
0.770764 0.0193637 0.545144
0.816892 0.0419013 0.548318
0.00628672 0.439948 0.680461
0.0314031 0.480842 0.693202
0.642298 0.618891 0.63505
0.91754 0.620859 0.625879
0.973129 0.635706 0.624949
0.000701915 0.581872 0.719738
0.0197299 0.64152 0.72694
0.581186 0.839139 0.64303
0.959426 0.892622 0.627878
1 0.891707 0.613657
0 0.642313 0.764019
0.0162356 0.712596 0.77641
0.515496 0.881636 0.693507
0.94081 0.948547 0.675959
1 0.949844 0.659175
0 0.0132143 0.599115
0.0517891 0.0113985 0.624018
0.564248 0 0.68986
0.753765 0 0.712856
0.800198 0 0.722133
0 0.0390173 0.667872
0.0230869 0.0497139 0.68629
0.571725 0.0632486 0.75314
0.789014 0.0182956 0.771344
0.836194 0.0238956 0.778836
0.0146639 0.441581 0.879728
0.0423133 0.481941 0.911788
0.611246 0.629145 0.898283
0.907698 0.631434 0.911192
0.967239 0.646738 0.91397
0.0188754 0.596674 0.95433
0.0419623 0.654978 0.987854
0.52401 0.855695 0.985107
0.937224 0.92134 0.953231
1 0.926879 0.951827
0.0181735 0.658045 0.981643
0.0372778 0.725612 0.999969
0.453742 0.894957 0.996704
0.91754 0.975753 0.961547
1 0.983948 0.959518
0 0.0125124 0.667613
0.0483711 0.0106966 0.698833
0.592874 0 0.772732
0.784909 0 0.796048
0.827176 0 0.807767
0 0.0380865 0.725689
0.0166171 0.161532 0.760891
0.591821 0.233295 0.838544
0.812116 0.196567 0.855299
0.86804 0.233951 0.868284
0.0157931 0.454185 0.929381
0.0436255 0.498466 0.96788
0.596216 0.646418 0.959518
0.906828 0.653758 0.979431
0.970748 0.668025 0.984771
0.0218814 0.596323 0.999939
0.0457465 0.659083 1
0.502937 0.85156 1
0.9281 0.921859 1
1 0.928206 1
0.0223697 0.663325 1
0.0419928 0.730083 1
0.42417 0.890105 1
0.908309 0.975616 1
1 0.987549 1
