public/textures/LUTs/ARCHIVE.CUBE
TITLE "Generated by Resolve"
LUT_3D_SIZE 9
0.0263828 0.0394141 0.0567788
0.0508736 0.0418402 0.0590982
0.126757 0.0504463 0.0493324
0.309026 0.0497597 0.012253
0.5028 0.00248722 0.0120394
0.617212 0 0.0116426
0.681178 0 0.0115511
0.717235 0 0.0113832
0.72546 0 0.0113527
0.0187076 0.0616007 0.0610208
0.0453651 0.0614939 0.0607156
0.122225 0.0694438 0.0507515
0.309285 0.0716716 0.0102693
0.514458 0.0272221 0.0107576
0.637263 0.00898756 0.0123293
0.70164 0.00729381 0.0125277
0.736538 0.00636301 0.0125124
0.74696 0.00588998 0.0125277
0 0.113756 0.0729534
0.00814832 0.112322 0.070634
0.127657 0.11902 0.0490883
0.339132 0.133577 0.00675975
0.562203 0.141299 0.00512703
0.687312 0.12755 0.00668345
0.749493 0.116945 0.00784314
0.785199 0.126741 0.00825513
0.798383 0.132372 0.00839246
0 0.223194 0.072221
0 0.221164 0.0720226
0.0253452 0.241505 0.0514992
0.402426 0.27953 0
0.664134 0.316869 0.00680552
0.791577 0.326986 0.00927749
0.852201 0.328984 0.00961318
0.886519 0.340887 0.00982681
0.902556 0.350469 0.00999466
0 0.353475 0.0406958
0 0.355673 0.0361944
0.0143893 0.400702 0.00714122
0.395346 0.485832 0
0.737148 0.550408 0
0.887221 0.576852 0.0087129
0.952529 0.580041 0.0113375
0.98645 0.590875 0.0121462
0.998413 0.599817 0.0124819
0 0.441672 0.00689708
0 0.44947 0.00689708
0.0148013 0.506905 0.0068513
0.328588 0.621363 0.00340276
0.734264 0.717067 0.000122072
0.921233 0.760037 0.011017
0.987366 0.764035 0.0138552
0.999649 0.760784 0.0142061
1 0.762341 0.0144503
0 0.487144 0.00677501
0 0.498054 0.00680552
0.0144198 0.557488 0.00695811
0.270344 0.677165 0.0087892
0.710063 0.789487 0.00169375
0.921706 0.845914 0.0140993
0.986236 0.852857 0.015671
0.999008 0.849454 0.0157931
1 0.84947 0.0159915
0 0.51986 0.00679026
0 0.532006 0.00683604
0.0137484 0.594446 0.00704967
0.224063 0.705547 0.00892653
0.686549 0.819394 0.00146487
0.912322 0.882811 0.0152438
0.985443 0.894667 0.0165103
0.998932 0.891829 0.0165713
1 0.891386 0.0166934
0 0.551629 0.00683604
0 0.564538 0.00686656
0.0132296 0.633524 0.00723278
0.273747 0.731502 0.00872816
0.670741 0.835752 0.00231937
0.898573 0.900282 0.0156252
0.984848 0.916609 0.0167849
0.998672 0.913848 0.0168612
1 0.911955 0.0169528
0.0247654 0.0408942 0.0815442
0.0489357 0.04271 0.0833295
0.125521 0.052491 0.0803235
0.312535 0.0367742 0.0400397
0.511116 0.00192264 0.0256657
0.626245 0 0.0253758
0.689937 0 0.0251621
0.725841 0 0.0248569
0.734188 0 0.024567
0.0196994 0.0617685 0.0863966
0.0441901 0.06215 0.0819715
0.121309 0.0707256 0.0724956
0.309499 0.0677043 0.0336614
0.520302 0.0138399 0.0214847
0.64332 0.00891127 0.0208896
0.707515 0.00727855 0.0205234
0.742199 0.00631724 0.0203861
0.752865 0.00582895 0.0203708
0 0.115724 0.0980392
0.0065919 0.114366 0.0927749
0.125658 0.121569 0.0685588
0.337545 0.134234 0.0227359
0.564538 0.138567 0.0137636
0.691203 0.121645 0.015259
0.753552 0.108644 0.0162051
0.78909 0.117708 0.0163272
0.80267 0.125826 0.0161288
0 0.228779 0.0940871
0 0.225895 0.0916304
0.0198062 0.246113 0.0711681
0.403281 0.283116 0.000106813
0.667338 0.319829 0.0141756
0.795834 0.329549 0.0163272
0.856519 0.3308 0.0162814
0.890684 0.342687 0.0161746
0.906706 0.352087 0.016022
0 0.361395 0.0700236
0 0.362707 0.0650492
0.0142061 0.40502 0.0138094
0.391653 0.491447 0
0.739773 0.555917 0.00169375
0.891264 0.581445 0.0141756
0.956847 0.584772 0.0165408
0.990295 0.594461 0.0169985
0.998184 0.60174 0.0169833
0 0.446647 0.013611
0 0.453544 0.0127108
0.0146334 0.510216 0.0121309
0.32018 0.624537 0.00743114
0.733608 0.721401 0.00177005
0.923354 0.763317 0.0149691
0.987564 0.766354 0.0173953
0.999557 0.76202 0.0173342
1 0.763546 0.0173495
0 0.490074 0.0120699
0 0.499855 0.0111696
0.0141451 0.558633 0.0106813
0.257115 0.677378 0.0121309
0.706508 0.790188 0.00344854
0.921065 0.847089 0.0166018
0.986007 0.853712 0.0177768
0.998917 0.849897 0.0175326
1 0.849592 0.0174105
0 0.520836 0.0167697
0 0.531609 0.0100099
0.0134737 0.593454 0.0093843
0.205417 0.703685 0.0106508
0.681392 0.818158 0.00241093
0.91017 0.882353 0.0162051
0.985199 0.894545 0.0171359
0.99884 0.891508 0.016846
1 0.890929 0.0166934
0 0.5552 0.0673991
0 0.564874 0.0397345
0.0129244 0.63209 0.00814832
0.263951 0.729519 0.00941482
0.66537 0.83418 0.002121
0.895659 0.89958 0.0155337
0.984619 0.916579 0.0167849
0.998428 0.913527 0.0168612
1 0.91165 0.0169375
0.00750744 0.0391394 0.15462
0.0446937 0.0410315 0.152499
0.124224 0.05066 0.154025
0.311315 0.0313573 0.150515
0.513771 0.00228885 0.148989
0.632486 0 0.145312
0.697627 0 0.143236
0.734035 0 0.146242
0.742809 0 0.146288
0.00317388 0.0625772 0.155581
0.0337682 0.0637217 0.148226
0.116106 0.0717479 0.147982
0.305531 0.0682231 0.141451
0.521859 0.0120699 0.134554
0.649805 0.00823987 0.126894
0.715404 0.00643931 0.122637
0.750057 0.00547799 0.124208
0.760952 0.00503548 0.123919
0.000457771 0.120302 0.181827
0.0110018 0.118471 0.173709
0.108476 0.129992 0.153964
0.32723 0.143084 0.131777
0.556771 0.120775 0.105089
0.685161 0.0549783 0.0766461
0.751125 0.026688 0.0701762
0.784787 0.0419165 0.0652323
0.798016 0.0577859 0.0628519
0 0.243778 0.198917
0 0.23917 0.18822
0.00944533 0.260945 0.171664
0.380484 0.294743 0.116457
0.654734 0.314641 0.0628824
0.789975 0.319219 0.0389258
0.852659 0.319173 0.0340124
0.887877 0.332006 0.0336309
0.904692 0.342641 0.033402
0 0.386847 0.190417
0 0.387259 0.179034
0.0107271 0.42562 0.152789
0.358541 0.499168 0.0159609
0.734127 0.562417 0.0183261
0.895247 0.587335 0.0314641
0.961837 0.590585 0.0341039
0.994415 0.600305 0.0346075
0.998993 0.607172 0.0345159
0 0.472404 0.175525
0 0.477104 0.161486
0.0131228 0.525261 0.117861
0.269184 0.633173 0.0241093
0.72549 0.732464 0.019913
0.924071 0.775967 0.0331579
0.988891 0.777661 0.0348516
0.999908 0.772824 0.0347448
1 0.77528 0.0347601
0 0.513634 0.176318
0 0.520455 0.159609
0.013077 0.570352 0.104814
0.180728 0.682597 0.0298009
0.696803 0.798657 0.0210269
0.920729 0.857176 0.0346532
0.985748 0.863722 0.0356298
0.998825 0.85948 0.0353704
1 0.858824 0.0351873
0 0.548318 0.212543
0 0.55494 0.192584
0.0108492 0.607034 0.157778
0.13106 0.702342 0.0353246
0.661921 0.818296 0.0189975
0.902174 0.884352 0.0337987
0.985229 0.898375 0.0347601
0.998947 0.895384 0.0344091
1 0.89398 0.0341497
0 0.587411 0.274098
0 0.595132 0.261982
0.00640879 0.654704 0.241611
0.101823 0.730739 0.179568
0.624353 0.819654 0.0335241
0.866407 0.884031 0.0319371
0.982544 0.908354 0.0333715
0.998032 0.905562 0.0330663
1 0.902419 0.0327611
0.00225834 0.0158389 0.316152
0.0168154 0.0154574 0.313344
0.125902 0.012253 0.324392
0.326436 0.00607309 0.338903
0.529198 0.000183108 0.348486
0.648539 0 0.354025
0.713222 0 0.356527
0.749126 0 0.360845
0.757992 0 0.360418
0.00146487 0.0275883 0.313741
0.0142672 0.026688 0.307912
0.115648 0.0330968 0.31577
0.314229 0.0216526 0.327825
0.535378 0.00996414 0.337057
0.663661 0.0065919 0.340566
0.729015 0.00495918 0.341314
0.763989 0.00407416 0.345342
0.775021 0.00363165 0.345205
0 0.104204 0.337804
0.0091249 0.108492 0.331289
0.0684672 0.135698 0.331716
0.320699 0.148302 0.338445
0.559289 0.122805 0.339025
0.692332 0.0553292 0.334783
0.758587 0.0205386 0.334081
0.792294 0.0446326 0.334127
0.805615 0.0530556 0.334691
0 0.260533 0.415045
0.00683604 0.255161 0.402731
0.0236973 0.280507 0.409216
0.329244 0.328954 0.367163
0.625132 0.344594 0.357305
0.776745 0.336309 0.347494
0.843656 0.327657 0.339986
0.879561 0.338735 0.340032
0.896681 0.349905 0.341115
0 0.421592 0.455467
1.5259e-05 0.421225 0.444038
0.0105898 0.460777 0.442695
0.250507 0.537423 0.386236
0.678752 0.585641 0.358694
0.855772 0.595087 0.347036
0.931487 0.591089 0.336309
0.967025 0.596979 0.332128
0.984085 0.605997 0.331945
0 0.513436 0.459129
0 0.518578 0.446174
0.00366217 0.567697 0.438987
0.0836042 0.661448 0.391211
0.66482 0.740826 0.333776
0.877104 0.768963 0.311894
0.968032 0.772503 0.291005
0.998734 0.770794 0.277363
1 0.772259 0.276661
0 0.555169 0.465888
0 0.562448 0.449912
0.00183108 0.613626 0.440894
0.0222019 0.709728 0.397971
0.629328 0.802304 0.331029
0.870359 0.84416 0.300069
0.976349 0.855222 0.271351
0.998474 0.849897 0.239185
1 0.848981 0.230243
0 0.587457 0.497536
0 0.593957 0.480659
0.000839246 0.647761 0.474342
0.0201877 0.736385 0.435554
0.593011 0.829328 0.371145
0.85301 0.877638 0.339925
0.972137 0.893339 0.309941
0.998795 0.888609 0.279561
1 0.885924 0.27393
0 0.62182 0.542
0 0.628321 0.529671
0.000427253 0.69012 0.531121
0.0176089 0.767636 0.5037
0.567025 0.85185 0.44358
0.830976 0.901015 0.425574
0.95848 0.918853 0.405814
0.998245 0.918334 0.386725
1 0.914961 0.379461
0.000595102 0.0145876 0.45507
0.0149538 0.0141909 0.457008
0.10518 0.0113985 0.470008
0.336873 0.00416571 0.496834
0.543359 0 0.514336
0.663447 0 0.523888
0.728328 0 0.528344
0.764553 0 0.534203
0.774594 0 0.535271
1.5259e-05 0.0260471 0.464134
0.0122072 0.0250095 0.461891
0.0926833 0.0220493 0.472587
0.325628 0.0144045 0.498314
0.549554 0.00787366 0.515923
0.678676 0.00485237 0.523903
0.744961 0.00355535 0.527977
0.779355 0.00283818 0.531777
0.790433 0.00241093 0.53228
0 0.041062 0.494713
0.00903334 0.0400854 0.49044
0.0255283 0.11931 0.502037
0.320165 0.134234 0.525414
0.564538 0.0878157 0.539315
0.703136 0.0205844 0.543832
0.770764 0.0193637 0.545144
0.803449 0.0197604 0.547189
0.816892 0.0419013 0.548318
0.00117494 0.261936 0.591653
0.00949111 0.25716 0.582467
0.0293889 0.288518 0.603571
0.306249 0.345525 0.583291
0.617655 0.361898 0.597192
0.77351 0.352972 0.595376
0.843168 0.344381 0.591104
0.879118 0.35523 0.59234
0.896742 0.368048 0.595041
0.00628672 0.439948 0.680461
0.0139773 0.440238 0.675212
0.0314031 0.480842 0.693202
0.155398 0.557748 0.685527
0.642298 0.618891 0.63505
0.835157 0.62652 0.631449
0.91754 0.620859 0.625879
0.9552 0.626551 0.624414
0.973129 0.635706 0.624949
0.00210575 0.539345 0.709194
0.00781262 0.544747 0.702846
0.0241093 0.593851 0.719142
0.037583 0.688945 0.721706
0.621576 0.776974 0.642115
0.853864 0.804807 0.637858
0.952209 0.807889 0.630915
0.993835 0.809796 0.626657
1 0.812787 0.624689
0.000701915 0.581872 0.719738
0.0037232 0.589364 0.711696
0.0197299 0.64152 0.72694
0.0315251 0.740032 0.729091
0.581186 0.839139 0.64303
0.846021 0.880949 0.63714
0.959426 0.892622 0.627878
0.99884 0.893126 0.61941
1 0.891707 0.613657
0.000701915 0.611353 0.73901
0.0018616 0.618219 0.731365
0.0178836 0.67306 0.747616
0.0302129 0.764111 0.747936
0.542016 0.863569 0.660151
0.827893 0.911681 0.652445
0.953475 0.927871 0.642924
0.999207 0.929946 0.632563
1 0.926665 0.625742
0 0.642313 0.764019
0.00129702 0.649882 0.758312
0.0162356 0.712596 0.77641
0.0294041 0.791592 0.776486
0.515496 0.881636 0.693507
0.807248 0.929992 0.68365
0.94081 0.948547 0.675959
0.998016 0.953338 0.667414
1 0.949844 0.659175
0 0.0137942 0.54226
0.0136721 0.0133211 0.546471
0.0589151 0.0118105 0.563256
0.339284 0.00308232 0.597299
0.551995 0 0.62089
0.674083 0 0.633997
0.740658 0 0.641505
0.777081 0 0.648463
0.785916 0 0.648539
0 0.0249332 0.562036
0.0107576 0.0238804 0.562692
0.0428321 0.0223239 0.577249
0.327947 0.0130465 0.610773
0.558328 0.0065919 0.635279
0.689921 0.0037995 0.646784
0.757534 0.00265507 0.653071
0.792935 0.00207523 0.658854
0.804501 0.00180056 0.660624
0 0.0398108 0.60325
0.00740063 0.0388037 0.601816
0.0240787 0.0713359 0.615457
0.317632 0.108522 0.648173
0.5682 0.0573129 0.672709
0.712581 0.0195468 0.683101
0.781888 0.0187381 0.686702
0.815213 0.0182345 0.690288
0.827649 0.0179141 0.692027
7.62951e-05 0.24889 0.694972
0.00463874 0.241276 0.687465
0.0254215 0.279957 0.718166
0.285222 0.34815 0.720989
0.611261 0.364523 0.74699
0.772122 0.354574 0.751644
0.844144 0.3449 0.750042
0.881163 0.356176 0.752773
0.899153 0.370413 0.756313
0.0133364 0.44271 0.812924
0.0209354 0.442649 0.810758
0.0403601 0.483726 0.838392
0.114244 0.562173 0.855879
0.624537 0.62916 0.806394
0.824994 0.636683 0.811658
0.911559 0.630976 0.80972
0.950454 0.635645 0.809049
0.969162 0.646189 0.810452
0.0140688 0.548867 0.859174
0.0202487 0.552789 0.857786
0.0382239 0.602762 0.885237
0.052781 0.698268 0.911192
0.594293 0.788403 0.856382
0.83769 0.821225 0.834012
0.9411 0.824201 0.831815
0.985306 0.826856 0.830228
1 0.831403 0.829847
0.0128786 0.593057 0.872862
0.017319 0.600015 0.871626
0.0348363 0.652277 0.898512
0.0486763 0.75198 0.923644
0.541115 0.854246 0.868269
0.826337 0.900908 0.839017
0.945785 0.913344 0.837537
0.995254 0.91664 0.83505
1 0.916823 0.831327
0.0124666 0.621744 0.888106
0.0153506 0.628809 0.886763
0.032639 0.68307 0.913146
0.0466468 0.775753 0.935943
0.49781 0.877623 0.883238
0.807279 0.93167 0.847501
0.939239 0.948943 0.846174
0.995254 0.95404 0.843076
1 0.952636 0.838041
0.0121614 0.65272 0.90692
0.0135653 0.65948 0.906111
0.0303502 0.723476 0.934691
0.0445563 0.802747 0.950271
0.47599 0.893614 0.898894
0.785901 0.948211 0.862654
0.927199 0.967514 0.860365
0.990127 0.973999 0.857359
1 0.972869 0.852552
0 0.0132143 0.599115
0.0127871 0.0127871 0.604547
0.0517891 0.0113985 0.624018
0.344305 0.00227359 0.660883
0.564248 0 0.68986
0.6878 0 0.704067
0.753765 0 0.712856
0.790158 0 0.720256
0.800198 0 0.722133
0 0.0241398 0.626551
0.00972 0.0230564 0.629267
0.0275578 0.0218814 0.647044
0.330755 0.0120546 0.683574
0.567102 0.00567636 0.711894
0.701793 0.00308232 0.725597
0.769406 0.00213626 0.732692
0.804471 0.00170901 0.738888
0.816632 0.00148013 0.741283
0 0.0390173 0.667872
0.00634775 0.037995 0.669017
0.0230869 0.0497139 0.68629
0.315267 0.112886 0.722072
0.571725 0.0632486 0.75314
0.717998 0.019028 0.766171
0.789014 0.0182956 0.771344
0.822934 0.0178225 0.776059
0.836194 0.0238956 0.778836
0 0.234394 0.749432
0.00230411 0.234653 0.749752
0.0230411 0.275135 0.783185
0.266773 0.351766 0.798886
0.60589 0.368093 0.831586
0.770977 0.358221 0.840894
0.845808 0.347402 0.84184
0.883421 0.357733 0.845365
0.902083 0.373571 0.849805
0.0146639 0.441581 0.879728
0.021973 0.441733 0.880842
0.0423133 0.481941 0.911788
0.0687114 0.560647 0.947906
0.611246 0.629145 0.898283
0.818006 0.637308 0.910002
0.907698 0.631434 0.911192
0.947967 0.636179 0.912108
0.967239 0.646738 0.91397
0.0188602 0.550164 0.935943
0.0251164 0.554467 0.938155
0.0441901 0.603159 0.970397
0.0612192 0.698421 0.999115
0.581308 0.788159 0.963134
0.826993 0.824521 0.942504
0.934112 0.828458 0.943313
0.980285 0.830808 0.943343
0.999329 0.835355 0.942916
0.0188754 0.596674 0.95433
0.0234684 0.604837 0.957259
0.0419623 0.654978 0.987854
0.0578317 0.754482 1
0.52401 0.855695 0.985107
0.814008 0.906294 0.965408
0.937224 0.92134 0.953231
0.989609 0.925109 0.952987
1 0.926879 0.951827
0.0183871 0.62475 0.963745
0.0215305 0.63154 0.96643
0.0398566 0.685206 0.996612
0.0554513 0.778103 1
0.47274 0.87895 0.995056
0.792035 0.937835 0.972854
0.930159 0.957931 0.957427
0.988861 0.963577 0.957
1 0.96405 0.954925
0.0181735 0.658045 0.981643
0.0196384 0.66302 0.981796
0.0372778 0.725612 0.999969
0.0527504 0.805097 1
0.453742 0.894957 0.996704
0.771084 0.953201 0.978302
0.91754 0.975753 0.961547
0.984268 0.982818 0.961074
1 0.983948 0.959518
0 0.0126497 0.657282
0.0118563 0.0121614 0.663752
0.052018 0.0107576 0.683726
0.359716 0.00122072 0.724224
0.586496 0 0.753414
0.711528 0 0.766537
0.776379 0 0.774945
0.8094 0 0.781735
0.818067 0 0.783093
0 0.0234531 0.679789
0.00885023 0.0223697 0.684184
0.0260166 0.0285954 0.701259
0.336233 0.022797 0.740505
0.576867 0.00502022 0.770291
0.714321 0.00251774 0.784024
0.782712 0.00178531 0.790616
0.81677 0.00144961 0.796414
0.827771 0.00125124 0.798459
0 0.0384222 0.710567
0.00553903 0.0377508 0.713436
0.0176699 0.126848 0.734401
0.313252 0.189548 0.775479
0.582589 0.174212 0.808576
0.726696 0.122377 0.818967
0.796109 0.0800183 0.823148
0.832715 0.105226 0.828641
0.848035 0.122621 0.832197
1.5259e-05 0.26215 0.795254
0.00369268 0.25745 0.794324
0.0246738 0.299657 0.829953
0.248463 0.377035 0.845197
0.604791 0.397406 0.877775
0.774975 0.388663 0.889403
0.852705 0.37792 0.891768
0.891234 0.386069 0.895628
0.909987 0.400412 0.899809
0.0149996 0.444617 0.912383
0.0222171 0.445884 0.914122
0.0429236 0.487694 0.94844
0.0654765 0.565103 0.987671
0.602045 0.633783 0.939834
0.813535 0.643366 0.954269
0.905669 0.636301 0.957305
0.947692 0.64065 0.959304
0.96762 0.650782 0.961395
0.0204929 0.55053 0.969375
0.026688 0.556313 0.974807
0.0462043 0.603326 0.999649
0.0643473 0.696925 1
0.56965 0.786389 0.998611
0.818906 0.824033 0.988861
0.929442 0.828016 0.992264
0.977768 0.830213 0.993545
0.998856 0.836011 0.994049
0.0209964 0.594797 0.986893
0.0256962 0.604456 0.9935
0.0446326 0.656779 1
0.0616007 0.753353 1
0.511116 0.853422 1
0.809277 0.905165 1
0.93254 0.922271 1
0.986419 0.926375 1
1 0.92903 1
0.0210422 0.626642 0.998917
0.0241093 0.632456 0.999664
0.042771 0.686809 1
0.059144 0.776974 1
0.453727 0.877119 1
0.787121 0.937087 1
0.925246 0.958953 1
0.985412 0.966018 1
1 0.967315 1
0.0208438 0.659876 1
0.0222477 0.664927 1
0.0404517 0.726986 1
0.0564126 0.804242 1
0.435554 0.892744 1
0.765148 0.952468 1
0.911452 0.976989 1
0.980529 0.985504 1
1 0.987213 1
0 0.0125124 0.667613
0.0115358 0.0120394 0.677028
0.0483711 0.0106966 0.698833
0.362661 0.000976577 0.741772
0.592874 0 0.772732
0.720058 0 0.787488
0.784909 0 0.796048
0.818738 0 0.805142
0.827176 0 0.807767
0 0.0231479 0.694667
0.00846876 0.0220188 0.702007
0.0234531 0.0553445 0.719722
0.335378 0.0887007 0.759991
0.580026 0.0198215 0.793256
0.719829 0.00225834 0.808682
0.789502 0.00158694 0.816526
0.822721 0.00144961 0.822904
0.833356 0.00105287 0.825406
0 0.0380865 0.725689
0.00508125 0.0384833 0.730724
0.0166171 0.161532 0.760891
0.310491 0.233066 0.802563
0.591821 0.233295 0.838544
0.740978 0.211048 0.850492
0.812116 0.196567 0.855299
0.850507 0.213931 0.862577
0.86804 0.233951 0.868284
0.000198367 0.287114 0.821622
0.0056611 0.282078 0.82089
0.0272679 0.327276 0.85922
0.230274 0.403906 0.87245
0.605325 0.432517 0.902205
0.781186 0.429038 0.916152
0.862165 0.420829 0.919951
0.902327 0.430625 0.924773
0.921614 0.446555 0.929595
0.0157931 0.454185 0.929381
0.0228733 0.456184 0.933745
0.0436255 0.498466 0.96788
0.066392 0.575601 0.998932
0.596216 0.646418 0.959518
0.81146 0.659205 0.975082
0.906828 0.653758 0.979431
0.950118 0.657542 0.982147
0.970748 0.668025 0.984771
0.021149 0.552087 0.984192
0.0272068 0.559899 0.991333
0.0469368 0.607553 1
0.0654765 0.698756 1
0.561334 0.787488 1
0.812848 0.826108 1
0.926482 0.831373 1
0.97641 0.833021 1
0.998947 0.838972 1
0.0218814 0.596323 0.999939
0.0266423 0.608347 1
0.0457465 0.659083 1
0.063035 0.753201 1
0.502937 0.85156 1
0.803037 0.903685 1
0.9281 0.921859 1
0.984375 0.925933 1
1 0.928206 1
0.0222934 0.628565 1
0.0251164 0.633326 1
0.0439612 0.689769 1
0.0608377 0.776242 1
0.440421 0.874662 1
0.780362 0.935103 1
0.922469 0.957839 1
0.983291 0.966049 1
1 0.967025 1
0.0223697 0.663325 1
0.023621 0.668269 1
0.0419928 0.730083 1
0.0582895 0.803479 1
0.42417 0.890105 1
0.758404 0.950439 1
0.908309 0.975616 1
0.978134 0.984802 1
1 0.987549 1
