public/textures/LUTs/ARCHIVE.CUBE
TITLE "Generated by Resolve"
LUT_3D_SIZE 33
0.0263828 0.0394141 0.0567788
0.0273899 0.0395209 0.0569619
0.033463 0.0402075 0.0581064
0.0408942 0.0408637 0.0589609
0.0508736 0.0418402 0.0590982
0.0600595 0.0430915 0.0589151
0.0796521 0.0444648 0.0582589
0.101717 0.0474403 0.0532082
0.126757 0.0504463 0.0493324
0.165682 0.0521706 0.044419
0.206531 0.0532082 0.0349737
0.252979 0.05243 0.0167086
0.309026 0.0497597 0.012253
0.367346 0.0431525 0.0108949
0.418463 0.0299077 0.0111543
0.462989 0.0041352 0.0128939
0.5028 0.00248722 0.0120394
0.537285 0.0016022 0.0118563
0.568048 0.000823987 0.0117037
0.5944 0.000183108 0.0116121
0.617212 0 0.0116426
0.637064 0 0.0116732
0.654307 0 0.0116579
0.668833 0 0.0115816
0.681178 0 0.0115511
0.692042 0 0.0115206
0.701686 0 0.0114443
0.709941 0 0.0114137
0.717235 0 0.0113832
0.724605 0 0.0113527
0.72546 0 0.0113527
0.72546 0 0.0113527
0.72546 0 0.0113527
0.0263066 0.0400092 0.0569619
0.0269017 0.039765 0.0569619
0.0330358 0.040238 0.0580301
0.040177 0.0408026 0.0588998
0.0502785 0.0417182 0.0590829
0.0588235 0.0429694 0.0589761
0.0773175 0.0443122 0.0583352
0.0995804 0.0470741 0.0536507
0.123262 0.0501717 0.0497292
0.161013 0.0520333 0.0450294
0.201663 0.0532845 0.0377356
0.24683 0.0525521 0.0177005
0.301869 0.0502327 0.0124819
0.360143 0.0440528 0.0110475
0.412284 0.0333104 0.0109255
0.457404 0.00437934 0.0130312
0.49778 0.00260929 0.0120546
0.532891 0.00172427 0.0118715
0.564172 0.000915541 0.0117342
0.591089 0.000244144 0.0116121
0.614206 1.5259e-05 0.0116426
0.634485 0 0.0116732
0.651972 0 0.0116579
0.666835 0 0.0115969
0.679454 0 0.0115511
0.690486 0 0.0115206
0.700343 0 0.0114595
0.708812 0 0.0114137
0.716197 0 0.0113832
0.723568 0 0.0113527
0.72546 0 0.0113527
0.72546 0 0.0113527
0.72546 0 0.0113527
0.0254673 0.046128 0.0586099
0.0255894 0.0458228 0.0585641
0.0316167 0.0462654 0.058854
0.0386206 0.0466926 0.0593729
0.049134 0.0473182 0.0595102
0.0573281 0.0484474 0.0594492
0.076173 0.0496529 0.0581979
0.0999313 0.0522011 0.0527504
0.122591 0.0555428 0.049897
0.160266 0.0574044 0.0451362
0.202518 0.0580301 0.0381476
0.24799 0.057145 0.0162966
0.302831 0.0555428 0.0118868
0.361563 0.0505379 0.0104372
0.414603 0.041413 0.0101472
0.460639 0.0104677 0.013138
0.501595 0.00505074 0.0129549
0.537148 0.00395209 0.0128176
0.568933 0.00308232 0.0127413
0.596185 0.00236515 0.0127108
0.619455 0.00181582 0.0126802
0.639612 0.00143435 0.0126955
0.656947 0.00108339 0.0126497
0.671702 0.000823987 0.0126345
0.684153 0.000595102 0.0126192
0.695003 0.000411994 0.0125887
0.704692 0.000274662 0.0125734
0.713069 0.00015259 0.0125277
0.720272 4.57771e-05 0.0124666
0.727352 0 0.0124056
0.729976 0 0.0123598
0.729854 0 0.0123293
0.729702 0 0.0122988
0.0235752 0.0528267 0.0595254
0.023743 0.0523995 0.0594797
0.0300145 0.0525978 0.0594797
0.0369421 0.0527962 0.0598611
0.047776 0.0532387 0.0599374
0.0558175 0.0543832 0.0599374
0.076112 0.0553902 0.0564279
0.100038 0.0579995 0.0527962
0.122179 0.0614939 0.0501259
0.159915 0.0631418 0.0453193
0.204242 0.0636149 0.037644
0.250584 0.0629129 0.0149386
0.305638 0.061677 0.0112154
0.365255 0.0573281 0.00976577
0.419638 0.0492256 0.00936904
0.465843 0.0292058 0.0108034
0.50837 0.0110475 0.0132753
0.544976 0.00740063 0.0135958
0.57731 0.0065156 0.0134737
0.605203 0.00579843 0.0133822
0.628641 0.00521859 0.0133211
0.648783 0.00469978 0.0132601
0.666072 0.00425727 0.0132296
0.680751 0.00386053 0.0132143
0.693065 0.00354009 0.0131991
0.703639 0.00325017 0.0131838
0.7131 0.00299077 0.013138
0.721325 0.00276188 0.0131228
0.728573 0.00256352 0.0131075
0.735439 0.00238041 0.0130922
0.738827 0.00227359 0.013077
0.738689 0.00221256 0.013077
0.738582 0.00218204 0.0130922
0.0187076 0.0616007 0.0610208
0.0190433 0.0610666 0.0609293
0.0263981 0.0611734 0.0606394
0.034287 0.0611734 0.0607462
0.0453651 0.0614939 0.0607156
0.0534676 0.0625925 0.0607462
0.0741131 0.0637827 0.0577249
0.100496 0.0658885 0.0530251
0.122225 0.0694438 0.0507515
0.160021 0.0711223 0.0456703
0.206424 0.0719615 0.0373693
0.254093 0.0722057 0.014786
0.309285 0.0716716 0.0102693
0.369558 0.0680552 0.00888075
0.425315 0.0622568 0.00833143
0.472236 0.0518196 0.00866712
0.514458 0.0272221 0.0107576
0.551781 0.013489 0.0119783
0.585031 0.0104067 0.0122072
0.613626 0.00961318 0.0122683
0.637263 0.00898756 0.0123293
0.657389 0.0084535 0.0123903
0.674739 0.00799573 0.0124666
0.689448 0.00762951 0.0125124
0.70164 0.00729381 0.0125277
0.712016 0.00700389 0.0125124
0.721309 0.00677501 0.0125124
0.729427 0.00657664 0.0125277
0.736538 0.00636301 0.0125124
0.74316 0.00614939 0.0124819
0.747234 0.00601205 0.0125124
0.747097 0.00595102 0.0125124
0.74696 0.00588998 0.0125277
0.0161746 0.069398 0.0628061
0.0166934 0.0687724 0.062623
0.0240482 0.0689097 0.0622721
0.0327001 0.068925 0.0621653
0.0438239 0.0692302 0.0619974
0.0522469 0.0705882 0.062089
0.0723735 0.0720226 0.0596628
0.10135 0.0735332 0.0539864
0.123384 0.0771038 0.0519265
0.160937 0.0793927 0.0464942
0.20911 0.0810101 0.0387121
0.258686 0.0820325 0.0164645
0.313893 0.0828565 0.00933852
0.375082 0.080766 0.00802625
0.432486 0.0766613 0.00735485
0.480705 0.0699321 0.00735485
0.522393 0.0562905 0.00817884
0.559945 0.0340124 0.0100404
0.59379 0.0176699 0.0115053
0.623133 0.0132448 0.0119173
0.646906 0.012604 0.0120089
0.667079 0.0121004 0.0120851
0.684306 0.0116579 0.0121309
0.69897 0.0112764 0.0121614
0.711192 0.0109865 0.0121767
0.721492 0.0107271 0.012192
0.730587 0.0104829 0.0122072
0.738659 0.0102541 0.0122072
0.745678 0.010071 0.0122225
0.752102 0.0099031 0.0122377
0.756817 0.00975052 0.012253
0.756634 0.00968948 0.012253
0.756466 0.00962844 0.012253
0.00666819 0.0812543 0.0661936
0.00737011 0.0802319 0.065919
0.0136568 0.0797589 0.0652018
0.0249943 0.0793774 0.0643473
0.0412299 0.079469 0.0635386
0.0508431 0.0805066 0.0635996
0.0692302 0.0816663 0.0614328
0.102037 0.0826581 0.0542916
0.126162 0.0860914 0.0526589
0.162707 0.0892195 0.0477913
0.212512 0.0912337 0.039765
0.26363 0.092546 0.0185245
0.319127 0.0942092 0.00866712
0.381384 0.0937209 0.00726329
0.440894 0.0915389 0.00645457
0.490562 0.0874495 0.00627146
0.532479 0.0797589 0.0065919
0.56997 0.0661784 0.0075227
0.603296 0.046128 0.00909438
0.633005 0.0284276 0.0105745
0.657038 0.0225528 0.0111238
0.67715 0.0195621 0.0114137
0.694362 0.0164187 0.0116884
0.709102 0.0149691 0.0118257
0.721355 0.0146944 0.0118715
0.731594 0.0144198 0.0118868
0.740673 0.014847 0.0118563
0.748714 0.0166629 0.0117189
0.755627 0.0175021 0.0116274
0.761959 0.0180667 0.0115969
0.767269 0.018204 0.0115663
0.767102 0.0178988 0.0115969
0.766934 0.0175937 0.0116121
0 0.097734 0.0701305
0 0.0966812 0.0699168
0.000518807 0.0962387 0.0694285
0.00666819 0.0959182 0.0686809
0.0229953 0.0959487 0.0665293
0.0386511 0.09691 0.0654917
0.0598917 0.0983444 0.0637217
0.0983291 0.0992142 0.053727
0.128206 0.101991 0.0505531
0.166018 0.104967 0.0477455
0.218128 0.107607 0.03888
0.27126 0.110063 0.0190585
0.327596 0.113298 0.00782788
0.390204 0.115297 0.00624094
0.451575 0.115511 0.00540169
0.503014 0.11426 0.00518807
0.545632 0.110445 0.00537118
0.583429 0.104005 0.00578317
0.616526 0.0957656 0.00637827
0.645624 0.0852979 0.00714122
0.669032 0.076051 0.00781262
0.68838 0.0661021 0.0084535
0.705043 0.0542458 0.00915541
0.719707 0.0461891 0.00967422
0.732067 0.0457465 0.00984207
0.742412 0.0461128 0.00988785
0.751553 0.0500954 0.00979629
0.75993 0.0577859 0.00956741
0.767178 0.0620584 0.00950637
0.773754 0.0657206 0.00950637
0.779995 0.0678721 0.00952163
0.77969 0.0662242 0.00956741
0.779446 0.0648508 0.00961318
0 0.113756 0.0729534
0 0.112749 0.0727855
0 0.112276 0.072343
0.00251774 0.112062 0.0718853
0.00814832 0.112322 0.070634
0.0162661 0.113527 0.0692149
0.0423743 0.114931 0.0671702
0.0901198 0.116793 0.0607614
0.127657 0.11902 0.0490883
0.169986 0.122026 0.0464485
0.225452 0.124956 0.0387579
0.280903 0.128649 0.0196231
0.339132 0.133577 0.00675975
0.402121 0.137728 0.00544747
0.465568 0.140719 0.00497444
0.518868 0.142016 0.00492866
0.562203 0.141299 0.00512703
0.600687 0.138659 0.00547799
0.634211 0.13489 0.00587472
0.663798 0.130968 0.00633249
0.687312 0.12755 0.00668345
0.706493 0.12369 0.00701915
0.722835 0.119738 0.00735485
0.737224 0.117357 0.00767529
0.749493 0.116945 0.00784314
0.760006 0.118135 0.00802625
0.769192 0.119997 0.00810254
0.777783 0.123354 0.00819409
0.785199 0.126741 0.00825513
0.791928 0.130587 0.00827039
0.79881 0.134188 0.0083772
0.798718 0.133288 0.00839246
0.798383 0.132372 0.00839246
0 0.134447 0.0745556
0 0.133043 0.074464
0 0.13228 0.0742199
0.000411994 0.131868 0.0738689
0.00514229 0.132052 0.0728618
0.00984207 0.13341 0.0716716
0.0217136 0.135241 0.0697642
0.0772106 0.137285 0.0652781
0.121263 0.140352 0.0513924
0.169955 0.143084 0.0429541
0.232151 0.145708 0.0360876
0.292668 0.150011 0.0151827
0.353063 0.156359 0.00489815
0.417517 0.162829 0.00479133
0.482887 0.168276 0.00502022
0.537987 0.171862 0.00538643
0.582284 0.173495 0.00573739
0.621378 0.172839 0.00608835
0.655283 0.170718 0.00645457
0.685267 0.168353 0.00677501
0.709056 0.166339 0.00703441
0.728313 0.164141 0.00730907
0.744549 0.16228 0.00749218
0.758862 0.161517 0.00770581
0.771176 0.162173 0.00788891
0.781445 0.163684 0.00798047
0.790585 0.165759 0.0081178
0.799054 0.168521 0.00820935
0.806699 0.172305 0.00825513
0.813657 0.176486 0.0083772
0.820493 0.17998 0.00843824
0.821241 0.179934 0.00843824
0.820874 0.179232 0.00843824
0 0.162829 0.073991
0 0.160861 0.0740215
0 0.159838 0.07393
0 0.159518 0.0737774
0.0024567 0.159976 0.0731518
0.0071107 0.161746 0.0720989
0.0123903 0.164172 0.0705272
0.0462806 0.166964 0.0659037
0.102129 0.171878 0.0582437
0.161242 0.175418 0.0374151
0.235813 0.177539 0.022034
0.305959 0.183322 0.00315862
0.371466 0.191913 0.00141909
0.438697 0.200107 0.00341802
0.505943 0.207965 0.00523384
0.562753 0.214084 0.00614939
0.607217 0.217807 0.00666819
0.646326 0.21883 0.00701915
0.680369 0.218326 0.00729381
0.710536 0.217487 0.0075227
0.73431 0.216495 0.00769055
0.753475 0.215137 0.00788891
0.769497 0.21387 0.00798047
0.783749 0.213794 0.00816358
0.79585 0.214511 0.00823987
0.805982 0.215991 0.0083772
0.815091 0.218311 0.00843824
0.823575 0.221195 0.00856031
0.831327 0.224948 0.00863661
0.838209 0.228595 0.00866712
0.845106 0.23209 0.00877394
0.846586 0.232303 0.00880446
0.846143 0.231327 0.00880446
0 0.192355 0.0738384
0 0.190433 0.0738079
0 0.189319 0.0737011
0 0.18938 0.073518
0.000213626 0.190021 0.0728618
0.00451667 0.192248 0.0714275
0.0090486 0.195636 0.06981
0.0151675 0.199802 0.0652171
0.0754406 0.205951 0.0576486
0.145525 0.212131 0.0310674
0.235966 0.215656 0.00297551
0.315938 0.224277 0
0.389258 0.234638 4.57771e-05
0.461784 0.243931 0.00102235
0.531914 0.253544 0.00402838
0.59057 0.261707 0.00624094
0.635645 0.267277 0.00726329
0.67483 0.270451 0.00787366
0.708415 0.271519 0.00817884
0.738567 0.27216 0.00840772
0.762509 0.272435 0.00856031
0.781567 0.271824 0.00866712
0.797543 0.271397 0.00875868
0.811536 0.271626 0.00883497
0.823575 0.27274 0.00892653
0.8336 0.27454 0.00898756
0.842496 0.276997 0.00903334
0.850843 0.279973 0.00914015
0.858579 0.283818 0.00920119
0.865415 0.287816 0.00924697
0.872312 0.291966 0.00933852
0.874464 0.292653 0.00936904
0.873991 0.291676 0.00935378
0 0.223194 0.072221
0 0.221057 0.0724651
0 0.219898 0.0725872
0 0.220295 0.0724956
0 0.221164 0.0720226
0.00225834 0.224048 0.0701305
0.0068513 0.228138 0.067689
0.011429 0.233478 0.0621042
0.0253452 0.241505 0.0514992
0.122255 0.25005 0.0219577
0.228916 0.257633 0
0.321767 0.26807 0
0.402426 0.27953 0
0.481086 0.289799 0
0.556161 0.300252 0.00157168
0.617639 0.309865 0.0047303
0.664134 0.316869 0.00680552
0.703716 0.32163 0.00801099
0.737438 0.324239 0.00869764
0.767498 0.325887 0.00909438
0.791577 0.326986 0.00927749
0.810742 0.327123 0.00936904
0.826566 0.327184 0.00947585
0.840131 0.327306 0.00952163
0.852201 0.328984 0.00961318
0.862181 0.33106 0.00965896
0.870878 0.333654 0.00968948
0.879042 0.336889 0.00976577
0.886519 0.340887 0.00982681
0.893538 0.345617 0.00987259
0.900206 0.350057 0.00994888
0.903044 0.351461 0.0100099
0.902556 0.350469 0.00999466
0 0.257343 0.0681773
0 0.254932 0.0684672
0 0.253361 0.0686198
0 0.254185 0.0684825
0 0.255436 0.0678264
0.00077821 0.258961 0.0654307
0.00531014 0.264027 0.0623178
0.0099794 0.27071 0.0542
0.0155489 0.280156 0.0325475
0.0745251 0.293217 0.00854505
0.209216 0.305501 0.000717174
0.320287 0.317266 0
0.409934 0.330236 0
0.494347 0.341833 0
0.574853 0.353231 0
0.640909 0.363836 0.00183108
0.690517 0.372183 0.00480659
0.731014 0.377874 0.00703441
0.765438 0.381384 0.00834669
0.795743 0.384024 0.00915541
0.820066 0.385779 0.00961318
0.839307 0.386358 0.00988785
0.855039 0.386496 0.0100252
0.868559 0.386969 0.010132
0.88043 0.388495 0.010193
0.890394 0.390692 0.0102693
0.898955 0.393332 0.0103304
0.906859 0.396506 0.0103761
0.914137 0.400259 0.0104372
0.920974 0.405051 0.0105135
0.927367 0.409552 0.0105592
0.9308 0.41149 0.0105898
0.930327 0.410437 0.0105745
0 0.293492 0.0614481
0 0.290959 0.0619669
0 0.28925 0.0623026
0 0.290684 0.0620127
0 0.292485 0.0614328
0.000167849 0.296773 0.0581979
0.0047303 0.303258 0.0519265
0.00950637 0.311666 0.0341344
0.0142977 0.323812 0.0102388
0.0373999 0.340764 0.00758373
0.172519 0.356985 0.00347906
0.310353 0.37145 0
0.409979 0.386801 0
0.500771 0.400504 0
0.58761 0.413214 0
0.659113 0.425376 0
0.712474 0.435172 0.00175479
0.755093 0.442435 0.00466926
0.791104 0.447196 0.00700389
0.822095 0.450584 0.00851453
0.847181 0.45275 0.00941482
0.866773 0.453498 0.00996414
0.882597 0.453605 0.0102693
0.896117 0.453742 0.0104982
0.907912 0.454978 0.0106661
0.917708 0.456809 0.0107729
0.926131 0.459358 0.0108644
0.933776 0.462287 0.0109102
0.940887 0.465843 0.0109865
0.947356 0.470024 0.0110933
0.95346 0.47425 0.0111391
0.957366 0.476524 0.0111543
0.956817 0.475151 0.0111543
0 0.326192 0.0537423
0 0.323903 0.0542916
0 0.32221 0.0547036
0 0.324254 0.0538491
0 0.326635 0.0524453
0.000198367 0.331762 0.0466011
0.0047303 0.339498 0.030045
0.00947585 0.350256 0.0154574
0.0142824 0.365576 0.00772107
0.0231632 0.384634 0.00723278
0.122957 0.404669 0.00508125
0.291676 0.422629 0.000610361
0.404746 0.440406 0
0.501167 0.456672 0
0.593164 0.471473 0
0.670451 0.485328 0
0.727825 0.496742 0.000228885
0.773114 0.505501 0.00236515
0.8112 0.511482 0.00540169
0.843732 0.515801 0.00758373
0.870161 0.518898 0.00894179
0.890593 0.520043 0.00981155
0.906874 0.52015 0.0103456
0.920638 0.520165 0.0107118
0.932616 0.521416 0.0109712
0.942702 0.523507 0.0111696
0.951125 0.525994 0.0113375
0.958709 0.528862 0.0114137
0.965682 0.532189 0.0115206
0.971923 0.536034 0.0116579
0.977661 0.539879 0.0117189
0.981933 0.542336 0.0117494
0.981399 0.540902 0.0117342
0 0.353475 0.0406958
0 0.351568 0.0416571
0 0.350072 0.0424201
0 0.352605 0.0408026
0 0.355673 0.0361944
0.000518807 0.361715 0.0225376
0.00480659 0.370947 0.012314
0.00953689 0.383597 0.00802625
0.0143893 0.400702 0.00714122
0.0198825 0.421485 0.00701915
0.0890211 0.443885 0.00672923
0.26865 0.46566 0.00227359
0.395346 0.485832 0
0.497414 0.504631 0
0.593164 0.521614 0
0.675425 0.537224 0
0.737148 0.550408 0
0.784848 0.560357 0.00134279
0.825315 0.567788 0.0043183
0.859403 0.573022 0.00695811
0.887221 0.576852 0.0087129
0.908766 0.578515 0.00979629
0.925917 0.578866 0.0104982
0.940215 0.579095 0.0110018
0.952529 0.580041 0.0113375
0.962921 0.582177 0.0115816
0.971557 0.584756 0.0118105
0.979187 0.587594 0.0119631
0.98645 0.590875 0.0121462
0.992798 0.594644 0.012253
0.997696 0.598306 0.0123598
0.998795 0.601175 0.0124971
0.998413 0.599817 0.0124819
0 0.37879 0.0118257
0 0.376928 0.0140841
0 0.375494 0.0158389
0 0.378637 0.016434
0 0.382498 0.0155947
0.000747692 0.389319 0.00950637
0.00483711 0.399802 0.00723278
0.00961318 0.413611 0.00706493
0.0145266 0.431724 0.00700389
0.0195621 0.454093 0.0069276
0.0655528 0.478065 0.00704967
0.23917 0.502708 0.00352483
0.382361 0.525505 0
0.490364 0.546517 0
0.589258 0.565469 0
0.675135 0.582956 0
0.741207 0.597498 0
0.791821 0.608865 0.000961318
0.834363 0.617166 0.00383001
0.870298 0.623423 0.00680552
0.899687 0.627741 0.00881972
0.922545 0.630182 0.0100862
0.940566 0.630793 0.0108797
0.955428 0.631006 0.011429
0.968277 0.631693 0.0118715
0.979095 0.63386 0.0121767
0.988098 0.636469 0.0124514
0.995285 0.638743 0.012604
0.998734 0.640009 0.0127108
0.999588 0.64181 0.0127871
0.999893 0.644221 0.0128634
1 0.646235 0.0129702
1 0.645167 0.0129549
0 0.402655 0.00709545
0 0.400931 0.00709545
0 0.399603 0.0071107
0 0.402991 0.00708019
0 0.40763 0.00706493
0.000885023 0.415534 0.00701915
0.00486763 0.426657 0.00698863
0.00970474 0.441169 0.00695811
0.0146792 0.460548 0.0069276
0.0197604 0.484138 0.00689708
0.0419318 0.509712 0.00697337
0.197604 0.536721 0.00421149
0.365637 0.562539 0
0.480812 0.585779 0
0.582818 0.607004 0
0.671656 0.626551 0
0.740749 0.642832 0
0.794659 0.655467 0.000808728
0.840208 0.665095 0.00390631
0.87805 0.672068 0.00708019
0.909239 0.677241 0.00929274
0.933608 0.680659 0.0106813
0.952667 0.682002 0.0115511
0.968338 0.682475 0.0121309
0.981506 0.683391 0.012604
0.990524 0.684138 0.0128481
0.99382 0.683803 0.0129397
0.997009 0.683757 0.0130465
0.999939 0.684215 0.0131685
1 0.685634 0.0132601
1 0.687175 0.0133059
1 0.688914 0.0134279
1 0.687938 0.0134127
0 0.424262 0.00698863
0 0.422705 0.00700389
0 0.421592 0.00700389
0 0.425177 0.00694286
0 0.430579 0.00697337
0.000961318 0.438926 0.0069276
0.00488289 0.450736 0.00688182
0.00975052 0.465721 0.00688182
0.0147707 0.485954 0.00688182
0.019913 0.510597 0.00689708
0.0268559 0.537408 0.0069276
0.153674 0.566247 0.00544747
0.347204 0.594919 0.000610361
0.468925 0.620127 0
0.574014 0.643229 0
0.66598 0.664988 0
0.737743 0.683207 4.57771e-05
0.793896 0.697215 0.000915541
0.842893 0.707866 0.00466926
0.882994 0.715862 0.0077821
0.916167 0.722103 0.0100404
0.942046 0.726253 0.0115053
0.962325 0.728298 0.0124208
0.978393 0.728832 0.0130617
0.987289 0.727749 0.0132753
0.990768 0.725948 0.0133516
0.993973 0.725124 0.0134432
0.997177 0.725017 0.0135348
0.999878 0.725231 0.0136416
1 0.726085 0.0137636
1 0.72723 0.0138247
1 0.728191 0.0139162
1 0.727596 0.0139162
0 0.441672 0.00689708
0 0.440543 0.00689708
0 0.439673 0.00689708
0 0.443412 0.00689708
0 0.44947 0.00689708
0.0009308 0.458442 0.00686656
0.00486763 0.470787 0.0068513
0.00976577 0.486076 0.00686656
0.0148013 0.506905 0.0068513
0.0200351 0.532494 0.00694286
0.0252384 0.560433 0.00697337
0.131304 0.590494 0.00717174
0.328588 0.621363 0.00340276
0.456977 0.648569 0
0.564492 0.673442 0
0.660044 0.697108 0
0.734264 0.717067 0.000122072
0.791974 0.732631 0.00228885
0.84268 0.744427 0.00608835
0.885908 0.753201 0.00883497
0.921233 0.760037 0.011017
0.948501 0.764752 0.0124361
0.969909 0.767117 0.0133364
0.983597 0.76701 0.0138247
0.987366 0.764035 0.0138552
0.990631 0.762249 0.0139315
0.993851 0.761257 0.0140078
0.997101 0.760952 0.0141146
0.999649 0.760784 0.0142061
1 0.761196 0.0142519
1 0.761944 0.0143435
1 0.762722 0.014435
1 0.762341 0.0144503
0 0.455726 0.00683604
0 0.454826 0.00683604
0 0.454078 0.0068513
0 0.457755 0.0068513
0 0.464485 0.0068513
0.000808728 0.473869 0.00682078
0.00479133 0.486656 0.00682078
0.00970474 0.502281 0.0068513
0.0147707 0.523079 0.00686656
0.0200198 0.549249 0.00695811
0.0253147 0.57792 0.00706493
0.109377 0.608362 0.00758373
0.311086 0.640864 0.00553903
0.444419 0.669795 0
0.5552 0.696132 0
0.652308 0.721035 0
0.729717 0.742535 0
0.789395 0.759319 0.00364691
0.841611 0.772061 0.0074464
0.886503 0.781537 0.0100862
0.924071 0.788952 0.0119326
0.952804 0.794354 0.0132448
0.975357 0.797436 0.0140993
0.983429 0.795514 0.014313
0.987076 0.792721 0.0143587
0.990356 0.791104 0.0144198
0.993606 0.790158 0.0144961
0.996902 0.789776 0.0145876
0.999451 0.789654 0.0146792
1 0.789792 0.0147555
1 0.790326 0.014847
1 0.790921 0.0149386
1 0.790707 0.0149691
0 0.46743 0.00682078
0 0.466667 0.00682078
0 0.466026 0.00682078
0 0.46949 0.00680552
0 0.476982 0.0068513
0.00062562 0.486595 0.00682078
0.00469978 0.499687 0.00683604
0.00961318 0.515358 0.00686656
0.0146487 0.535912 0.00689708
0.0198978 0.562203 0.00695811
0.0252384 0.591379 0.00709545
0.0882124 0.621897 0.0075227
0.295384 0.655558 0.00662242
0.431815 0.685969 0
0.545022 0.713191 0
0.643626 0.738949 0
0.723308 0.761517 9.15541e-05
0.784955 0.7794 0.00457771
0.839078 0.793378 0.00848402
0.884993 0.803647 0.0110781
0.923995 0.811734 0.0128023
0.954925 0.817807 0.013962
0.976822 0.820951 0.0146639
0.983368 0.81883 0.0148013
0.986786 0.816449 0.0148318
0.990097 0.814847 0.0148775
0.993408 0.813901 0.0149538
0.996719 0.813458 0.0150301
0.999268 0.81326 0.0151064
1 0.813291 0.0151827
1 0.813672 0.0152743
1 0.814099 0.0153658
1 0.813993 0.0153964
0 0.477821 0.00680552
0 0.477119 0.00680552
0 0.476539 0.00680552
0 0.479637 0.00679026
0 0.488014 0.00683604
0.000366217 0.49778 0.00683604
0.00456245 0.511177 0.00686656
0.00944533 0.526802 0.00683604
0.0145418 0.546883 0.0069276
0.019791 0.573236 0.00700389
0.0251621 0.602564 0.00717174
0.0809491 0.633371 0.00758373
0.281621 0.667216 0.00767529
0.419394 0.69865 0
0.534997 0.726604 0
0.635355 0.753338 0
0.716518 0.776684 0.000991836
0.780316 0.795636 0.00529488
0.835508 0.810529 0.00924697
0.882918 0.821653 0.011841
0.922972 0.83032 0.0135042
0.955383 0.837034 0.0145876
0.97615 0.839933 0.0151217
0.9832 0.838315 0.015259
0.986587 0.836133 0.0152895
0.989929 0.834638 0.0153353
0.99324 0.833661 0.0153658
0.996551 0.833097 0.0154116
0.999115 0.832715 0.0154726
1 0.832715 0.0155337
1 0.832959 0.0156252
1 0.833188 0.0157015
1 0.833143 0.0157321
0 0.487144 0.00677501
0 0.486503 0.00677501
0 0.48603 0.00677501
0 0.488701 0.00677501
0 0.498054 0.00680552
6.10361e-05 0.508232 0.00683604
0.00442512 0.521935 0.00686656
0.009308 0.537621 0.00688182
0.0144198 0.557488 0.00695811
0.0196841 0.583322 0.00706493
0.0250095 0.612589 0.00720226
0.075227 0.643458 0.00762951
0.270344 0.677165 0.0087892
0.409033 0.709529 0
0.525734 0.737987 0
0.627115 0.765301 0
0.710063 0.789487 0.00169375
0.775692 0.809293 0.00596628
0.831815 0.824872 0.0099031
0.880491 0.836713 0.0124819
0.921706 0.845914 0.0140993
0.955352 0.853117 0.0150912
0.975418 0.856031 0.0155489
0.982788 0.854887 0.0156558
0.986236 0.852857 0.015671
0.989639 0.851514 0.0157015
0.993011 0.850538 0.0157321
0.996384 0.849912 0.0157626
0.999008 0.849454 0.0157931
1 0.849256 0.0158541
1 0.849363 0.0159152
1 0.849531 0.0159762
1 0.84947 0.0159915
0 0.495262 0.00675975
0 0.494728 0.00675975
0 0.494331 0.00675975
0 0.496468 0.00675975
0 0.506889 0.00680552
0 0.517784 0.0068513
0.00424201 0.531655 0.00686656
0.0091249 0.547372 0.00686656
0.0142672 0.567041 0.00698863
0.0195315 0.592248 0.00709545
0.0248569 0.621363 0.00724804
0.0702983 0.65214 0.00767529
0.256886 0.685603 0.0089723
0.400412 0.718578 0
0.517906 0.747387 0
0.619165 0.774899 0
0.703807 0.79971 0.00202945
0.770809 0.820096 0.00642405
0.82797 0.836439 0.0103914
0.877852 0.84892 0.0129854
0.919921 0.858549 0.0145724
0.954971 0.866239 0.0155032
0.975265 0.869474 0.0159152
0.982483 0.868544 0.0159915
0.985885 0.866697 0.0159915
0.989319 0.865385 0.0160067
0.992752 0.864515 0.0160372
0.996185 0.863798 0.0160678
0.998917 0.863432 0.0161135
1 0.863203 0.016144
1 0.863233 0.0162051
1 0.863264 0.0162203
1 0.863218 0.0161898
0 0.502754 0.00677501
0 0.502174 0.00677501
0 0.501762 0.00677501
0 0.503182 0.00679026
0 0.514687 0.00682078
0 0.526421 0.0068513
0.0040589 0.540505 0.00688182
0.00894179 0.556237 0.00688182
0.0140841 0.575647 0.00700389
0.0193332 0.600229 0.00714122
0.0246891 0.628992 0.00729381
0.0656748 0.659464 0.00766003
0.24387 0.692485 0.00894179
0.393072 0.725704 0
0.510613 0.754711 0
0.612055 0.782376 0
0.697414 0.807446 0.00202945
0.76611 0.828534 0.00677501
0.82417 0.845426 0.0107729
0.875044 0.858442 0.0133364
0.9178 0.868376 0.0148928
0.953918 0.876432 0.0157778
0.975341 0.880201 0.0161593
0.982269 0.879484 0.0162356
0.985702 0.877867 0.0162356
0.989136 0.876677 0.0162509
0.992584 0.875807 0.0162814
0.996002 0.875196 0.0162966
0.998856 0.874723 0.0163272
1 0.874495 0.0163729
1 0.874418 0.0164034
