public/textures/LUTs/CHRONICLE.CUBE
TITLE "Generated by Resolve"
LUT_3D_SIZE 33
0 0 0
0.00210575 3.0518e-05 1.5259e-05
0.016556 9.15541e-05 1.5259e-05
0.0325628 1.5259e-05 0
0.0501106 0 0
0.0696574 0 0
0.0915541 0 0
0.116243 0 0
0.14464 0 0
0.17763 0 0
0.215228 0 0
0.257771 0 0
0.305303 0 0
0.356466 0 0
0.408591 0 0
0.459068 0 0
0.506172 0 0
0.547921 0 0
0.585809 0 0
0.622461 0 0
0.656397 0 0
0.687068 0 0
0.714778 0 0
0.739788 0 0
0.762707 0 0
0.783795 0 0
0.803189 0 0
0.82121 0 0
0.838224 0 0
0.853849 0 0
0.86865 0 0
0.869261 0 0
0.869261 0 0
9.15541e-05 0.0009308 9.15541e-05
0.00115969 0.000442512 4.57771e-05
0.0154269 0.000106813 3.0518e-05
0.03122 1.5259e-05 0
0.0485542 0 0
0.0677958 0 0
0.0894636 0 0
0.113939 0 0
0.141802 0 0
0.174334 0 0
0.211719 0 0
0.253712 0 0
0.30042 0 0
0.351217 0 0
0.403235 0 0
0.453941 0 0
0.501335 0 0
0.543557 0 0
0.58172 0 0
0.618616 0 0
0.653025 0 0
0.684062 0 0
0.711955 0 0
0.737316 0 0
0.760342 0 0
0.781643 0 0
0.80119 0 0
0.819333 0 0
0.836423 0 0
0.852125 0 0
0.867018 0 0
0.869261 0 0
0.869261 0 0
0.00106813 0.0117647 0.00102235
0.00106813 0.0112459 0.000991836
0.0169375 0.0125429 0.00201419
0.0328985 0.0125887 0.00167849
0.0504768 0.0117952 0.000854505
0.0694591 0.0100557 9.15541e-05
0.090486 0.00761425 0
0.114855 0.00500496 0
0.142611 0.00209049 0
0.175067 0 0
0.212116 0 0
0.254047 0 0
0.30042 0 0
0.351049 0 0
0.403113 0 0
0.454032 0 0
0.501701 0 0
0.544564 0 0
0.583078 0 0
0.620218 0 0
0.654658 0 0
0.686046 0 0
0.714183 0 0
0.739635 0 0
0.762829 0 0
0.784115 0 0
0.803647 0 0
0.821805 0 0
0.838987 0 0
0.854795 0 0
0.869673 0 0
0.87332 0 0
0.873091 0 0
0.00177005 0.0229953 0.00173953
0.00172427 0.0223392 0.00169375
0.0156863 0.0248722 0.00276188
0.0354162 0.0264286 0.00419623
0.0532082 0.026215 0.00364691
0.0719463 0.0249485 0.00195315
0.0923323 0.0222782 0.000213626
0.116197 0.0196994 0
0.144167 0.0167239 0
0.176562 0.0128481 0
0.213855 0.0077821 0
0.255924 0.00221256 0
0.302571 0.000137331 0
0.352667 0 0
0.405417 0 0
0.456809 0 0
0.505028 0 0
0.548928 0 0
0.587976 0 0
0.625559 0 0
0.660731 0 0
0.692317 0 0
0.721096 0 0
0.746868 0 0
0.770535 0 0
0.792004 0 0
0.811933 0 0
0.830564 0 0
0.848341 0 0
0.864729 0 0
0.88011 0 0
0.885374 0 0
0.885176 0 0
0.00236515 0.0367895 0.00234989
0.00233463 0.0360418 0.00231937
0.0127413 0.0383307 0.00297551
0.0348363 0.0416266 0.00500496
0.0568246 0.0415808 0.00624094
0.075761 0.0405432 0.005066
0.0948501 0.0381323 0.00205997
0.118013 0.0356298 0.000289921
0.145998 0.0331121 0
0.178164 0.0296178 0
0.215564 0.0250095 0
0.257939 0.0191958 0
0.304814 0.012192 0
0.354971 0.00424201 0
0.408072 0.00132753 0
0.459953 0.000289921 0
0.50898 0 0
0.553521 0 0
0.593225 0 0
0.631357 0 0
0.667018 0 0
0.699046 0 0
0.728084 0 0
0.754345 0 0
0.77847 0 0
0.800565 0 0
0.821042 0 0
0.840192 0 0
0.858289 0 0
0.875257 0 0
0.891356 0 0
0.898512 0 0
0.898238 0 0
0.00239567 0.0533913 0.00248722
0.00241093 0.0524605 0.00250248
0.0105592 0.0546426 0.00317388
0.0299992 0.05832 0.00494392
0.0567636 0.058793 0.00668345
0.0795911 0.0569162 0.00715648
0.0994278 0.054612 0.00521859
0.12137 0.0526589 0.00224308
0.148699 0.0507057 0.000411994
0.180713 0.0478676 0
0.217624 0.0437934 0
0.260075 0.0384222 0
0.307103 0.0319677 0
0.357549 0.0245975 0
0.410651 0.0164034 0
0.463371 0.00820935 0
0.512795 0.00358587 0
0.558648 0.0019379 0
0.598703 0.000839246 0
0.637476 0.000106813 0
0.673381 0 0
0.706111 0 0
0.735882 0 0
0.762753 0 0
0.787228 0 0
0.80972 0 0
0.830625 0 0
0.850492 0 0
0.869139 0 0
0.886946 0 0
0.903502 0 0
0.912612 0 0
0.912322 0 0
0.00172427 0.0724956 0.00199893
0.00177005 0.0714427 0.00202945
0.00880446 0.0734417 0.00280766
0.0254673 0.0775311 0.00456245
0.0523995 0.0784161 0.00634775
0.0792554 0.0755016 0.00688182
0.103075 0.0720836 0.00683604
0.127474 0.070634 0.00543221
0.153674 0.0695201 0.00270085
0.184665 0.0674601 0.000396735
0.220706 0.0641642 0
0.263096 0.0594797 0
0.309972 0.0535897 0
0.360433 0.0467536 0
0.414191 0.0390478 0
0.46714 0.0314336 0
0.517311 0.0241703 0
0.563943 0.017792 0
0.604639 0.0126955 0
0.644022 0.00831617 0
0.680705 0.00642405 0
0.713939 0.00546273 0
0.743938 0.00494392 0
0.771496 0.00462348 0
0.796658 0.00444038 0
0.819974 0.00434882 0
0.841642 0.00463874 0
0.86183 0.00613413 0
0.881056 0.00880446 0
0.899687 0.0118868 0
0.917388 0.0151369 0
0.928634 0.0171206 0
0.928344 0.0165408 0
0.00030518 0.0957656 0.000671397
0.000320439 0.0944228 0.000717174
0.00683604 0.0962081 0.00146487
0.0195773 0.0991989 0.00315862
0.0455482 0.101122 0.00579843
0.076585 0.0984207 0.00682078
0.104158 0.0935225 0.00686656
0.131945 0.0906539 0.00714122
0.161425 0.0895399 0.00602731
0.191684 0.0883345 0.00296025
0.226368 0.0859541 0.000213626
0.26746 0.0822003 0
0.314061 0.0771649 0
0.364492 0.070985 0
0.418372 0.0639353 0
0.47155 0.0568399 0
0.522362 0.0502327 0
0.569421 0.0443885 0
0.611231 0.039704 0
0.651087 0.0358282 0
0.688228 0.0329137 0
0.722164 0.03122 0
0.753033 0.0304417 0
0.781231 0.0306554 0
0.806928 0.0316014 0
0.830777 0.0333104 0
0.853101 0.0357061 0
0.874266 0.0386816 0
0.89424 0.0421302 0
0.913512 0.0458991 0
0.931884 0.0498207 0
0.945617 0.0529488 0
0.945235 0.0521401 0
0 0.121538 0
0 0.119951 0
0.00369268 0.121782 0
0.0138552 0.125399 0.000671397
0.0361334 0.127611 0.00347906
0.0703288 0.126513 0.00650034
0.104128 0.121004 0.00732433
0.133944 0.115465 0.0075227
0.166644 0.112413 0.00775158
0.200977 0.110887 0.00624094
0.23563 0.10956 0.0027924
0.274632 0.106996 0
0.320165 0.1028 0
0.370199 0.0975814 0
0.424018 0.0915541 0
0.477409 0.0852369 0
0.528283 0.0792096 0
0.575814 0.07393 0
0.618479 0.0697948 0
0.65893 0.0666667 0
0.696895 0.0644083 0
0.731365 0.0633249 0
0.762783 0.0632334 0
0.791485 0.0640879 0
0.818021 0.0659342 0
0.842741 0.0684062 0
0.865873 0.0715496 0
0.887633 0.0751965 0
0.908415 0.079469 0
0.928878 0.0843366 0
0.94815 0.0892805 0
0.964721 0.0940108 0
0.964309 0.0931258 0
0 0.151522 0
0 0.149813 0
0.000762951 0.151568 0
0.00755322 0.156298 0
0.0254826 0.159319 0.000274662
0.0591592 0.159152 0.00370794
0.0989853 0.154421 0.00669871
0.135149 0.147265 0.00756847
0.168643 0.141344 0.00779736
0.206836 0.137926 0.00784314
0.246815 0.135744 0.00621042
0.286244 0.133867 0.00225834
0.330007 0.13138 1.5259e-05
0.378698 0.127291 0
0.431891 0.121965 0
0.48481 0.116625 0
0.536065 0.111818 0
0.584115 0.107362 0
0.627375 0.103914 0
0.668055 0.101289 0
0.706325 0.099855 0
0.741527 0.0997635 0
0.773724 0.100649 0
0.803037 0.102373 0
0.830213 0.104921 0
0.855634 0.108125 0
0.87985 0.112276 0
0.902647 0.116976 0
0.924315 0.122103 0
0.945571 0.127871 0.000183108
0.965957 0.13402 0.00172427
0.985443 0.140475 0.00604257
0.985016 0.139513 0.00578317
0 0.186343 0
0 0.184314 0
0 0.185824 0
0.00164797 0.192096 0
0.0136416 0.196017 0
0.0445869 0.196811 0.000534066
0.0881514 0.193317 0.00369268
0.132494 0.185565 0.00653086
0.170413 0.177249 0.00738537
0.208804 0.171099 0.00761425
0.252949 0.167285 0.00756847
0.299214 0.16466 0.00579843
0.344381 0.162493 0.00163272
0.391608 0.15993 4.57771e-05
0.443595 0.156268 0
0.49572 0.152193 0
0.545815 0.148089 0
0.593515 0.144701 0
0.63769 0.14226 0
0.678798 0.140719 0
0.71754 0.140139 0
0.752972 0.140703 0
0.785412 0.142443 0
0.815579 0.145159 0
0.843931 0.149004 0
0.870176 0.153353 0
0.895003 0.158221 0
0.918532 0.16376 0.000259403
0.941283 0.169986 0.0028687
0.963836 0.177096 0.00920119
0.985245 0.184298 0.0159304
0.99736 0.191989 0.0242618
0.998138 0.191562 0.0244602
0 0.226047 0
0 0.223758 0
0 0.224933 0
0 0.233005 0
0.00263981 0.238224 0
0.027863 0.239826 0
0.0720531 0.237781 0.000534066
0.124819 0.230533 0.00329595
0.17055 0.220844 0.00585946
0.21091 0.212024 0.00682078
0.254917 0.205386 0.00709545
0.305455 0.200977 0.00698863
0.358495 0.198108 0.00520333
0.408484 0.195972 0.00134279
0.459159 0.193805 0
0.510033 0.191363 0
0.559365 0.188907 0
0.606317 0.186892 0
0.650202 0.185428 0
0.6907 0.185 0
0.729702 0.185595 0
0.765652 0.187488 0
0.798672 0.190188 0
0.829297 0.193881 6.10361e-05
0.857725 0.198199 0.000335698
0.884779 0.203525 0.000885023
0.910674 0.209598 0.00430304
0.935699 0.216281 0.0116732
0.959182 0.223346 0.019089
0.982269 0.231022 0.0273289
0.997452 0.239246 0.0360723
0.999847 0.248035 0.0453651
1 0.248631 0.0466468
0 0.27158 0
0 0.268711 0
0 0.269093 0
0 0.279683 0
0 0.286641 0
0.00799573 0.289601 0
0.0513161 0.288396 0
0.110719 0.28191 0.000411994
0.166262 0.272129 0.00201419
0.211841 0.261494 0.00442512
0.257084 0.251881 0.00560006
0.307469 0.244572 0.00614939
0.364385 0.239902 0.00602731
0.422812 0.237003 0.00448615
0.477836 0.235554 0.0015259
0.528435 0.23447 0.000274662
0.576135 0.233646 0
0.621592 0.233188 0
0.664607 0.233524 0
0.704585 0.234302 0
0.742885 0.236103 0
0.778729 0.239139 0.000137331
0.811994 0.242954 0.000976577
0.842939 0.248005 0.00263981
0.8719 0.253407 0.00656138
0.89958 0.2598 0.0129549
0.925719 0.266728 0.0198672
0.950896 0.274037 0.0275425
0.975052 0.282124 0.0358282
0.996323 0.290654 0.04448
1 0.299825 0.053666
1 0.309361 0.0631266
1 0.310842 0.0653849
0 0.322576 0
0 0.319432 0
0 0.31841 0
0 0.330861 0
0 0.339788 0
0.000244144 0.344656 0
0.0274968 0.34493 0
0.0914931 0.338827 0
0.1561 0.329229 0.000122072
0.208728 0.318547 0.000686656
0.257099 0.306538 0.00151064
0.308568 0.2963 0.00331121
0.365377 0.288701 0.00436408
0.42742 0.283848 0.00459297
0.491066 0.281621 0.00386053
0.546441 0.281102 0.00207523
0.594522 0.281666 0.000900282
0.638666 0.282887 0.000259403
0.680201 0.284581 7.62951e-05
0.718517 0.287098 0.000366217
0.755932 0.29041 0.00131228
0.790936 0.294682 0.00296025
0.823331 0.299565 0.00611887
0.854231 0.30573 0.0113222
0.882994 0.3122 0.0172732
0.910323 0.319539 0.0238193
0.936538 0.327184 0.0310369
0.961532 0.335286 0.038819
0.985702 0.344076 0.0472114
0.997711 0.353246 0.0558785
1 0.362676 0.064744
1 0.37232 0.0738537
1 0.374975 0.0770275
0 0.379843 0
0 0.376455 0
0 0.373983 0
0 0.388708 0
0 0.399359 0
0 0.405554 0
0.00404364 0.407736 0
0.0695354 0.402991 0
0.141222 0.393866 0
0.200656 0.383902 0
0.25388 0.371237 3.0518e-05
0.307347 0.357763 0.000366217
0.36495 0.34728 0.000717174
0.426581 0.339803 0.00112917
0.493385 0.335393 0.00218204
0.557427 0.334356 0.00302129
0.610285 0.334981 0.00283818
0.655116 0.337484 0.00268559
0.695705 0.340734 0.00265507
0.732052 0.344625 0.00344854
0.767315 0.349432 0.00538643
0.800885 0.354971 0.00863661
0.832181 0.361044 0.0127565
0.86183 0.367926 0.0177005
0.890135 0.375296 0.023682
0.916976 0.383261 0.0302281
0.942687 0.39147 0.0373541
0.967163 0.400092 0.0448463
0.990509 0.408728 0.0527047
0.999344 0.417975 0.0610361
1 0.42739 0.0695201
1 0.436881 0.0782177
1 0.440513 0.0821393
0 0.438437 0
0 0.434852 0
0 0.432151 0
0 0.448096 0
0 0.460136 0
0 0.468101 0
0 0.471901 0
0.0509041 0.469398 0
0.127733 0.461524 0
0.192126 0.452995 0
0.24921 0.44155 0
0.305028 0.426963 0
0.363333 0.413657 0
0.424704 0.403326 3.0518e-05
0.490623 0.396292 0.000244144
0.557748 0.393194 0.000610361
0.617761 0.393423 0.002121
0.666957 0.39585 0.00384527
0.708705 0.400137 0.00552377
0.744335 0.405066 0.00703441
0.777783 0.411109 0.00936904
0.809064 0.417487 0.0124208
0.839048 0.424582 0.0165713
0.867384 0.432059 0.0213016
0.894499 0.439765 0.0268101
0.920256 0.447852 0.0328985
0.945129 0.455955 0.0395514
0.968933 0.464561 0.0466621
0.990951 0.473274 0.0540627
1 0.481788 0.0617838
1 0.490776 0.0697185
1 0.49987 0.07776
1 0.504219 0.0822156
0 0.495979 0
0 0.492531 0
0 0.489784 0
0 0.505394 0
0 0.518975 0
0 0.527825 0
0 0.532982 0
0.0404364 0.532036 0
0.119417 0.525444 0
0.188113 0.519844 0
0.248325 0.510781 0
0.305882 0.497948 0
0.364462 0.483162 0
0.42504 0.470375 0
0.489403 0.460563 0
0.554635 0.454887 0
0.616602 0.453132 0.000350958
0.671351 0.454887 0.0024567
0.716991 0.45864 0.00598154
0.754025 0.463798 0.00909438
0.787076 0.470146 0.0121309
0.817014 0.476875 0.0152743
0.84509 0.484321 0.019089
0.871916 0.491814 0.0234531
0.897795 0.49955 0.0285344
0.92256 0.50753 0.0341802
0.946319 0.515602 0.0401923
0.969055 0.523552 0.0465248
0.989929 0.531807 0.0531472
1 0.540047 0.0599527
1 0.548409 0.0669871
1 0.556771 0.0741588
1 0.561593 0.0788128
0 0.551659 0
0 0.54818 0
0 0.545647 0
0 0.560174 0
0 0.574136 0
0 0.583841 0
0 0.590707 0
0.0368963 0.59144 0
0.116823 0.586664 0
0.188769 0.583017 0
0.251469 0.576288 0
0.310964 0.565927 0
0.370367 0.551766 0
0.430167 0.537179 0
0.492546 0.525109 0
0.556161 0.516716 0
0.615976 0.512413 0
0.671107 0.511742 0.000915541
0.720806 0.514748 0.00573739
0.761013 0.519295 0.0104067
0.795224 0.525216 0.0145113
0.824811 0.532006 0.018143
0.851774 0.538949 0.0217136
0.877012 0.546502 0.0256046
0.901137 0.554116 0.0299077
0.924422 0.561868 0.0346685
0.946639 0.569589 0.039704
0.967895 0.577279 0.0449531
0.988037 0.584924 0.0504921
0.999802 0.592554 0.05626
1 0.600427 0.0623178
1 0.608209 0.0684367
1 0.613352 0.0728161
0 0.606302 0
0 0.603281 0
0 0.600488 0
0 0.613825 0
0 0.629145 0
0 0.639414 0
0 0.647028 0
0.0391394 0.649989 0
0.117739 0.646342 0
0.191409 0.644205 0
0.25626 0.639902 0
0.317556 0.63154 0
0.377997 0.618479 0
0.437903 0.60351 0
0.499016 0.589532 0
0.560815 0.578958 0
0.618616 0.571694 0
0.671916 0.568887 0.000503548
0.721401 0.569406 0.00469978
0.764111 0.572717 0.0101015
0.800275 0.577691 0.0152132
0.830991 0.583917 0.0198062
0.857771 0.590707 0.023743
0.881941 0.597635 0.0272526
0.904326 0.604898 0.0306401
0.925582 0.612146 0.034165
0.946136 0.619425 0.038117
0.966125 0.62678 0.0424659
0.985245 0.634226 0.0469673
0.998672 0.641138 0.0515602
1 0.648219 0.0563363
1 0.65536 0.061265
1 0.660868 0.0653697
0 0.659388 0
0 0.656107 0
0 0.653513 0
0 0.665217 0
0 0.681559 0
0 0.692866 0
0.00407416 0.700984 0
0.0453956 0.704784 0
0.121706 0.702068 0
0.195758 0.700481 0
0.261982 0.697978 0
0.324498 0.691722 0
0.386267 0.680537 0.000427253
0.44651 0.666362 0.000167849
0.50692 0.651484 0
0.567361 0.638911 0
0.62295 0.62977 0
0.673808 0.624369 0.000427253
0.721309 0.622644 0.00343328
0.764126 0.624018 0.00846876
0.801846 0.62768 0.0141299
0.834028 0.632929 0.0194858
0.86157 0.638865 0.0239872
0.885451 0.645274 0.0275578
0.907057 0.652201 0.0306401
0.927031 0.658946 0.0335851
0.946136 0.665812 0.0366674
0.964492 0.672663 0.0399481
0.982116 0.679271 0.0433509
0.996536 0.686015 0.0470283
1 0.692683 0.0509346
1 0.699199 0.0549325
1 0.704875 0.0585641
0 0.71429 0
0 0.711025 0
0 0.708446 0
0 0.718379 0
0 0.734936 0
0 0.745708 0
0.0103761 0.754055 0
0.0552987 0.758389 0
0.128695 0.756085 0
0.202258 0.754406 0.000671397
0.268986 0.752575 0.00401312
0.332372 0.7476 0.00575265
0.395315 0.738247 0.00607309
0.456504 0.725063 0.00440986
0.516655 0.710033 0.00260929
0.575723 0.696223 0.00129702
0.629252 0.685298 0.000671397
0.677699 0.677958 0.000961318
0.722652 0.673579 0.00296025
0.763912 0.672786 0.00686656
0.801022 0.674525 0.0120089
0.834226 0.678141 0.0176394
0.863066 0.682902 0.0228275
0.887648 0.688304 0.0270237
0.909285 0.694392 0.0304112
0.928908 0.700587 0.0333867
0.947066 0.706844 0.0360113
0.964034 0.712856 0.0384222
0.980407 0.718975 0.0410163
0.995224 0.724971 0.0440223
1 0.731136 0.047364
1 0.737163 0.0505531
1 0.742931 0.0538338
0 0.76759 0
0 0.764401 0
0 0.761898 0
0 0.769314 0
0 0.785382 0
0.00169375 0.796139 0
0.0238651 0.804028 0
0.0688792 0.807996 0.00128176
0.138811 0.806058 0.00567636
0.211627 0.803677 0.00972
0.278187 0.802335 0.0143893
0.341726 0.797787 0.0163272
0.405539 0.789624 0.0158236
0.467628 0.77763 0.0127108
0.528069 0.763745 0.00892653
0.586023 0.749325 0.00553903
0.637842 0.737606 0.00347906
0.684108 0.728862 0.00302129
0.726635 0.722744 0.00411994
0.765469 0.719493 0.00660716
0.800519 0.718807 0.0103914
0.83331 0.720592 0.0154269
0.86305 0.724132 0.0209964
0.889143 0.728756 0.0261692
0.911376 0.733532 0.0301366
0.930907 0.738781 0.0332952
0.948653 0.744228 0.0357977
0.965057 0.74992 0.0381476
0.980789 0.75555 0.0405737
0.995499 0.760861 0.0429084
0.999924 0.766186 0.0452735
1 0.771603 0.0478065
1 0.777127 0.0508125
0 0.817639 0
0 0.814664 0
0 0.812329 0
0 0.817487 0
0.00256352 0.832441 0
0.0149233 0.84271 0.00170901
0.0420691 0.850431 0.00750744
0.0847181 0.854017 0.0126955
0.15111 0.851835 0.0188754
0.222599 0.848844 0.0243381
0.288502 0.847105 0.0282902
0.352316 0.842985 0.0292973
0.416739 0.83534 0.0275578
0.47982 0.824338 0.0232548
0.541146 0.811154 0.0179141
0.598505 0.797299 0.0129244
0.648569 0.785092 0.00923171
0.692683 0.775296 0.00727855
0.732876 0.768078 0.00714122
0.769787 0.763302 0.00840772
0.802731 0.760952 0.0109407
0.833753 0.760723 0.014786
0.862654 0.762295 0.0194553
0.889433 0.765484 0.0248569
0.913008 0.769406 0.0297551
0.933272 0.773922 0.0336309
0.951263 0.778561 0.0366979
0.967422 0.783337 0.0390173
0.982651 0.788144 0.0413214
0.996704 0.793164 0.0435035
0.999756 0.798306 0.0458381
1 0.80293 0.0478676
1 0.807462 0.0501717
0 0.863996 0
0 0.861265 0
0 0.859113 0
0.00354009 0.86244 0.00251774
0.0159152 0.876173 0.0093843
0.0351263 0.885969 0.0152132
0.0608682 0.89279 0.0230259
0.100771 0.896178 0.0303044
0.163882 0.893935 0.0359503
0.233448 0.890074 0.0397192
0.29839 0.887617 0.0422675
0.362692 0.883436 0.0425574
0.42771 0.876097 0.0399634
0.491981 0.865522 0.0348058
0.554925 0.853101 0.0284123
0.61265 0.839612 0.0222171
0.661555 0.82742 0.0171054
0.703487 0.817212 0.0137026
0.74165 0.809415 0.012253
0.776654 0.803555 0.0122835
0.807416 0.799802 0.013611
0.836667 0.798016 0.0162051
0.864012 0.797833 0.0198367
0.89012 0.799374 0.0244755
0.914305 0.802289 0.0296635
0.935882 0.805707 0.0344854
0.954574 0.809583 0.0384222
0.97116 0.813565 0.041413
0.986099 0.81767 0.0437171
0.997925 0.822034 0.0457771
0.999969 0.826505 0.0477455
1 0.830762 0.0496376
1 0.834958 0.0515602
0.0149081 0.906432 0.0161746
0.0136873 0.903944 0.014847
0.012726 0.901991 0.0138094
0.0162814 0.903716 0.0156863
0.0352941 0.916793 0.026688
0.0552682 0.925872 0.0352178
0.0790265 0.932052 0.0422217
0.116182 0.934966 0.0483253
0.176333 0.932647 0.0525826
0.243977 0.928084 0.0547799
0.307515 0.924392 0.0557717
0.371786 0.920073 0.0552529
0.437354 0.912688 0.0519112
0.503365 0.902495 0.046128
0.567742 0.890257 0.0390021
0.626459 0.877531 0.0320745
0.675395 0.865599 0.0261692
0.716274 0.855177 0.0217746
0.752392 0.846769 0.0192264
0.785641 0.840131 0.0181125
0.814664 0.835431 0.0184329
0.842023 0.832319 0.019852
0.868086 0.830869 0.0225681
0.892744 0.830976 0.0261387
0.916091 0.832181 0.0304875
0.937865 0.834516 0.0353399
0.957427 0.837629 0.0398871
0.974731 0.841062 0.0437476
0.990005 0.844739 0.0466011
0.99826 0.848371 0.0487984
1 0.852232 0.0505379
1 0.856123 0.0522316
1 0.860059 0.0538338
0.0365606 0.946059 0.0378729
0.0352178 0.943755 0.0365911
0.034165 0.941939 0.035584
0.0360113 0.942229 0.0362402
0.0549172 0.953811 0.0461891
0.074052 0.962463 0.0541238
0.096376 0.968048 0.0603189
0.130678 0.970718 0.0654459
0.187655 0.967758 0.0681468
0.253468 0.962661 0.068925
0.316228 0.958343 0.068925
0.379614 0.953368 0.0673381
0.445731 0.945891 0.0632181
0.513085 0.9355 0.0566262
0.579019 0.923461 0.0489357
0.63917 0.911208 0.041474
0.688502 0.899672 0.0350195
0.729091 0.889494 0.0303349
0.763989 0.880858 0.0268864
0.795636 0.873701 0.0248875
0.823178 0.868223 0.0242924
0.848829 0.863996 0.024567
0.873335 0.861418 0.0263371
0.896529 0.860243 0.0287785
0.918715 0.860365 0.0322728
0.939864 0.861616 0.0364843
0.959716 0.863798 0.041062
0.977478 0.866331 0.0452735
0.993179 0.869383 0.0487678
0.999222 0.872541 0.051606
1 0.876005 0.0537881
1 0.879515 0.055375
1 0.883024 0.056611
0.0575265 0.981567 0.0576486
0.0563363 0.979583 0.0565347
0.0554055 0.978027 0.0556649
0.0555734 0.97705 0.0554208
0.0739147 0.984253 0.0645151
0.0918746 0.989853 0.0713664
0.11342 0.994217 0.0769513
0.144823 0.997192 0.0814984
0.198657 0.995224 0.0828565
0.262196 0.990997 0.0822003
0.324056 0.987381 0.0811627
0.386404 0.983001 0.0789197
0.452949 0.975753 0.0737926
0.521294 0.965484 0.0665141
0.588479 0.953384 0.0581216
0.649897 0.941253 0.0501106
0.700328 0.930068 0.0433509
0.741054 0.920302 0.0384375
0.775143 0.91165 0.0345159
0.805905 0.904158 0.0318608
0.83209 0.89836 0.0306706
0.856428 0.893553 0.0301518
0.879591 0.890105 0.0309453
0.901381 0.887907 0.0323796
0.922438 0.88687 0.0349126
0.942458 0.886946 0.0382239
0.961715 0.888136 0.0421454
0.979767 0.890043 0.0465095
0.994415 0.892348 0.0505684
0.999832 0.895003 0.0539254
1 0.897948 0.0565499
1 0.901076 0.0584726
1 0.90428 0.0598611
0.0766003 1 0.0755016
0.0755322 1 0.0744793
0.0746014 1 0.0736095
0.0738384 1 0.0728771
0.0916304 1 0.0810559
0.109361 1 0.0873426
0.130739 1 0.0923018
0.159777 1 0.0959335
0.21062 1 0.0965133
