public/textures/LUTs/CHRONICLE.CUBE
TITLE "Generated by Resolve"
LUT_3D_SIZE 9
0 0 0
0.0501106 0 0
0.14464 0 0
0.305303 0 0
0.506172 0 0
0.656397 0 0
0.762707 0 0
0.838224 0 0
0.869261 0 0
0.00236515 0.0367895 0.00234989
0.0568246 0.0415808 0.00624094
0.145998 0.0331121 0
0.304814 0.012192 0
0.50898 0 0
0.667018 0 0
0.77847 0 0
0.858289 0 0
0.898238 0 0
0 0.121538 0
0.0361334 0.127611 0.00347906
0.166644 0.112413 0.00775158
0.320165 0.1028 0
0.528283 0.0792096 0
0.696895 0.0644083 0
0.818021 0.0659342 0
0.908415 0.079469 0
0.964309 0.0931258 0
0 0.27158 0
0 0.286641 0
0.166262 0.272129 0.00201419
0.364385 0.239902 0.00602731
0.576135 0.233646 0
0.742885 0.236103 0
0.8719 0.253407 0.00656138
0.975052 0.282124 0.0358282
1 0.310842 0.0653849
0 0.495979 0
0 0.518975 0
0.119417 0.525444 0
0.364462 0.483162 0
0.616602 0.453132 0.000350958
0.787076 0.470146 0.0121309
0.897795 0.49955 0.0285344
0.989929 0.531807 0.0531472
1 0.561593 0.0788128
0 0.71429 0
0 0.734936 0
0.128695 0.756085 0
0.395315 0.738247 0.00607309
0.629252 0.685298 0.000671397
0.801022 0.674525 0.0120089
0.909285 0.694392 0.0304112
0.980407 0.718975 0.0410163
1 0.742931 0.0538338
0.0149081 0.906432 0.0161746
0.0352941 0.916793 0.026688
0.176333 0.932647 0.0525826
0.437354 0.912688 0.0519112
0.675395 0.865599 0.0261692
0.814664 0.835431 0.0184329
0.916091 0.832181 0.0304875
0.990005 0.844739 0.0466011
1 0.860059 0.0538338
0.0940261 1 0.0921187
0.106966 1 0.0964523
0.219333 1 0.109316
0.463752 0.999969 0.0930648
0.719112 0.982055 0.0585031
0.849485 0.951308 0.0429694
0.931975 0.935729 0.0419471
0.995834 0.934188 0.0523384
1 0.942153 0.0654459
0.150774 1 0.14757
0.156603 1 0.148211
0.249271 1 0.153552
0.477928 1 0.12636
0.74461 1 0.0839551
0.88069 1 0.0658122
0.95436 1 0.0585946
1 1 0.059617
1 1 0.0689708
0 0.0011902 0.0421759
0.0425422 0 0.0430915
0.149538 0 0.0355688
0.316289 0 0.00753796
0.518746 0 0
0.666514 0 0
0.771237 0 0
0.845975 0 0
0.87747 0 0
0.000289921 0.0389563 0.0272374
0.0457771 0.042649 0.0461738
0.148226 0.0370184 0.0383001
0.310933 0.015671 0.0144656
0.516457 3.0518e-05 0
0.673991 0 0
0.785031 0 0
0.864546 0 0
0.905577 0 0
0 0.122835 0.0314488
0.024094 0.13051 0.0406195
0.167025 0.122789 0.0455787
0.320806 0.110933 0.0273136
0.533837 0.0868086 0.00363165
0.704295 0.0723125 0
0.825742 0.0746777 0.000579843
0.916686 0.0890211 0.00476081
0.973816 0.103426 0.0165713
0 0.274189 3.0518e-05
0 0.291447 0.00366217
0.15613 0.285863 0.030396
0.36173 0.251987 0.0376593
0.573861 0.246265 0.0237125
0.747326 0.247639 0.0194247
0.878401 0.264576 0.0349279
0.982345 0.293324 0.0639048
1 0.322103 0.0924392
0 0.500084 0
0 0.524315 0
0.103426 0.53698 0
0.36408 0.500114 0.0145876
0.61503 0.465812 0.0234226
0.785779 0.481376 0.0340734
0.898817 0.50927 0.0486915
0.990509 0.53991 0.0713817
1 0.568231 0.0955978
0 0.718624 0
0 0.738781 0
0.115755 0.763561 0.00941482
0.391485 0.74757 0.0256809
0.62742 0.693935 0.0173037
0.800061 0.680598 0.0275578
0.908354 0.69894 0.0437629
0.979736 0.722301 0.0521859
1 0.745113 0.0632792
0.0159915 0.908415 0.0356909
0.0358434 0.917861 0.043473
0.167376 0.935668 0.066453
0.430747 0.915755 0.06392
0.673426 0.869062 0.0373083
0.813443 0.837354 0.0274052
0.915038 0.832822 0.0377813
0.988922 0.844572 0.0521706
1 0.859693 0.0578012
0.0941634 1 0.104677
0.106233 1 0.106188
0.213123 1 0.117372
0.45684 0.999985 0.0988174
0.715496 0.982437 0.0628519
0.847776 0.951064 0.0456092
0.930617 0.934737 0.0428779
0.995346 0.932967 0.0520485
1 0.941009 0.0652476
0.150286 1 0.153903
0.155261 1 0.151537
0.246021 1 0.155276
0.474083 1 0.126467
0.741482 1 0.0840467
0.879026 1 0.0656901
0.95314 1 0.0583963
1 1 0.0593729
1 1 0.0687572
0 0.000244144 0.13727
0.0187991 0 0.145586
0.142672 0 0.126604
0.330297 0 0.106859
0.53547 0 0.071046
0.680812 0 0.0506142
0.783215 0 0.0443275
0.857267 0 0.04654
0.889876 0 0.0485695
0 0.038819 0.117891
0.0207065 0.0403449 0.149493
0.144457 0.0361486 0.134142
0.32668 0.0188907 0.115099
0.536492 0 0.0814984
0.691249 0 0.0604105
0.79939 0 0.0549935
0.87866 0 0.0610056
0.921065 0 0.0673838
0 0.127413 0.0664378
0.0196689 0.136522 0.102693
0.15584 0.134142 0.143175
0.331868 0.124071 0.129839
0.551507 0.101472 0.103944
0.723171 0.0898756 0.0906539
0.844556 0.0957046 0.0959793
0.937255 0.113329 0.113954
0.994278 0.130709 0.132662
0 0.28275 0.0581826
0 0.300465 0.0899672
0.10753 0.31223 0.124193
0.361334 0.286793 0.143008
0.578164 0.279103 0.126909
0.766247 0.281468 0.126162
0.901503 0.301579 0.145937
0.996826 0.332036 0.176318
1 0.362844 0.205188
0 0.512703 0.0243381
0 0.538262 0.0490425
0.0655985 0.567636 0.0892805
0.364965 0.551965 0.119982
0.615518 0.511894 0.129366
0.785779 0.526314 0.133974
0.906371 0.54995 0.146136
0.996155 0.577661 0.167376
1 0.603662 0.189166
0 0.733257 0.0593729
0 0.753826 0.0779736
0.0898299 0.787808 0.114092
0.374136 0.77995 0.124376
0.630762 0.736355 0.118715
0.800244 0.715068 0.125307
0.904875 0.730404 0.135271
0.978698 0.750301 0.139086
1 0.769757 0.148104
0.0244144 0.918914 0.134951
0.0433051 0.92842 0.144244
0.147173 0.952163 0.169299
0.39942 0.934813 0.155947
0.67155 0.895323 0.134752
0.816114 0.861601 0.121599
0.915862 0.853025 0.131075
0.987198 0.862898 0.142321
1 0.87602 0.141833
0.0974441 1 0.19762
0.107942 1 0.199939
0.193225 1 0.215213
0.41973 1 0.18732
0.697444 0.994476 0.152209
0.848203 0.968246 0.135332
0.930617 0.949325 0.129717
0.994904 0.945205 0.139055
1 0.95172 0.149798
0.150195 1 0.241856
0.154421 1 0.239048
0.228016 1 0.247807
0.435615 1 0.211566
0.71194 1 0.165423
0.873259 1 0.146471
0.952163 1 0.137392
0.999847 1 0.135317
1 0.999969 0.144183
0 0 0.326101
0.00138857 0 0.352972
0.0981613 0 0.317479
0.319677 0 0.273182
0.541573 0 0.256977
0.687037 0 0.246632
0.787381 0 0.245838
0.861524 0 0.254612
0.895476 0 0.2607
0 0.031754 0.302266
0.00482185 0.0324254 0.350484
0.0987869 0.0259556 0.341787
0.325551 0.0065156 0.284764
0.548318 0 0.266377
0.701122 0 0.253819
0.807599 0 0.254871
0.887312 0 0.266773
0.931365 0.000350958 0.277623
0 0.131502 0.177234
0.00460822 0.13576 0.273198
0.0928664 0.134142 0.354009
0.340597 0.120775 0.309468
0.571939 0.109529 0.297459
0.741726 0.102129 0.290959
0.862394 0.112169 0.300526
0.95642 0.133745 0.321279
1 0.154421 0.343496
0 0.291249 0.100893
0 0.316472 0.150149
0.0828717 0.329122 0.250187
0.350805 0.311803 0.326482
0.595315 0.307607 0.320241
0.786511 0.31165 0.322194
0.921416 0.334264 0.343893
0.999954 0.366812 0.374319
1 0.397543 0.402075
0 0.529091 0.0943313
0 0.554482 0.152682
0.0527962 0.582116 0.27306
0.337148 0.58056 0.307103
0.615808 0.560815 0.319875
0.785 0.562997 0.30927
0.912535 0.582498 0.321035
0.998947 0.606638 0.340673
1 0.630838 0.360937
0 0.747524 0.177661
0 0.766155 0.223941
0.0796521 0.798718 0.310521
0.337484 0.797101 0.30837
0.623407 0.769711 0.297307
0.793759 0.741451 0.299336
0.896574 0.754147 0.298726
0.975082 0.770138 0.297292
1 0.786358 0.304906
0.0271458 0.925338 0.280888
0.0449226 0.93344 0.305287
0.134813 0.956817 0.359915
0.362127 0.94519 0.333806
0.642481 0.910674 0.302113
0.812665 0.879286 0.288777
0.909606 0.866178 0.2963
0.978668 0.874479 0.301137
1 0.885954 0.293538
0.0951705 1 0.354269
0.104631 1 0.361837
0.176989 1 0.397055
0.383307 1 0.357717
0.652766 0.997818 0.311452
0.838056 0.97763 0.294865
0.924773 0.958099 0.285374
0.990051 0.951247 0.295872
1 0.956664 0.304555
0.14464 1 0.400397
0.148211 1 0.396902
0.209979 1 0.422583
0.399939 1 0.374777
0.660533 1 0.32015
0.854673 1 0.295369
0.945068 1 0.288136
0.99913 1 0.281788
1 0.999969 0.294392
0 0 0.57818
0 0 0.611856
0.0579538 0 0.59176
0.283696 0 0.514778
0.520699 0 0.486091
0.67808 0 0.490364
0.783597 0 0.502617
0.860243 0 0.519463
0.895735 0 0.528405
0 0.018967 0.557031
0 0.0195468 0.603769
0.0590677 0.0178988 0.614633
0.296803 0 0.541665
0.53431 0 0.503395
0.697368 0 0.506523
0.807965 0 0.519066
0.889189 0 0.537041
0.934829 0.00343328 0.551125
0 0.120134 0.451774
0 0.123033 0.553185
0.0577249 0.130007 0.623194
0.316426 0.102846 0.583337
0.57116 0.0948348 0.548821
0.750057 0.104814 0.559625
0.872389 0.121874 0.580865
0.967941 0.147204 0.610666
1 0.17055 0.639353
0 0.300999 0.219913
0 0.321096 0.308309
0.0327916 0.33872 0.516747
0.317494 0.318288 0.601328
0.604562 0.31017 0.58941
0.803708 0.331014 0.611017
0.935363 0.35613 0.638041
1 0.388785 0.668177
1 0.419135 0.69366
0 0.540246 0.166247
0 0.572183 0.240696
0.0323796 0.603632 0.386603
0.312581 0.594965 0.500374
0.595483 0.580301 0.5841
0.787472 0.585168 0.588022
0.912978 0.600427 0.600061
0.998413 0.621714 0.617411
1 0.64361 0.634974
0 0.761517 0.249226
0 0.782086 0.313481
0.0700542 0.810544 0.468132
0.316594 0.799527 0.556878
0.583246 0.77995 0.56759
0.784939 0.762844 0.57435
0.884062 0.76408 0.555489
0.966278 0.776303 0.558282
1 0.790204 0.567254
0.0272831 0.933364 0.390433
0.0442512 0.940429 0.434699
0.121141 0.957534 0.574365
0.337453 0.941787 0.597986
0.588983 0.913146 0.572946
0.796201 0.885374 0.552193
0.894759 0.868833 0.554452
0.962966 0.875776 0.549203
1 0.885237 0.541039
0.0894789 1 0.50959
0.0978561 1 0.53138
0.160342 1 0.638346
0.356313 1 0.618891
0.59855 0.997986 0.580118
0.807858 0.974701 0.54548
0.910201 0.957198 0.540398
0.97467 0.947555 0.547616
1 0.952636 0.548806
0.134279 1 0.591913
0.137011 1 0.594156
0.19118 1 0.67422
0.371435 1 0.63183
0.605692 1 0.585077
0.817212 1 0.539132
0.926192 1 0.535439
0.98613 0.999893 0.526818
1 0.999237 0.5393
0 0 0.741573
0 0 0.76318
0.0308385 0 0.759243
0.257679 0 0.699504
0.494408 0 0.649714
0.663401 0 0.63798
0.778058 0 0.653986
0.859861 0 0.676524
0.898939 0 0.690364
0 0.0114443 0.731411
0 0.0126497 0.75903
0.0347753 0.0152438 0.778836
0.269825 0 0.724727
0.513313 0 0.6748
0.685695 0 0.661982
0.804898 0 0.68011
0.892439 0.000366217 0.706294
0.942504 0.00698863 0.726467
0 0.110475 0.680613
0 0.115892 0.734997
0.0387121 0.130236 0.785382
0.285451 0.106493 0.764065
0.557671 0.079881 0.730999
0.746807 0.0908522 0.725002
0.879744 0.124407 0.757946
0.981399 0.161456 0.798001
1 0.189914 0.83151
0 0.299123 0.467643
0 0.30486 0.580301
0.0188907 0.339376 0.738186
0.289967 0.327535 0.788357
0.590646 0.312764 0.787137
0.80975 0.327306 0.790677
0.947829 0.373602 0.829236
1 0.410193 0.863874
1 0.439399 0.893935
0 0.551904 0.308934
0 0.576562 0.395026
0.0030518 0.618952 0.576791
0.262333 0.609796 0.719997
0.564095 0.591516 0.782498
0.792584 0.586877 0.779858
0.918151 0.615106 0.800916
0.998779 0.634516 0.820554
1 0.65481 0.838758
0 0.771832 0.351324
0 0.791135 0.419409
0.0577401 0.823713 0.577157
0.295506 0.813352 0.657969
0.558099 0.788815 0.709392
0.768292 0.76733 0.756741
0.881758 0.772564 0.760937
0.962325 0.781415 0.767681
1 0.793439 0.77818
0.0252079 0.938827 0.46508
0.043183 0.947326 0.513985
0.114748 0.96527 0.663203
0.322042 0.946075 0.728191
0.563394 0.91249 0.766583
0.786252 0.882612 0.735134
0.887312 0.876753 0.760342
0.952407 0.877134 0.749828
1 0.883925 0.752224
0.0865949 1 0.596826
0.0944839 1 0.621637
0.151614 1 0.757778
0.337621 1 0.793454
0.569116 0.996597 0.791272
0.775097 0.971038 0.759503
0.896132 0.956146 0.750805
0.9617 0.945357 0.753567
1 0.949828 0.750912
0.127428 1 0.708263
0.129809 1 0.713603
0.17966 1 0.825513
0.349966 1 0.832013
0.573495 1 0.806775
0.781582 1 0.767163
0.902419 1 0.747982
0.972229 0.99942 0.746624
1 0.998108 0.75111
0 0 0.84863
0 0 0.860945
0.0146639 0 0.865019
0.233036 0 0.819532
0.473564 0 0.768994
0.647486 0 0.743191
0.769589 0 0.748074
0.85771 0 0.773358
0.901259 0 0.790997
0 0.00881972 0.843824
0 0.00894179 0.858595
0.0204166 0.0162509 0.881834
0.24152 0 0.840757
0.496284 0 0.795132
0.673274 0 0.770367
0.798276 0 0.778225
0.892271 0.000106813 0.808331
0.94815 0.00764477 0.833524
0 0.107988 0.81828
0 0.113664 0.847883
0.0289616 0.134615 0.888411
0.258854 0.1149 0.881956
0.539162 0.0865339 0.85507
0.74165 0.0803388 0.840696
0.879042 0.113466 0.862196
0.98909 0.163439 0.90985
1 0.203525 0.951247
0 0.293812 0.711177
0 0.299199 0.769726
0.0138399 0.348074 0.860716
0.267079 0.341772 0.907378
0.561166 0.329809 0.912688
0.806241 0.324742 0.914199
0.953185 0.365179 0.940642
1 0.421332 0.98201
1 0.460166 1
0 0.560479 0.526375
0 0.566567 0.596643
0.000274662 0.627131 0.777722
0.243091 0.620523 0.878065
0.532921 0.607721 0.90547
0.785519 0.592966 0.905577
0.925643 0.613657 0.91606
0.999557 0.648219 0.936065
1 0.669581 0.954955
0 0.780636 0.517586
0 0.791501 0.570031
0.0395361 0.835019 0.724208
0.245258 0.829999 0.80415
0.501488 0.804211 0.86807
0.745373 0.774868 0.876646
0.884703 0.77261 0.87689
0.965652 0.78999 0.88983
1 0.800717 0.901625
0.0176242 0.943603 0.58262
0.0361486 0.950256 0.622705
0.10454 0.973022 0.756817
0.300359 0.956588 0.804105
0.537926 0.923812 0.832715
0.768536 0.893172 0.776272
0.878065 0.879301 0.867735
0.951797 0.8822 0.873594
1 0.887266 0.877852
0.081651 1 0.671702
0.0904402 1 0.694972
0.146975 1 0.817685
0.325277 1 0.85481
0.550652 0.99855 0.874983
0.76408 0.970993 0.861494
0.897108 0.953811 0.850721
0.958297 0.951522 0.875975
0.999725 0.951278 0.868711
0.123644 1 0.772793
0.125841 1 0.776562
0.174456 1 0.886641
0.336156 1 0.912902
0.553353 1 0.914931
0.764416 1 0.891615
0.900465 0.999954 0.855497
0.96614 0.999268 0.868315
1 0.99765 0.870558
0 0 0.920653
0 0 0.928176
0.00610361 0 0.937041
0.209277 0 0.900038
0.454902 0 0.853376
0.635142 0 0.822202
0.760464 0 0.818051
0.852903 0 0.836881
0.899794 0 0.855695
0 0.00907912 0.918868
0 0.00805676 0.927657
0.0115816 0.0194553 0.950652
0.217044 0 0.92018
0.474662 0 0.878614
0.664805 0 0.851041
0.791257 0 0.850095
0.888258 0 0.873594
0.948272 0.00555428 0.900725
0 0.109667 0.905287
0 0.111254 0.921828
0.0240024 0.141115 0.959472
0.235935 0.126772 0.964309
0.514092 0.100801 0.940337
0.739483 0.0870069 0.927855
0.878569 0.106096 0.940581
0.990295 0.153567 0.979583
1 0.202258 0.999832
0 0.296696 0.839338
0 0.299229 0.874968
0.0122377 0.360098 0.940673
0.246967 0.358938 0.989548
0.532769 0.349752 0.997238
0.796719 0.339757 0.997024
0.954604 0.360098 0.999939
1 0.41117 1
1 0.462913 1
0 0.568414 0.727703
0 0.571267 0.777127
0 0.637079 0.89839
0.226703 0.636881 0.970581
0.504326 0.62678 0.989776
0.76524 0.607996 0.988281
0.926528 0.611017 0.997513
1 0.64065 0.999878
1 0.677729 1
0 0.790204 0.68809
0 0.793011 0.721675
0.0285649 0.845182 0.862791
0.210529 0.84242 0.944732
0.476661 0.815824 0.970825
0.724895 0.785443 0.960372
0.879103 0.776562 0.960174
0.970123 0.788037 0.965621
1 0.808835 0.978195
0.00691234 0.948241 0.724132
0.0222782 0.948623 0.744366
0.091722 0.980667 0.863447
0.256519 0.97052 0.908293
0.476005 0.942123 0.933822
0.712383 0.902678 0.939178
0.86273 0.883925 0.950286
0.953399 0.882521 0.950805
1 0.89279 0.959319
0.0728618 1 0.773358
0.0813611 1 0.786679
0.138643 1 0.890593
0.301457 1 0.918181
0.521889 1 0.925673
0.742321 0.979141 0.915053
0.886091 0.962539 0.860471
0.951141 0.953307 0.948547
0.999344 0.955261 0.95079
0.118074 1 0.835264
0.120211 1 0.837003
0.169635 1 0.932464
0.323949 1 0.95375
0.536629 1 0.956497
0.752239 1 0.947051
0.895674 1 0.88925
0.965667 0.99913 0.932952
1 0.99881 0.951797
0 0 0.942153
0 0 0.950622
0.00347906 0 0.962173
0.197055 0 0.930404
0.442573 0 0.886763
0.630289 0 0.856458
0.756191 0 0.849882
0.849531 0 0.865827
0.898161 0 0.883879
0 0.00863661 0.94641
0 0.00799573 0.955856
0.00807202 0.0212558 0.979492
0.201831 0.00242618 0.956283
0.457496 0 0.91812
0.658824 0 0.891402
0.787823 0 0.888365
0.884535 0 0.908232
0.946532 0.0033875 0.934188
0 0.111192 0.942336
0 0.112398 0.958373
0.0221408 0.145708 0.995254
0.220218 0.135592 1
0.494362 0.112001 0.987167
0.732738 0.0959335 0.976257
0.880995 0.108782 0.989105
0.990723 0.147494 0.999908
1 0.194507 1
0 0.300496 0.89691
0 0.303258 0.928145
0.0127413 0.369375 0.985931
0.23154 0.37322 1
0.509834 0.367575 1
0.783505 0.355581 1
0.955932 0.369924 1
1 0.403677 1
1 0.453178 1
0 0.575311 0.829374
0 0.578347 0.869215
0 0.647318 0.963348
0.212665 0.652735 1
0.479957 0.644541 1
0.744884 0.623728 1
0.918898 0.621607 1
1 0.634958 1
1 0.667735 1
0 0.799146 0.813123
0 0.800412 0.846281
0.0281834 0.851926 0.965454
0.19646 0.853101 1
0.453834 0.828855 1
0.70338 0.79823 1
0.866133 0.785931 1
0.969665 0.786755 1
1 0.803784 1
0.00335698 0.954482 0.838911
0.0111086 0.953765 0.857084
0.081529 0.988281 0.959457
0.208347 0.985595 0.998749
0.437018 0.953765 1
0.69369 0.909651 1
0.850217 0.890227 1
0.948775 0.885008 1
1 0.891539 1
0.0623636 1 0.877882
0.0691081 1 0.882338
0.129793 1 0.968246
0.26186 1 0.993805
0.464469 1 0.996216
0.692515 0.991882 0.989151
0.829145 0.97966 0.921492
0.940948 0.956542 1
0.999176 0.955306 0.999969
0.109712 1 0.911101
0.111238 1 0.91017
0.161425 1 0.988357
0.298909 1 1
0.504753 1 0.999893
0.731853 1 0.981262
0.875196 1 0.917967
0.957183 1 0.936904
0.999176 0.999176 0.997421
