public/textures/LUTs/CHRONICLE.CUBE
TITLE "Generated by Resolve"
LUT_3D_SIZE 5
0 0 0
0.14464 0 0
0.506172 0 0
0.762707 0 0
0.869261 0 0
0 0.121538 0
0.166644 0.112413 0.00775158
0.528283 0.0792096 0
0.818021 0.0659342 0
0.964309 0.0931258 0
0 0.495979 0
0.119417 0.525444 0
0.616602 0.453132 0.000350958
0.897795 0.49955 0.0285344
1 0.561593 0.0788128
0.0149081 0.906432 0.0161746
0.176333 0.932647 0.0525826
0.675395 0.865599 0.0261692
0.916091 0.832181 0.0304875
1 0.860059 0.0538338
0.150774 1 0.14757
0.249271 1 0.153552
0.74461 1 0.0839551
0.95436 1 0.0585946
1 1 0.0689708
0 0.000244144 0.13727
0.142672 0 0.126604
0.53547 0 0.071046
0.783215 0 0.0443275
0.889876 0 0.0485695
0 0.127413 0.0664378
0.15584 0.134142 0.143175
0.551507 0.101472 0.103944
0.844556 0.0957046 0.0959793
0.994278 0.130709 0.132662
0 0.512703 0.0243381
0.0655985 0.567636 0.0892805
0.615518 0.511894 0.129366
0.906371 0.54995 0.146136
1 0.603662 0.189166
0.0244144 0.918914 0.134951
0.147173 0.952163 0.169299
0.67155 0.895323 0.134752
0.915862 0.853025 0.131075
1 0.87602 0.141833
0.150195 1 0.241856
0.228016 1 0.247807
0.71194 1 0.165423
0.952163 1 0.137392
1 0.999969 0.144183
0 0 0.57818
0.0579538 0 0.59176
0.520699 0 0.486091
0.783597 0 0.502617
0.895735 0 0.528405
0 0.120134 0.451774
0.0577249 0.130007 0.623194
0.57116 0.0948348 0.548821
0.872389 0.121874 0.580865
1 0.17055 0.639353
0 0.540246 0.166247
0.0323796 0.603632 0.386603
0.595483 0.580301 0.5841
0.912978 0.600427 0.600061
1 0.64361 0.634974
0.0272831 0.933364 0.390433
0.121141 0.957534 0.574365
0.588983 0.913146 0.572946
0.894759 0.868833 0.554452
1 0.885237 0.541039
0.134279 1 0.591913
0.19118 1 0.67422
0.605692 1 0.585077
0.926192 1 0.535439
1 0.999237 0.5393
0 0 0.84863
0.0146639 0 0.865019
0.473564 0 0.768994
0.769589 0 0.748074
0.901259 0 0.790997
0 0.107988 0.81828
0.0289616 0.134615 0.888411
0.539162 0.0865339 0.85507
0.879042 0.113466 0.862196
1 0.203525 0.951247
0 0.560479 0.526375
0.000274662 0.627131 0.777722
0.532921 0.607721 0.90547
0.925643 0.613657 0.91606
1 0.669581 0.954955
0.0176242 0.943603 0.58262
0.10454 0.973022 0.756817
0.537926 0.923812 0.832715
0.878065 0.879301 0.867735
1 0.887266 0.877852
0.123644 1 0.772793
0.174456 1 0.886641
0.553353 1 0.914931
0.900465 0.999954 0.855497
1 0.99765 0.870558
0 0 0.942153
0.00347906 0 0.962173
0.442573 0 0.886763
0.756191 0 0.849882
0.898161 0 0.883879
0 0.111192 0.942336
0.0221408 0.145708 0.995254
0.494362 0.112001 0.987167
0.880995 0.108782 0.989105
1 0.194507 1
0 0.575311 0.829374
0 0.647318 0.963348
0.479957 0.644541 1
0.918898 0.621607 1
1 0.667735 1
0.00335698 0.954482 0.838911
0.081529 0.988281 0.959457
0.437018 0.953765 1
0.850217 0.890227 1
1 0.891539 1
0.109712 1 0.911101
0.161425 1 0.988357
0.504753 1 0.999893
0.875196 1 0.917967
0.999176 0.999176 0.997421
