public/textures/LUTs/CONCESSION.CUBE
TITLE "Generated by Resolve"
LUT_3D_SIZE 33
0.0232548 0.0155032 0.0195926
0.0232548 0.0155032 0.0196231
0.0239719 0.0155489 0.0195621
0.0347753 0.0161746 0.0186007
0.0580758 0.0175021 0.0170291
0.0855879 0.019028 0.0162051
0.120851 0.0207523 0.0146029
0.165347 0.0224918 0.012665
0.216892 0.0238499 0.0110475
0.272419 0.0247807 0.0104219
0.33341 0.0254368 0.0103761
0.399207 0.0260624 0.0103304
0.45449 0.0264591 0.0102998
0.491173 0.0263371 0.0102693
0.521752 0.0263218 0.0102846
0.547723 0.0263218 0.0102541
0.570718 0.0264134 0.0102388
0.591165 0.0265049 0.0102083
0.609461 0.026566 0.0101625
0.625895 0.0266575 0.010132
0.639826 0.0267491 0.0100862
0.651621 0.0268559 0.010071
0.661677 0.0269017 0.0101167
0.670268 0.0269932 0.0102083
0.677577 0.0271 0.0102541
0.683619 0.0271611 0.0103609
0.68864 0.0272221 0.0104829
0.692638 0.0272374 0.0105745
0.695918 0.0272526 0.0107424
0.698558 0.0272526 0.0109102
0.700679 0.0272526 0.0111238
0.70222 0.0272221 0.0113222
0.70338 0.0271916 0.0115663
0.0237125 0.0182498 0.0189975
0.0236973 0.0181888 0.0189975
0.0241398 0.0181888 0.0189975
0.0336461 0.018616 0.018555
0.0555581 0.0199893 0.0168917
0.0801251 0.0214084 0.0151827
0.11014 0.0228733 0.0132906
0.149569 0.0245975 0.0111238
0.196643 0.0260624 0.00926223
0.24979 0.0269627 0.00822461
0.308522 0.0272221 0.00802625
0.373526 0.0273747 0.00788891
0.431022 0.0275425 0.0077821
0.472938 0.0274357 0.00784314
0.505577 0.0272831 0.00796521
0.533318 0.0272374 0.00807202
0.557351 0.0272068 0.00817884
0.578683 0.0272526 0.00827039
0.597864 0.0272831 0.0083772
0.615549 0.0273442 0.00843824
0.631159 0.0274357 0.00851453
0.643854 0.0274815 0.00859083
0.654871 0.027512 0.00865187
0.664195 0.0275731 0.00869764
0.672236 0.0276799 0.00874342
0.678935 0.0277562 0.0087892
0.684459 0.0278325 0.00883497
0.688945 0.0278782 0.00885023
0.692653 0.0279545 0.00888075
0.695552 0.0280003 0.00889601
0.697871 0.0280308 0.00892653
0.699657 0.0280919 0.00892653
0.700908 0.0281224 0.00892653
0.0263066 0.0310674 0.0213016
0.0263066 0.0310521 0.0213169
0.0264439 0.0307927 0.021149
0.033463 0.0299382 0.0197757
0.0522621 0.0308232 0.018616
0.0770123 0.0311284 0.0162509
0.103044 0.0322271 0.015259
0.135012 0.0338903 0.0122225
0.176532 0.0354925 0.00973526
0.226612 0.0366827 0.00834669
0.286336 0.0368048 0.00808728
0.356985 0.035935 0.0081178
0.422141 0.0351568 0.00813306
0.468208 0.0345617 0.00817884
0.502342 0.0341344 0.00820935
0.530831 0.033814 0.00828565
0.555566 0.0336309 0.00833143
0.577462 0.0335393 0.0083772
0.597192 0.0333715 0.00842298
0.615457 0.0332799 0.00846876
0.631525 0.0332036 0.00851453
0.644846 0.0331273 0.00854505
0.656184 0.0330663 0.00859083
0.666163 0.0330816 0.00863661
0.674601 0.0331273 0.00866712
0.681743 0.0331884 0.0087129
0.687678 0.0332952 0.00874342
0.692683 0.0334173 0.00877394
0.696788 0.0336156 0.00880446
0.700084 0.0337835 0.00883497
0.702892 0.0340124 0.00886549
0.705135 0.0342412 0.00888075
0.706767 0.0344854 0.00892653
0.0315862 0.0432136 0.0217136
0.0315862 0.0431983 0.0217288
0.0314031 0.0428779 0.021622
0.0357214 0.0416876 0.02121
0.0530861 0.0422522 0.0199741
0.0711833 0.0430304 0.0191806
0.0917525 0.0438239 0.0185702
0.130938 0.0436255 0.015671
0.172625 0.044358 0.0131838
0.218402 0.0451209 0.0110781
0.270069 0.0456703 0.0099794
0.333608 0.0452125 0.00936904
0.402533 0.0437476 0.00900282
0.458198 0.0422065 0.00880446
0.497902 0.0413672 0.0087129
0.528008 0.0411078 0.00874342
0.553689 0.0408942 0.00877394
0.576425 0.0407568 0.00883497
0.597101 0.0406806 0.00888075
0.616159 0.0406043 0.00892653
0.633051 0.040528 0.00895705
0.646967 0.0404364 0.00900282
0.658946 0.0403906 0.00906386
0.669596 0.0404669 0.00914015
0.678508 0.0405585 0.00918593
0.685985 0.040589 0.00923171
0.692363 0.0407416 0.00927749
0.697536 0.0409094 0.009308
0.7019 0.0411383 0.00933852
0.705379 0.0413214 0.00935378
0.708309 0.0416114 0.0093843
0.710628 0.0418555 0.00941482
0.712383 0.0420539 0.00943008
0.0362097 0.0569772 0.0224613
0.0362097 0.0569772 0.0224613
0.0360876 0.0565042 0.0224155
0.0389715 0.0548104 0.0229801
0.0538338 0.054963 0.0228733
0.0732586 0.0551003 0.0200504
0.0942855 0.0556191 0.0174105
0.115328 0.0563516 0.0183261
0.154498 0.0562142 0.0154421
0.210285 0.0558938 0.0120089
0.268818 0.0556954 0.0115206
0.33344 0.0537423 0.011429
0.398978 0.0511635 0.0111086
0.453208 0.0494087 0.0106813
0.496315 0.0483558 0.0102998
0.529442 0.0474861 0.00999466
0.554177 0.0475471 0.00975052
0.576425 0.0476387 0.00959792
0.59704 0.047715 0.00950637
0.616342 0.0477607 0.00944533
0.633478 0.0477607 0.00939956
0.647913 0.0478065 0.00941482
0.660426 0.0478218 0.00944533
0.671458 0.0479133 0.00949111
0.680919 0.0480049 0.00955215
0.688869 0.0481117 0.00959792
0.695537 0.0482643 0.00965896
0.701091 0.0484932 0.00968948
0.705806 0.0487526 0.00973526
0.70956 0.0489662 0.00976577
0.712657 0.0492256 0.00979629
0.715038 0.0494698 0.00981155
0.717006 0.0497139 0.00982681
0.0390021 0.0740063 0.0252537
0.0389868 0.0739147 0.0252232
0.0388952 0.0732586 0.0251011
0.0408942 0.0707561 0.0257877
0.053727 0.0702373 0.0269932
0.0730449 0.0696574 0.0247196
0.0942702 0.0696269 0.0205386
0.121111 0.070161 0.0161593
0.150835 0.0711681 0.014847
0.186374 0.0720073 0.0146639
0.245945 0.0712749 0.0128786
0.318273 0.0675212 0.0119936
0.388083 0.0621042 0.0115511
0.448356 0.0583352 0.011368
0.49543 0.0560159 0.0111849
0.530816 0.0544594 0.0109712
0.558572 0.0538033 0.0107271
0.580835 0.0537881 0.0104829
0.6009 0.0539406 0.0102998
0.619226 0.0541848 0.010132
0.63534 0.0544289 0.0100252
0.649271 0.0545815 0.00996414
0.661753 0.0547646 0.0099794
0.67274 0.055024 0.00999466
0.682307 0.0551766 0.0100404
0.690501 0.0553597 0.010071
0.697353 0.0556191 0.0101015
0.70312 0.0559091 0.010132
0.707851 0.0561227 0.0101625
0.711833 0.0564126 0.010193
0.715175 0.0567025 0.0102235
0.717754 0.0570077 0.0102388
0.719783 0.0572519 0.0102541
0.0425574 0.0928969 0.029984
0.0425422 0.0928054 0.0299535
0.0423743 0.0921492 0.0297551
0.0447089 0.0887922 0.0296483
0.0551003 0.0885786 0.0319677
0.0729534 0.0881361 0.0314641
0.0940566 0.0870375 0.0276341
0.120867 0.0871443 0.0208896
0.156451 0.087892 0.0133364
0.193576 0.090135 0.0116579
0.229282 0.0919509 0.0135653
0.283452 0.0919356 0.0141451
0.355062 0.0837415 0.0133669
0.422202 0.0745861 0.0122835
0.479362 0.0683146 0.0115206
0.522286 0.0644999 0.0110628
0.554971 0.0623331 0.0111086
0.581399 0.0612497 0.0110933
0.604166 0.0606394 0.0109102
0.623484 0.0603647 0.0105135
0.63917 0.0605936 0.0101472
0.652476 0.060914 0.0100862
0.664302 0.0612192 0.0100862
0.674846 0.0616007 0.0101167
0.683909 0.0619516 0.0101778
0.691875 0.0622721 0.0102541
0.698573 0.0626383 0.0103151
0.704356 0.063035 0.0103761
0.709194 0.063386 0.0104524
0.713252 0.0637369 0.0105135
0.716625 0.0640421 0.0105745
0.719326 0.0643778 0.0106355
0.721508 0.0646983 0.0106813
0.0472114 0.113466 0.0363622
0.0472114 0.113451 0.0363622
0.047013 0.112673 0.0360876
0.0490578 0.108843 0.0352178
0.0567636 0.110002 0.0383307
0.0721141 0.110918 0.0396735
0.0931411 0.108827 0.0374456
0.119081 0.107424 0.0311742
0.155215 0.107408 0.0194705
0.197971 0.109804 0.0113832
0.24332 0.114 0.0102998
0.285954 0.116915 0.0129397
0.334371 0.116884 0.0148165
0.386572 0.10837 0.0149233
0.443778 0.096025 0.0139773
0.492439 0.085481 0.0128634
0.530922 0.0784009 0.0119326
0.56556 0.0737011 0.0120546
0.594675 0.070985 0.0122835
0.61854 0.0694285 0.0124514
0.638163 0.0685435 0.0125429
0.65391 0.0681773 0.0125124
0.666682 0.0680705 0.0123445
0.677226 0.068101 0.0120241
0.686107 0.0683146 0.0116121
0.693446 0.0687419 0.0110933
0.699535 0.069276 0.0106203
0.705104 0.0697642 0.0106813
0.709697 0.0702525 0.0107271
0.713634 0.0707408 0.0107576
0.716915 0.0711376 0.0108034
0.719387 0.0715953 0.0108492
0.72108 0.0721141 0.0109102
0.0525216 0.135958 0.0440986
0.0525216 0.135943 0.0440833
0.0523232 0.135103 0.0437934
0.0532692 0.131395 0.0428016
0.0604257 0.132784 0.0453956
0.0711833 0.136431 0.0488441
0.0912032 0.135637 0.0484474
0.116701 0.13254 0.0451057
0.15198 0.130816 0.0331426
0.197574 0.131746 0.0172427
0.246967 0.136034 0.0103761
0.302358 0.142443 0.00996414
0.352209 0.145907 0.01178
0.388357 0.145769 0.0143435
0.425437 0.140063 0.0158541
0.46717 0.129427 0.0159915
0.504067 0.116304 0.0153201
0.534005 0.105776 0.0144503
0.561883 0.097261 0.0139925
0.588769 0.0903029 0.0141451
0.615274 0.0853895 0.0142367
0.638209 0.082414 0.0143893
0.656214 0.0804761 0.0145418
0.670344 0.0792554 0.0146334
0.681407 0.078706 0.0146181
0.689891 0.0785992 0.0145113
0.696208 0.0788739 0.0143282
0.70106 0.0793622 0.0140383
0.704845 0.0799268 0.0136873
0.707729 0.0806134 0.0132906
0.709911 0.0812543 0.0129091
0.711269 0.0820325 0.0124666
0.712108 0.0827649 0.0120699
0.0601816 0.161471 0.0542
0.0601816 0.161456 0.0542
0.0598917 0.160494 0.0538186
0.0598154 0.156176 0.0523232
0.0670481 0.157412 0.0543069
0.0737926 0.162753 0.0593729
0.0874037 0.165148 0.0601205
0.113924 0.163638 0.0590066
0.147005 0.159701 0.052491
0.1935 0.158236 0.0332036
0.247898 0.160525 0.0154726
0.305989 0.167285 0.0100252
0.364126 0.174853 0.00996414
0.410101 0.178759 0.0107271
0.443854 0.179492 0.0127871
0.472282 0.177737 0.0152895
0.499794 0.172412 0.0169223
0.522713 0.16228 0.0173342
0.54226 0.15024 0.0170901
0.562615 0.139116 0.0165713
0.585245 0.130037 0.0167239
0.608713 0.12256 0.0169375
0.628199 0.117357 0.0170596
0.643656 0.113268 0.0171511
0.656153 0.109941 0.0172427
0.665721 0.107668 0.017319
0.672694 0.106722 0.0174105
0.67805 0.106386 0.0174563
0.681788 0.106645 0.0174716
0.684367 0.107179 0.0174105
0.685176 0.108675 0.0173495
0.684901 0.110536 0.0172274
0.683742 0.112428 0.0170596
0.0703136 0.189731 0.0659648
0.0703136 0.189715 0.0659495
0.0699016 0.188617 0.0654917
0.0688029 0.183612 0.0635233
0.0754253 0.184649 0.065095
0.0836957 0.190463 0.0704967
0.0917372 0.195605 0.0745251
0.109026 0.197589 0.073991
0.139712 0.19649 0.0725567
0.185321 0.192218 0.0609598
0.243717 0.191287 0.0344244
0.307881 0.195361 0.0131838
0.370321 0.204349 0.00999466
0.421225 0.212039 0.0099794
0.461524 0.216663 0.0102083
0.495445 0.219364 0.0113222
0.521767 0.220111 0.0134737
0.541756 0.219257 0.0158846
0.556603 0.215244 0.0176089
0.570932 0.207813 0.0184482
0.584482 0.198001 0.018677
0.598108 0.188754 0.0185702
0.611902 0.180987 0.0192569
0.623789 0.175647 0.0197147
0.633951 0.17052 0.0200046
0.642573 0.166369 0.0202335
0.649851 0.164355 0.0204471
0.655818 0.163088 0.0206607
0.660548 0.162966 0.0208896
0.664591 0.163226 0.0211032
0.667659 0.164569 0.0213169
0.669932 0.166629 0.0214237
0.670069 0.169696 0.0214237
0.0847334 0.223529 0.0803235
0.0846571 0.223392 0.0802625
0.0839704 0.221851 0.0796063
0.0812695 0.215427 0.0768597
0.0871748 0.215763 0.0778668
0.0975357 0.221988 0.0830549
0.105028 0.230091 0.0897536
0.116869 0.234775 0.0918441
0.135271 0.237552 0.0913252
0.172213 0.236225 0.0890516
0.232227 0.230503 0.0732738
0.302815 0.230259 0.0310369
0.373297 0.237934 0.0117037
0.430228 0.247974 0.0104372
0.474083 0.254856 0.010132
0.512108 0.260456 0.0102388
0.54493 0.264759 0.0106203
0.568582 0.26717 0.0116732
0.585519 0.26862 0.0133974
0.598001 0.26807 0.015671
0.608621 0.264744 0.0177157
0.618692 0.258915 0.0189822
0.62768 0.251698 0.0196078
0.635584 0.246052 0.0200961
0.642664 0.24126 0.0209964
0.649195 0.238437 0.0216678
0.654917 0.236805 0.0221866
0.659831 0.235645 0.0226291
0.664073 0.234897 0.0230106
0.668467 0.234836 0.023682
0.672221 0.235386 0.0241703
0.675715 0.237369 0.0246433
0.676478 0.237964 0.0248722
0.1019 0.261555 0.0961318
0.1019 0.261524 0.0961318
0.101122 0.259815 0.0954299
0.0977493 0.252262 0.0923934
0.102937 0.252445 0.0930037
0.113939 0.258167 0.0973373
0.121904 0.266972 0.104463
0.131334 0.27422 0.109041
0.143862 0.278492 0.110185
0.164141 0.281529 0.109346
0.207874 0.281651 0.105867
0.2878 0.275517 0.0869459
0.365835 0.275471 0.0242161
0.431281 0.285603 0.0131991
0.480995 0.294682 0.011368
0.521874 0.301717 0.010956
0.558053 0.307713 0.0106508
0.588418 0.312642 0.0105898
0.61236 0.315648 0.011017
0.628626 0.316869 0.0118105
0.642542 0.317632 0.0131228
0.653361 0.316838 0.0148928
0.661402 0.314107 0.016907
0.66775 0.310094 0.0184482
0.672816 0.305364 0.0194858
0.677623 0.302068 0.0203555
0.68159 0.29955 0.0213169
0.685359 0.298314 0.0220493
0.688884 0.2981 0.0226596
0.691798 0.298039 0.02327
0.694667 0.298573 0.0243381
0.697276 0.299687 0.0252537
0.697337 0.29955 0.025864
0.119219 0.301717 0.11162
0.119142 0.301534 0.111543
0.118532 0.300008 0.111025
0.115602 0.292592 0.108431
0.119677 0.291691 0.108278
0.130205 0.296345 0.111635
0.13872 0.304204 0.117693
0.146227 0.31284 0.123583
0.156497 0.318013 0.125856
0.168963 0.321965 0.126223
0.19147 0.324971 0.124865
0.260609 0.326314 0.124178
0.346365 0.323171 0.0892805
0.41886 0.324941 0.033753
0.478553 0.333898 0.0164187
0.524285 0.342504 0.0132143
0.56286 0.349676 0.0123751
0.596185 0.3552 0.01178
0.624414 0.360067 0.0119783
0.645167 0.362081 0.0119173
0.663386 0.364034 0.0119936
0.678065 0.365332 0.0123445
0.690227 0.36553 0.0130007
0.699443 0.36379 0.013962
0.706081 0.360998 0.0152132
0.710887 0.357839 0.0165408
0.714046 0.354528 0.0177462
0.716075 0.351324 0.0188449
0.718318 0.34992 0.019791
0.720394 0.349248 0.0205539
0.722255 0.34905 0.0212406
0.723552 0.349432 0.0225834
0.722942 0.348867 0.0237736
0.134234 0.341405 0.124941
0.134173 0.341238 0.12488
0.133669 0.339681 0.124422
0.131136 0.332403 0.122164
0.134386 0.330907 0.121706
0.14464 0.335119 0.124514
0.153582 0.341604 0.129366
0.159808 0.350378 0.135348
0.168322 0.356786 0.138628
0.178836 0.36112 0.139895
0.189868 0.364187 0.139727
0.223514 0.368261 0.137453
0.319066 0.366995 0.131197
0.395224 0.368795 0.0905776
0.461097 0.371191 0.0415961
0.515023 0.3776 0.0201114
0.558892 0.385901 0.0162814
0.594827 0.392462 0.014313
0.625711 0.398642 0.0145876
0.651209 0.402686 0.0144656
0.672953 0.405844 0.0140536
0.689555 0.407355 0.0131838
0.704097 0.408942 0.0127413
0.716701 0.410193 0.0129854
0.727016 0.409812 0.0133364
0.735225 0.408621 0.0138552
0.741207 0.40621 0.0145266
0.745266 0.403052 0.0152743
0.747875 0.399878 0.0159915
0.749783 0.397482 0.0166629
0.750942 0.395407 0.0173648
0.751888 0.394522 0.0179904
0.75082 0.393133 0.0186007
0.146593 0.38027 0.135912
0.146532 0.380102 0.135866
0.146044 0.378515 0.135424
0.143709 0.371115 0.133349
0.14638 0.369314 0.132845
0.155917 0.372564 0.134874
0.165652 0.378607 0.139178
0.171405 0.386053 0.14435
0.177707 0.392828 0.14815
0.187198 0.397452 0.149615
0.196612 0.400061 0.150271
0.211444 0.403494 0.148577
0.278874 0.410315 0.14667
0.364187 0.409689 0.129809
0.437903 0.411368 0.0890211
0.497169 0.414588 0.0472877
0.546838 0.418952 0.0248722
0.586786 0.425345 0.0215305
0.620081 0.431678 0.0189517
0.650065 0.436851 0.0168612
0.675731 0.440955 0.0154574
0.693462 0.443458 0.0155489
0.708919 0.445274 0.0155947
0.722133 0.44683 0.0155947
0.733608 0.448371 0.01561
0.743664 0.449363 0.0153506
0.75227 0.448966 0.014786
0.759319 0.447745 0.0143893
0.76492 0.445792 0.0141909
0.769039 0.443091 0.014374
0.772061 0.440894 0.0174258
0.774014 0.439048 0.0196689
0.772854 0.436011 0.0191196
0.154818 0.41416 0.142824
0.154818 0.414145 0.142824
0.154452 0.412604 0.142519
0.152926 0.406363 0.141238
0.155184 0.404501 0.14081
0.164096 0.407218 0.142489
0.17377 0.411841 0.145556
0.180087 0.418723 0.150195
0.184833 0.425513 0.154238
0.192767 0.43061 0.156039
0.201953 0.433417 0.156649
0.211872 0.435721 0.156786
0.247074 0.44361 0.154711
0.326711 0.448096 0.148989
0.40943 0.450462 0.12604
0.475288 0.452537 0.0865797
0.528878 0.455222 0.048127
0.571756 0.457877 0.0289311
0.609125 0.463066 0.0269627
0.642405 0.468498 0.0243839
0.671733 0.473457 0.0216983
0.69279 0.476326 0.0197452
0.710918 0.478691 0.0181582
0.724941 0.480308 0.0175021
0.737102 0.481605 0.0169223
0.747417 0.482918 0.0165866
0.75613 0.484016 0.0165408
0.763699 0.484672 0.0164797
0.770123 0.484413 0.0163729
0.77557 0.48333 0.0165866
0.780194 0.482429 0.0203403
0.783978 0.481193 0.0258793
0.783825 0.477562 0.0259098
0.16022 0.443503 0.146838
0.160204 0.443381 0.146822
0.159991 0.44213 0.14667
0.159075 0.436881 0.146029
0.160876 0.434745 0.145708
0.169375 0.437491 0.147204
0.178988 0.441489 0.149493
0.185763 0.446998 0.153216
0.190097 0.454261 0.157458
0.196353 0.460594 0.159838
0.20499 0.463859 0.160479
0.213565 0.465736 0.160739
0.230335 0.470695 0.159625
0.283284 0.480598 0.155856
0.366873 0.486244 0.144976
0.449348 0.486946 0.119341
0.508919 0.490349 0.0804761
0.554345 0.492103 0.0501564
0.59324 0.494957 0.0372625
0.628931 0.498863 0.0314946
0.661631 0.503365 0.0299687
0.687404 0.507256 0.0272068
0.709331 0.510445 0.0248875
0.724239 0.512123 0.0237125
0.737026 0.513741 0.0227512
0.747997 0.515312 0.021973
0.757275 0.516564 0.0212863
0.765164 0.517693 0.0206912
0.771923 0.518502 0.0201267
0.777783 0.518746 0.0198215
0.782635 0.518715 0.0220798
0.786679 0.518822 0.0280156
0.788022 0.516579 0.0300908
0.163851 0.470634 0.149157
0.163836 0.470619 0.149157
0.163699 0.469322 0.149081
0.16318 0.464225 0.148821
0.164584 0.461997 0.148638
0.17261 0.464454 0.149905
0.182132 0.468437 0.151827
0.189456 0.473503 0.15465
0.193713 0.480735 0.15848
0.198627 0.487877 0.161425
0.206455 0.492256 0.162524
0.214817 0.494514 0.162844
0.224292 0.498146 0.162234
0.248035 0.507561 0.158251
0.317205 0.516625 0.152132
0.416815 0.518929 0.138827
0.48661 0.52015 0.108385
0.536461 0.524239 0.0758526
0.576684 0.525963 0.0532692
0.613138 0.528145 0.0403906
0.647608 0.531518 0.0353246
0.677333 0.535302 0.0332494
0.702373 0.538582 0.0318761
0.719692 0.540703 0.0307317
0.734066 0.542336 0.0297246
0.746319 0.54403 0.0288396
0.75613 0.545205 0.0276799
0.764553 0.546487 0.0267491
0.771618 0.547616 0.0259861
0.777615 0.548623 0.0254826
0.782605 0.549538 0.0267338
0.786648 0.550576 0.0318914
0.788891 0.550149 0.0345922
0.166247 0.495415 0.15024
0.166232 0.495323 0.15024
0.166155 0.494041 0.150225
0.165805 0.489479 0.150118
0.166659 0.486885 0.149935
0.174456 0.489296 0.151202
0.183948 0.493217 0.153002
0.191699 0.498116 0.155108
0.196109 0.505272 0.158251
0.199725 0.513451 0.161135
0.206119 0.519066 0.162432
0.214267 0.521859 0.16286
0.222644 0.524376 0.163043
0.236194 0.528634 0.162249
0.282856 0.54107 0.157763
0.374975 0.552865 0.146792
0.459037 0.546029 0.126757
0.518135 0.551247 0.0952773
0.561395 0.554147 0.071107
0.597955 0.556191 0.0530404
0.632822 0.558343 0.0406195
0.664424 0.561471 0.0374609
0.691997 0.564263 0.0365454
0.712093 0.566415 0.0357671
0.728649 0.567987 0.0350958
0.742504 0.569604 0.0345006
0.752895 0.570886 0.0336461
0.761685 0.572137 0.0329747
0.769238 0.573083 0.0323949
0.77557 0.574151 0.0320897
0.780758 0.57525 0.0329595
0.784695 0.576699 0.0367742
0.787472 0.577371 0.0393072
0.166934 0.518364 0.149722
0.166934 0.518364 0.149722
0.166888 0.517067 0.149752
0.166766 0.512734 0.149859
0.1673 0.509957 0.149874
0.174685 0.512459 0.150942
0.184009 0.516686 0.152483
0.192264 0.521447 0.154391
0.197498 0.528023 0.157259
0.200397 0.536812 0.15993
0.205142 0.543618 0.161227
0.212512 0.547463 0.161517
0.220554 0.549935 0.161639
0.228885 0.552819 0.16141
0.248783 0.56321 0.157
0.314672 0.578576 0.145907
0.422309 0.57731 0.132006
0.49546 0.577111 0.107774
0.545342 0.578897 0.0835584
0.584619 0.582025 0.0636912
0.61941 0.584283 0.0514382
0.651576 0.586618 0.0436561
0.680018 0.588998 0.0385901
0.70222 0.590799 0.0373083
0.72047 0.592325 0.0374456
0.735821 0.593668 0.0375982
0.747158 0.594644 0.0377508
0.756817 0.595621 0.0379492
0.765011 0.596445 0.0381323
0.772 0.597116 0.0383154
0.777646 0.598047 0.0389868
0.78175 0.599207 0.0410468
0.784649 0.599924 0.0424811
0.166964 0.539406 0.148714
0.166964 0.539406 0.148714
0.16701 0.538125 0.148836
0.167224 0.533913 0.149248
0.167437 0.531121 0.149447
0.174517 0.5337 0.150317
0.183551 0.538155 0.151476
0.191745 0.542977 0.15285
0.197253 0.549783 0.15491
0.199939 0.558618 0.157397
0.203647 0.566369 0.159075
0.210269 0.570825 0.159609
0.218128 0.573495 0.159686
0.225254 0.575921 0.159579
0.232044 0.583093 0.1561
0.273472 0.598245 0.145968
0.382193 0.605203 0.133837
0.468818 0.603342 0.114412
0.528008 0.602319 0.0922408
0.571283 0.604959 0.0715496
0.606897 0.60763 0.0573281
0.63949 0.610056 0.0480354
0.668391 0.612482 0.0427558
0.692531 0.614343 0.0403296
0.712551 0.615869 0.0394446
0.729427 0.617426 0.0388037
0.741466 0.61828 0.0389258
0.751446 0.618921 0.0391699
0.75996 0.619516 0.0393988
0.767147 0.620172 0.0395819
0.773053 0.620859 0.0399939
0.777371 0.621729 0.0413062
0.780362 0.622248 0.0422675
0.165972 0.558663 0.146777
0.165972 0.558648 0.146777
0.166033 0.557504 0.146883
0.166232 0.553796 0.14725
0.166354 0.551156 0.147524
0.173022 0.553643 0.148318
0.181979 0.558083 0.149416
0.190463 0.562905 0.150713
0.196628 0.569284 0.15259
0.199252 0.577905 0.154711
0.201419 0.586099 0.156191
0.206851 0.591287 0.156588
0.214267 0.59443 0.156527
0.221332 0.597253 0.15639
0.228122 0.60116 0.155123
0.258457 0.613443 0.148318
0.345068 0.629587 0.133852
0.438056 0.629877 0.116365
0.510048 0.624475 0.0977798
0.55845 0.625559 0.078172
0.595453 0.628656 0.060914
0.628565 0.631495 0.0508125
0.657893 0.633799 0.046952
0.683284 0.63595 0.043946
0.704982 0.63769 0.0415045
0.723293 0.639094 0.0396277
0.736171 0.639979 0.039353
0.746395 0.640253 0.0395514
0.755032 0.64094 0.0397345
0.762371 0.641337 0.0398718
0.768475 0.64181 0.0401617
0.773053 0.642252 0.041001
0.77612 0.642634 0.0416114
0.164904 0.575799 0.144884
0.164904 0.575799 0.144884
0.165011 0.574746 0.145037
0.165316 0.571389 0.14548
0.165438 0.568978 0.145724
0.171649 0.571481 0.146487
0.180362 0.575998 0.147372
0.188586 0.580652 0.148318
0.194797 0.586679 0.149645
0.197559 0.595056 0.151446
0.1991 0.603754 0.153079
0.203723 0.609842 0.153628
0.210773 0.613321 0.153643
0.2177 0.616053 0.15349
0.224308 0.618585 0.153277
0.245472 0.627787 0.148669
0.309178 0.646723 0.133822
0.402518 0.651789 0.11632
0.490196 0.645411 0.0991531
0.544625 0.643076 0.0805066
0.58381 0.646464 0.0635538
0.618143 0.649638 0.0517433
0.647959 0.652354 0.0455024
0.674311 0.654795 0.0419471
0.697215 0.656825 0.0413214
0.716548 0.658549 0.0408942
0.73051 0.659495 0.0407568
0.741344 0.660075 0.0406806
0.750668 0.660578 0.0406043
0.758602 0.660945 0.040528
0.765042 0.661479 0.0406043
0.769833 0.661891 0.0411688
0.772946 0.662226 0.0416114
0.162844 0.590982 0.142367
0.162844 0.590967 0.142367
0.162951 0.590188 0.142489
0.163394 0.586999 0.143023
0.163668 0.584863 0.143374
0.169299 0.587213 0.143938
0.177844 0.591699 0.14464
0.18616 0.596368 0.145556
0.192767 0.602258 0.146761
0.195941 0.610285 0.148501
0.196841 0.61944 0.150103
0.200259 0.626154 0.150668
0.206455 0.630472 0.150576
0.213169 0.633402 0.150362
0.219776 0.63595 0.150179
0.232517 0.643122 0.146334
0.2748 0.6589 0.133074
0.36437 0.668162 0.11574
0.469886 0.665019 0.0988327
0.530068 0.659098 0.081117
0.572915 0.661997 0.0655528
0.608743 0.665736 0.052903
0.639231 0.668559 0.0437629
0.666224 0.671229 0.0392615
0.69012 0.673625 0.0406806
0.710307 0.675715 0.0418555
0.725429 0.67686 0.0420996
0.736843 0.677577 0.0417639
0.746578 0.678279 0.0414588
0.755032 0.678584 0.0411841
0.761913 0.67895 0.0410315
0.766857 0.679408 0.0413519
0.770077 0.679637 0.0416571
0.161044 0.604242 0.140154
0.161044 0.604242 0.140154
0.161135 0.603525 0.140276
0.161517 0.600687 0.140734
0.161791 0.598733 0.14107
0.167117 0.600961 0.141573
0.175601 0.605493 0.142229
0.183993 0.610208 0.143114
0.190829 0.61593 0.144198
0.193805 0.62385 0.145678
0.194171 0.633356 0.147173
0.196841 0.64094 0.147814
0.202579 0.645594 0.147814
0.209171 0.648737 0.147601
0.215747 0.651301 0.147433
0.222431 0.657038 0.144152
0.246906 0.669902 0.132296
0.328145 0.681773 0.115343
0.450187 0.682795 0.0983749
0.516243 0.673854 0.0812085
0.562982 0.675151 0.066392
0.600336 0.678309 0.0536965
0.631235 0.681315 0.0433051
0.658656 0.684092 0.0375677
0.683131 0.686732 0.0388037
0.703883 0.688731 0.0397345
0.720012 0.69012 0.0402533
0.732143 0.690959 0.040528
0.742626 0.691814 0.0408026
0.751629 0.692226 0.0410925
0.758968 0.692821 0.0413367
0.764309 0.69308 0.0416114
0.767575 0.693202 0.0417945
