public/textures/LUTs/CONCESSION.CUBE
TITLE "Generated by Resolve"
LUT_3D_SIZE 9
0.0232548 0.0155032 0.0195926
0.0580758 0.0175021 0.0170291
0.216892 0.0238499 0.0110475
0.45449 0.0264591 0.0102998
0.570718 0.0264134 0.0102388
0.639826 0.0267491 0.0100862
0.677577 0.0271 0.0102541
0.695918 0.0272526 0.0107424
0.70338 0.0271916 0.0115663
0.0362097 0.0569772 0.0224613
0.0538338 0.054963 0.0228733
0.154498 0.0562142 0.0154421
0.398978 0.0511635 0.0111086
0.554177 0.0475471 0.00975052
0.633478 0.0477607 0.00939956
0.680919 0.0480049 0.00955215
0.705806 0.0487526 0.00973526
0.717006 0.0497139 0.00982681
0.0525216 0.135958 0.0440986
0.0604257 0.132784 0.0453956
0.15198 0.130816 0.0331426
0.352209 0.145907 0.01178
0.504067 0.116304 0.0153201
0.615274 0.0853895 0.0142367
0.681407 0.078706 0.0146181
0.704845 0.0799268 0.0136873
0.712108 0.0827649 0.0120699
0.1019 0.261555 0.0961318
0.102937 0.252445 0.0930037
0.143862 0.278492 0.110185
0.365835 0.275471 0.0242161
0.558053 0.307713 0.0106508
0.642542 0.317632 0.0131228
0.672816 0.305364 0.0194858
0.688884 0.2981 0.0226596
0.697337 0.29955 0.025864
0.154818 0.41416 0.142824
0.155184 0.404501 0.14081
0.184833 0.425513 0.154238
0.247074 0.44361 0.154711
0.528878 0.455222 0.048127
0.671733 0.473457 0.0216983
0.737102 0.481605 0.0169223
0.770123 0.484413 0.0163729
0.783825 0.477562 0.0259098
0.166934 0.518364 0.149722
0.1673 0.509957 0.149874
0.197498 0.528023 0.157259
0.220554 0.549935 0.161639
0.422309 0.57731 0.132006
0.61941 0.584283 0.0514382
0.72047 0.592325 0.0374456
0.765011 0.596445 0.0381323
0.784649 0.599924 0.0424811
0.162844 0.590982 0.142367
0.163668 0.584863 0.143374
0.192767 0.602258 0.146761
0.206455 0.630472 0.150576
0.2748 0.6589 0.133074
0.572915 0.661997 0.0655528
0.69012 0.673625 0.0406806
0.746578 0.678279 0.0414588
0.770077 0.679637 0.0416571
0.155306 0.635264 0.134432
0.156176 0.631128 0.135225
0.183886 0.648783 0.137499
0.193393 0.678004 0.141466
0.22536 0.691905 0.136736
0.537697 0.703029 0.0658579
0.666316 0.712276 0.0341344
0.732113 0.719676 0.0371252
0.761364 0.722362 0.041825
0.150423 0.658061 0.129992
0.150866 0.65594 0.130388
0.178027 0.67245 0.132433
0.186526 0.700755 0.136751
0.210575 0.710002 0.136461
0.513298 0.724025 0.0655985
0.65124 0.727871 0.0331884
0.721614 0.736767 0.0337377
0.754391 0.740475 0.0392157
0.016434 0.0181277 0.0517586
0.0506142 0.0207675 0.060914
0.224735 0.0203708 0.0536507
0.476249 0.0160678 0.0401007
0.594247 0.0176242 0.0398718
0.665125 0.0183413 0.0403906
0.704067 0.0184787 0.0407874
0.72343 0.0183566 0.0416266
0.731853 0.0179599 0.0429389
0.0158999 0.0559091 0.0598611
0.036286 0.054551 0.0589914
0.155169 0.056672 0.0508583
0.415213 0.0433204 0.032166
0.573739 0.0411078 0.0316472
0.654795 0.0411383 0.0316472
0.701457 0.041062 0.0318608
0.726894 0.0411688 0.0327306
0.739223 0.0415045 0.0340124
0.0423896 0.136736 0.0691691
0.0514839 0.130266 0.0660716
0.141375 0.128588 0.0629129
0.345586 0.130678 0.03505
0.528572 0.0975357 0.0349279
0.626062 0.0826123 0.0323186
0.690288 0.0784161 0.0302586
0.719356 0.0778973 0.029572
0.732052 0.0777905 0.0298314
0.101167 0.267781 0.114565
0.101457 0.256291 0.108751
0.141802 0.276127 0.124849
0.358053 0.27245 0.0415656
0.55346 0.30367 0.0243229
0.629587 0.304814 0.0356451
0.670405 0.297383 0.0424048
0.697169 0.2981 0.0436255
0.710216 0.309178 0.0434424
0.152987 0.416953 0.155444
0.152895 0.405478 0.151431
0.18764 0.420676 0.162173
0.242618 0.439918 0.164675
0.524346 0.450843 0.0570382
0.669093 0.469398 0.0291905
0.735485 0.477195 0.0243687
0.770459 0.473808 0.0300298
0.779202 0.470939 0.0466468
0.165362 0.519417 0.15787
0.165484 0.510155 0.156573
0.198932 0.524666 0.162478
0.21973 0.547189 0.168017
0.410513 0.574197 0.138842
0.615793 0.580926 0.0560159
0.718791 0.588922 0.0406195
0.764294 0.59324 0.0406348
0.784741 0.59588 0.0458839
0.161486 0.592157 0.148394
0.162814 0.585092 0.148043
0.192782 0.59997 0.150729
0.206256 0.627817 0.154498
0.267781 0.6542 0.138582
0.567956 0.659083 0.0696574
0.687099 0.670558 0.042237
0.745495 0.675013 0.0428321
0.769787 0.676616 0.0429847
0.153918 0.636667 0.139498
0.155306 0.631724 0.138979
0.183429 0.64715 0.140383
0.193439 0.675807 0.143664
0.218097 0.688685 0.140246
0.531106 0.701869 0.0693065
0.662409 0.710628 0.0354925
0.730114 0.71812 0.0372625
0.760708 0.720913 0.042298
0.148974 0.659846 0.134768
0.149996 0.656886 0.133806
0.177264 0.671382 0.134646
0.186404 0.699306 0.13817
0.209293 0.708873 0.137758
0.504448 0.724376 0.0687877
0.646571 0.726452 0.0340429
0.718914 0.735576 0.0333104
0.753506 0.739498 0.0392462
0.0103609 0.0273899 0.0856947
0.0278477 0.0348211 0.0978256
0.189471 0.0404059 0.14757
0.482063 0.014725 0.115312
0.609003 0.0129702 0.108446
0.682002 0.0131685 0.107637
0.72256 0.0133669 0.108553
0.741543 0.0134585 0.111345
0.749142 0.0135042 0.115724
0.00972 0.0569467 0.0906996
0.022034 0.0551919 0.0897993
0.150393 0.0617838 0.125261
0.449638 0.0350195 0.0936599
0.597147 0.0328985 0.0842298
0.68011 0.0326696 0.0827344
0.728115 0.0326085 0.0841535
0.752865 0.0330053 0.0874647
0.764294 0.0338293 0.0917678
0.0103304 0.132525 0.124453
0.0171817 0.124163 0.116655
0.107179 0.132494 0.125734
0.371633 0.12874 0.0885634
0.568048 0.0820783 0.0634165
0.675731 0.0647288 0.0633707
0.73341 0.0621347 0.0654154
0.759441 0.0623941 0.0689555
0.769574 0.0631266 0.0721752
0.0977035 0.283116 0.155047
0.095552 0.268757 0.146365
0.140093 0.273152 0.15375
0.343587 0.273121 0.0959793
0.541238 0.292943 0.0598764
0.638361 0.294453 0.0623941
0.689632 0.300694 0.0597086
0.716457 0.310369 0.0567178
0.731029 0.317311 0.0558633
0.148638 0.430503 0.18436
0.148836 0.418692 0.180713
0.188678 0.423072 0.186328
0.234821 0.439612 0.194476
0.518486 0.450828 0.0894789
0.666835 0.468605 0.0582589
0.736538 0.471366 0.0573129
0.760281 0.471214 0.0686351
0.770687 0.475792 0.0742962
0.158984 0.533684 0.183871
0.159304 0.523552 0.182025
0.196551 0.529778 0.186358
0.221118 0.546914 0.196017
0.393606 0.575845 0.170047
0.61178 0.58085 0.0856947
0.717144 0.588724 0.0684062
0.764279 0.59266 0.0682689
0.785748 0.590768 0.0787213
0.153429 0.606424 0.170535
0.154955 0.598825 0.169467
0.188449 0.606378 0.171908
0.212772 0.623529 0.179477
0.254322 0.652567 0.168917
0.561578 0.659129 0.0983597
0.683558 0.670314 0.0674144
0.744244 0.674815 0.0676432
0.769665 0.675944 0.0675669
0.144869 0.651286 0.159945
0.146609 0.645487 0.158572
0.178134 0.654337 0.160021
0.202579 0.670054 0.166491
0.215671 0.688716 0.166873
0.52195 0.703014 0.0959182
0.657557 0.710246 0.0588846
0.727947 0.717754 0.0588846
0.759976 0.720745 0.0639658
0.139559 0.672969 0.15462
0.141085 0.669245 0.152544
0.171649 0.677852 0.153445
0.196216 0.693477 0.159075
0.207614 0.710063 0.16144
0.492668 0.726726 0.0935531
0.640742 0.726116 0.0554818
0.715801 0.735439 0.0522774
0.752392 0.739544 0.0578164
0.0102541 0.0519112 0.138872
0.0273899 0.054902 0.143847
0.101167 0.0929732 0.218555
0.427955 0.0740368 0.275776
0.587671 0.0641642 0.267292
0.669993 0.0537728 0.262242
0.716365 0.047013 0.260426
0.736217 0.045655 0.263767
0.742443 0.0476234 0.270115
0.00956741 0.0801862 0.142077
0.0205234 0.0749371 0.137194
0.0772259 0.104356 0.192416
0.40383 0.0850385 0.246326
0.587366 0.0679942 0.228275
0.67776 0.0538186 0.220447
0.730022 0.0470436 0.21854
0.754711 0.0467079 0.222766
0.765332 0.0492561 0.230457
0.00941482 0.127016 0.16257
0.0155489 0.117968 0.153277
0.0579538 0.126452 0.166995
0.356832 0.128862 0.23093
0.58323 0.0952163 0.212787
0.682475 0.0769665 0.206073
0.737972 0.0703136 0.204532
0.764752 0.0699779 0.208103
0.774746 0.0720226 0.214801
0.014374 0.28748 0.254734
0.0143435 0.271809 0.24033
0.0676585 0.274052 0.226459
0.295308 0.299763 0.251652
0.55697 0.312535 0.209277
0.681178 0.306691 0.188937
0.745251 0.299184 0.187259
0.780713 0.296803 0.18996
0.795636 0.300328 0.195529
0.140505 0.449561 0.23299
0.140444 0.436393 0.22594
0.180392 0.430457 0.215427
0.234363 0.446311 0.237263
0.509224 0.462928 0.175647
0.66717 0.476921 0.129488
0.741131 0.504463 0.247364
0.77258 0.512474 0.254734
0.78587 0.5187 0.237675
0.151965 0.550011 0.212436
0.152941 0.539147 0.21091
0.1888 0.537346 0.210178
0.226658 0.541833 0.217578
0.377127 0.575708 0.200137
0.607141 0.580102 0.115541
0.714839 0.587701 0.0960708
0.765911 0.589578 0.0988937
0.790539 0.60119 0.161349
0.1449 0.622553 0.196139
0.147097 0.614404 0.19501
0.179873 0.615 0.195621
0.216312 0.621622 0.201953
0.247929 0.65124 0.197391
0.555154 0.658534 0.128878
0.680003 0.669917 0.0952773
0.742626 0.674464 0.095613
0.768887 0.676036 0.0953689
0.135821 0.666651 0.184741
0.137819 0.661387 0.183124
0.168734 0.663127 0.183627
0.204303 0.669841 0.189456
0.217517 0.687495 0.193103
0.513298 0.704234 0.126604
0.652949 0.70985 0.0877394
0.725307 0.717784 0.086656
0.758801 0.720867 0.0919966
0.130495 0.687709 0.179187
0.132204 0.683742 0.176989
0.162005 0.686656 0.176913
0.196872 0.694438 0.182101
0.210956 0.707851 0.187991
0.47277 0.729641 0.1252
0.635279 0.725933 0.0846113
0.712657 0.735622 0.0801099
0.750866 0.740139 0.0859541
0.0102998 0.0869001 0.20412
0.0273289 0.0854047 0.204974
0.0639811 0.110491 0.242451
0.37322 0.129625 0.38201
0.525032 0.115251 0.405295
0.608988 0.10663 0.409735
0.659968 0.102754 0.411673
0.682734 0.101717 0.414572
0.689769 0.102037 0.418311
0.00952163 0.116793 0.209216
0.0194247 0.110307 0.204135
0.0570687 0.121477 0.222904
0.337972 0.153979 0.363699
0.520088 0.130083 0.389578
0.617166 0.120104 0.39144
0.677668 0.116243 0.392523
0.705089 0.115404 0.396429
0.715846 0.116548 0.401694
0.00952163 0.146059 0.212894
0.0146334 0.139925 0.20705
0.0530251 0.140444 0.210224
0.315755 0.185458 0.360449
0.517937 0.1579 0.385779
0.623484 0.147967 0.387167
0.688731 0.143832 0.387701
0.718303 0.142458 0.391272
0.729137 0.143389 0.396002
0.00976577 0.280018 0.318608
0.0120699 0.26273 0.300984
0.0468605 0.250645 0.288426
0.172015 0.290913 0.352041
0.513664 0.297749 0.406134
0.662425 0.268116 0.398047
0.733104 0.244511 0.39202
0.769497 0.233066 0.39176
0.783597 0.232715 0.395666
0.0099031 0.449058 0.405356
0.010605 0.439384 0.393912
0.0411078 0.433433 0.374273
0.0994736 0.448646 0.361639
0.488045 0.51136 0.429023
0.658839 0.528756 0.432303
0.755611 0.532982 0.404929
0.796078 0.535683 0.402258
0.814282 0.539193 0.405035
0.0766918 0.584039 0.363119
0.0873121 0.574502 0.350195
0.14844 0.566125 0.308782
0.190249 0.568689 0.310246
0.394202 0.631342 0.362478
0.609857 0.634501 0.373739
0.732311 0.645228 0.376883
0.789212 0.657526 0.437675
0.807111 0.663081 0.446464
0.12462 0.64683 0.269001
0.134173 0.633753 0.245274
0.165545 0.627039 0.231495
0.206195 0.631647 0.23624
0.28658 0.677653 0.266407
0.549615 0.709148 0.302007
0.684123 0.707347 0.287572
0.752956 0.711879 0.286442
0.784909 0.716793 0.314916
0.12694 0.676402 0.218326
0.12842 0.672312 0.216144
0.156085 0.671595 0.211566
0.196399 0.675074 0.213672
0.254353 0.691051 0.210529
0.500679 0.740932 0.235386
0.651057 0.728679 0.198871
0.726818 0.73434 0.186831
0.762371 0.735851 0.185779
0.121462 0.697215 0.212375
0.122469 0.695384 0.209293
0.149493 0.695567 0.204227
0.188922 0.699214 0.206363
0.237842 0.70901 0.204547
0.456092 0.746609 0.195651
0.630167 0.733104 0.149966
0.709926 0.740291 0.132067
0.749844 0.743145 0.130083
0.0104372 0.109819 0.248508
0.0271611 0.106615 0.249134
0.0611734 0.116579 0.264378
0.314717 0.181292 0.44799
0.502083 0.143526 0.476341
0.570764 0.139803 0.486305
0.620768 0.133776 0.493019
0.64477 0.131151 0.497276
0.653025 0.130678 0.500252
0.00947585 0.143252 0.259464
0.0184482 0.136294 0.255406
0.0562142 0.135943 0.260197
0.243656 0.209674 0.434974
0.492149 0.164797 0.472923
0.571969 0.158541 0.484138
0.632349 0.150622 0.491569
0.661387 0.14757 0.496788
0.672801 0.147799 0.501244
0.00967422 0.174441 0.267094
0.013901 0.169238 0.263081
0.0513466 0.165728 0.263676
0.197024 0.242039 0.419211
0.489281 0.197116 0.476539
0.57583 0.1897 0.48986
0.641001 0.181567 0.497444
0.67155 0.177874 0.50248
0.683879 0.177539 0.506416
0.0108949 0.242664 0.311788
0.0126802 0.226322 0.295598
0.0446937 0.200275 0.270619
0.114748 0.241245 0.338064
0.465782 0.239231 0.470619
0.567681 0.223499 0.486793
0.63949 0.211612 0.492699
0.675425 0.206394 0.497414
0.690379 0.205722 0.501411
0.0104372 0.442725 0.479667
0.0110475 0.429938 0.468223
0.0383612 0.417609 0.455528
0.0784161 0.418341 0.455222
0.392706 0.504189 0.570733
0.652857 0.511757 0.587243
0.762539 0.504875 0.580087
0.811627 0.501564 0.57641
0.833921 0.50193 0.576745
0.00987259 0.552804 0.512718
0.00987259 0.54461 0.505577
0.033814 0.541909 0.497047
0.0721294 0.544945 0.489235
0.151354 0.586419 0.502052
0.612604 0.665385 0.58584
0.733288 0.673915 0.590249
0.783536 0.680171 0.591867
0.807584 0.682887 0.589258
0.00972 0.63537 0.507881
0.00970474 0.630381 0.500099
0.0313726 0.64181 0.482231
0.0749218 0.658442 0.452949
0.119341 0.671458 0.454429
0.570321 0.757931 0.546746
0.691234 0.757443 0.568856
0.766995 0.755673 0.577295
0.800015 0.757259 0.607965
0.00949111 0.690761 0.494728
0.0099794 0.691325 0.483558
0.0365454 0.705669 0.453376
0.0863661 0.714031 0.422827
0.122225 0.719448 0.427161
0.532128 0.806455 0.512306
0.6636 0.812604 0.54522
0.743297 0.801312 0.544457
0.783886 0.801526 0.543206
0.00985733 0.716518 0.483513
0.0106966 0.719829 0.468772
0.0452125 0.73051 0.430762
0.0970169 0.734981 0.4
0.129809 0.73962 0.406363
0.503578 0.822965 0.484031
0.65008 0.836225 0.522545
0.729137 0.824308 0.521538
0.773785 0.821317 0.516991
0.0104677 0.121202 0.270237
0.0270542 0.117205 0.271092
0.0608988 0.122576 0.280049
0.265614 0.200275 0.486183
0.497856 0.15816 0.504326
0.56408 0.150607 0.524147
0.606882 0.148119 0.531029
0.629633 0.146059 0.535195
0.638132 0.145449 0.537453
0.00949111 0.15584 0.284031
0.0178836 0.149477 0.281407
0.0556191 0.14725 0.285344
0.190661 0.224033 0.442924
0.485252 0.185489 0.505425
0.564431 0.172229 0.529732
0.615824 0.16817 0.538613
0.642817 0.166339 0.543526
0.653803 0.166781 0.546853
0.00972 0.187549 0.293477
0.0135195 0.183185 0.290959
0.0503243 0.179446 0.292561
0.151369 0.249363 0.413809
0.479683 0.223285 0.510491
0.568734 0.205417 0.539101
0.624109 0.200855 0.549874
0.651377 0.19913 0.55407
0.663325 0.199069 0.556893
0.0108492 0.222873 0.305608
0.0124971 0.217868 0.301656
0.0433204 0.209323 0.296132
0.0964981 0.234699 0.337179
0.450111 0.263493 0.500114
0.558038 0.235019 0.535912
0.619211 0.229404 0.548394
0.650095 0.227268 0.55259
0.664057 0.226642 0.555474
0.0105898 0.437095 0.50695
0.0111086 0.42327 0.49424
0.0366369 0.406577 0.477958
0.0766155 0.403616 0.475929
0.335714 0.485496 0.605158
0.613993 0.488182 0.648722
0.704067 0.4822 0.650507
0.75082 0.477058 0.652857
0.774807 0.476341 0.655955
0.00985733 0.551278 0.565606
0.00985733 0.542977 0.559319
0.0318761 0.54052 0.555749
0.0691539 0.539498 0.55198
0.113924 0.560128 0.569558
0.564111 0.656703 0.673915
0.730297 0.668971 0.680964
0.797894 0.669245 0.674357
0.824231 0.669856 0.673289
0.00984207 0.622065 0.574044
0.00984207 0.616022 0.56907
0.0299382 0.619272 0.565927
0.0641794 0.61976 0.557809
0.0998245 0.631693 0.55639
0.46331 0.74345 0.626245
0.698711 0.760815 0.661906
0.764157 0.760571 0.674372
0.799466 0.763058 0.675059
0.00985733 0.665156 0.573587
0.00984207 0.662135 0.568124
0.0288243 0.669093 0.562615
0.0607462 0.675059 0.544335
0.0972305 0.691707 0.529717
0.388739 0.789425 0.591348
0.680568 0.814725 0.641688
0.747921 0.812833 0.658824
0.785183 0.808499 0.664118
0.00979629 0.68661 0.571481
0.00978103 0.685847 0.565057
0.0280003 0.694133 0.555581
0.0585641 0.70573 0.528634
0.0958114 0.720119 0.514977
0.328984 0.802976 0.5664
0.667872 0.842039 0.62652
0.743114 0.838956 0.643748
0.775357 0.834806 0.64863
0.0104677 0.126375 0.280262
0.0269932 0.122011 0.281376
0.0607004 0.126406 0.289143
0.242222 0.207691 0.490105
0.49453 0.166766 0.516228
0.562615 0.15613 0.539254
0.604273 0.152697 0.550408
0.625376 0.151507 0.554086
0.633555 0.15108 0.555795
0.00950637 0.162387 0.296727
0.0175631 0.156329 0.29482
0.0552834 0.153582 0.299138
0.171527 0.227253 0.439963
0.477791 0.200687 0.518685
0.562921 0.179919 0.548669
0.613062 0.174456 0.561975
0.63888 0.172808 0.567452
0.649821 0.173098 0.570367
0.00973526 0.194659 0.307668
0.0133364 0.19086 0.306096
0.0497902 0.187182 0.308598
0.13489 0.249973 0.411749
0.469306 0.242344 0.525002
0.567163 0.214694 0.559777
0.622126 0.207385 0.575662
0.648829 0.205341 0.581415
0.660792 0.205066 0.584192
0.0106355 0.225605 0.31606
0.012192 0.221927 0.313878
0.0425879 0.217426 0.313466
0.0894179 0.23621 0.343771
0.437491 0.283436 0.524269
0.55581 0.246174 0.558526
0.617014 0.236973 0.577142
0.647593 0.234226 0.584009
0.661128 0.233738 0.586816
0.0104829 0.43328 0.519554
0.0108949 0.418952 0.506096
0.0357366 0.398917 0.48629
0.0755169 0.392447 0.481193
0.301213 0.47097 0.613596
0.594156 0.469276 0.681544
0.682139 0.458717 0.678325
0.720134 0.45536 0.683421
0.740749 0.457053 0.687053
0.00987259 0.550942 0.59379
0.00988785 0.542214 0.587991
0.0309148 0.540139 0.587106
0.0673381 0.537499 0.584482
0.107469 0.551354 0.5991
0.538247 0.653101 0.716533
0.714183 0.662852 0.737148
0.77995 0.662074 0.733501
0.809659 0.661036 0.733516
0.00981155 0.620188 0.60972
0.00981155 0.613947 0.605997
0.0291905 0.617319 0.606409
0.0623484 0.616251 0.601556
0.0988174 0.625772 0.606302
0.408804 0.721401 0.689693
0.664836 0.754711 0.725841
0.762737 0.762295 0.733791
0.799771 0.763897 0.733333
0.00982681 0.661128 0.612345
0.00982681 0.657771 0.608865
0.0281529 0.663737 0.60882
0.059205 0.664485 0.601923
0.0954604 0.674784 0.602899
0.250523 0.742763 0.635645
0.63447 0.812055 0.698863
0.750896 0.813336 0.713283
0.793332 0.809812 0.723095
0.00982681 0.681468 0.612482
0.00984207 0.679988 0.608606
0.0273899 0.686595 0.607767
0.0568704 0.689036 0.597406
0.0927749 0.699184 0.590845
0.183368 0.746532 0.597864
0.621073 0.839857 0.683696
0.743313 0.840726 0.700114
0.789929 0.836271 0.709468
0.0104829 0.128435 0.284199
0.0270085 0.123995 0.285527
0.0606699 0.128145 0.293202
0.233158 0.210498 0.49015
0.492866 0.170489 0.521035
0.561852 0.158648 0.545159
0.603708 0.15462 0.557183
0.624643 0.15314 0.561273
0.633158 0.15256 0.563165
0.00950637 0.16553 0.30248
0.0174868 0.15967 0.301076
0.0551766 0.156817 0.305684
0.164096 0.228748 0.439689
0.473503 0.208804 0.524453
0.562478 0.1841 0.556985
0.612634 0.177417 0.572
0.638437 0.175341 0.578637
0.649241 0.175555 0.581399
0.00975052 0.198352 0.314534
0.0133059 0.194812 0.313481
0.0496223 0.19144 0.316716
0.128359 0.250507 0.412192
0.464103 0.251972 0.53228
0.566522 0.219501 0.569207
0.621607 0.210727 0.586389
0.648417 0.208057 0.592782
0.660578 0.207446 0.595636
0.010544 0.229404 0.323644
0.0120851 0.22623 0.322255
0.042359 0.222339 0.322911
0.0865949 0.237751 0.348135
0.429999 0.291463 0.543359
0.55465 0.252064 0.56907
0.616327 0.241093 0.58883
0.647257 0.237385 0.596796
0.660945 0.236469 0.600046
0.0104524 0.432074 0.525826
0.0108492 0.417334 0.512322
0.0354162 0.395834 0.490669
0.0749065 0.387289 0.483238
0.282933 0.463447 0.614191
0.585107 0.459174 0.696345
0.673121 0.446632 0.686519
0.712474 0.441093 0.693706
0.732052 0.442176 0.697917
0.00991836 0.551232 0.606973
0.00993362 0.542412 0.601892
0.0305791 0.540337 0.602274
0.0664225 0.537057 0.600626
0.105653 0.548867 0.614038
0.524208 0.652537 0.73608
0.706035 0.660273 0.764996
0.768551 0.660624 0.75639
0.795102 0.660075 0.758999
0.00979629 0.619532 0.626337
0.00979629 0.61355 0.62388
0.0287938 0.617014 0.626307
0.0612345 0.615381 0.623652
0.0981003 0.62472 0.629465
0.379278 0.715724 0.718105
0.653254 0.750759 0.755856
0.757946 0.760311 0.765423
0.800549 0.761975 0.765881
0.00979629 0.659998 0.631174
0.00979629 0.656367 0.629282
0.0277104 0.66273 0.63154
0.0581216 0.662623 0.627527
0.0946059 0.672114 0.631754
0.226627 0.726375 0.672602
0.601694 0.798444 0.738262
0.72874 0.812696 0.752499
0.786877 0.812421 0.756497
0.00979629 0.679973 0.632242
0.00981155 0.678248 0.630289
0.0268864 0.685008 0.632105
0.0558633 0.686412 0.627008
0.0919203 0.695003 0.629206
0.146502 0.724163 0.641138
0.570077 0.827436 0.715969
0.719402 0.84239 0.738521
0.783368 0.841428 0.744945
