public/textures/LUTs/CONCESSION.CUBE
TITLE "Generated by Resolve"
LUT_3D_SIZE 5
0.0232548 0.0155032 0.0195926
0.216892 0.0238499 0.0110475
0.570718 0.0264134 0.0102388
0.677577 0.0271 0.0102541
0.70338 0.0271916 0.0115663
0.0525216 0.135958 0.0440986
0.15198 0.130816 0.0331426
0.504067 0.116304 0.0153201
0.681407 0.078706 0.0146181
0.712108 0.0827649 0.0120699
0.154818 0.41416 0.142824
0.184833 0.425513 0.154238
0.528878 0.455222 0.048127
0.737102 0.481605 0.0169223
0.783825 0.477562 0.0259098
0.162844 0.590982 0.142367
0.192767 0.602258 0.146761
0.2748 0.6589 0.133074
0.69012 0.673625 0.0406806
0.770077 0.679637 0.0416571
0.150423 0.658061 0.129992
0.178027 0.67245 0.132433
0.210575 0.710002 0.136461
0.65124 0.727871 0.0331884
0.754391 0.740475 0.0392157
0.0103609 0.0273899 0.0856947
0.189471 0.0404059 0.14757
0.609003 0.0129702 0.108446
0.72256 0.0133669 0.108553
0.749142 0.0135042 0.115724
0.0103304 0.132525 0.124453
0.107179 0.132494 0.125734
0.568048 0.0820783 0.0634165
0.73341 0.0621347 0.0654154
0.769574 0.0631266 0.0721752
0.148638 0.430503 0.18436
0.188678 0.423072 0.186328
0.518486 0.450828 0.0894789
0.736538 0.471366 0.0573129
0.770687 0.475792 0.0742962
0.153429 0.606424 0.170535
0.188449 0.606378 0.171908
0.254322 0.652567 0.168917
0.683558 0.670314 0.0674144
0.769665 0.675944 0.0675669
0.139559 0.672969 0.15462
0.171649 0.677852 0.153445
0.207614 0.710063 0.16144
0.640742 0.726116 0.0554818
0.752392 0.739544 0.0578164
0.0102998 0.0869001 0.20412
0.0639811 0.110491 0.242451
0.525032 0.115251 0.405295
0.659968 0.102754 0.411673
0.689769 0.102037 0.418311
0.00952163 0.146059 0.212894
0.0530251 0.140444 0.210224
0.517937 0.1579 0.385779
0.688731 0.143832 0.387701
0.729137 0.143389 0.396002
0.0099031 0.449058 0.405356
0.0411078 0.433433 0.374273
0.488045 0.51136 0.429023
0.755611 0.532982 0.404929
0.814282 0.539193 0.405035
0.12462 0.64683 0.269001
0.165545 0.627039 0.231495
0.28658 0.677653 0.266407
0.684123 0.707347 0.287572
0.784909 0.716793 0.314916
0.121462 0.697215 0.212375
0.149493 0.695567 0.204227
0.237842 0.70901 0.204547
0.630167 0.733104 0.149966
0.749844 0.743145 0.130083
0.0104677 0.121202 0.270237
0.0608988 0.122576 0.280049
0.497856 0.15816 0.504326
0.606882 0.148119 0.531029
0.638132 0.145449 0.537453
0.00972 0.187549 0.293477
0.0503243 0.179446 0.292561
0.479683 0.223285 0.510491
0.624109 0.200855 0.549874
0.663325 0.199069 0.556893
0.0105898 0.437095 0.50695
0.0366369 0.406577 0.477958
0.335714 0.485496 0.605158
0.704067 0.4822 0.650507
0.774807 0.476341 0.655955
0.00984207 0.622065 0.574044
0.0299382 0.619272 0.565927
0.0998245 0.631693 0.55639
0.698711 0.760815 0.661906
0.799466 0.763058 0.675059
0.00979629 0.68661 0.571481
0.0280003 0.694133 0.555581
0.0958114 0.720119 0.514977
0.667872 0.842039 0.62652
0.775357 0.834806 0.64863
0.0104829 0.128435 0.284199
0.0606699 0.128145 0.293202
0.492866 0.170489 0.521035
0.603708 0.15462 0.557183
0.633158 0.15256 0.563165
0.00975052 0.198352 0.314534
0.0496223 0.19144 0.316716
0.464103 0.251972 0.53228
0.621607 0.210727 0.586389
0.660578 0.207446 0.595636
0.0104524 0.432074 0.525826
0.0354162 0.395834 0.490669
0.282933 0.463447 0.614191
0.673121 0.446632 0.686519
0.732052 0.442176 0.697917
0.00979629 0.619532 0.626337
0.0287938 0.617014 0.626307
0.0981003 0.62472 0.629465
0.653254 0.750759 0.755856
0.800549 0.761975 0.765881
0.00979629 0.679973 0.632242
0.0268864 0.685008 0.632105
0.0919203 0.695003 0.629206
0.570077 0.827436 0.715969
0.783368 0.841428 0.744945
