public/textures/LUTs/COUNTRY.CUBE
TITLE "Generated by Resolve"
LUT_3D_SIZE 5
0 0 0
0.164721 0 0
0.725689 0 0
1 0 0
1 0 0
0 0.148226 0
0.099443 0.140612 0
0.790585 0.0065156 0
1 0 0
1 0 0
0 0.679149 0
0 0.669306 0
0.499596 0.655909 0
1 0.540764 0
1 0.524834 0
0 1 0
0 1 0
0 1 0
0.966628 1 0
1 1 0
0 1 0
0 1 0
0 1 0
0.773129 1 0
1 1 0
0 0 0.153964
0.183536 0 0.146914
0.840085 0 0.111238
1 0 0.0561685
1 0 0.0485237
0 0.127703 0.0971084
0.116304 0.111589 0.0937972
0.707912 0.0180972 0.0708782
1 0 0.0198825
1 0 0.015198
0 0.674144 0
0 0.657359 0
0.553689 0.634379 0
1 0.547707 0
1 0.544594 0
0 1 0
0 1 0
0 1 0
0.986801 1 0
1 1 0
0 1 0
0 1 0
0 1 0
0.84062 1 0
1 1 0
0 0 0.696223
0.076524 0 0.687297
0.806592 0 0.669032
1 0 0.65008
1 0 0.643977
0 0 0.622339
0.0033875 0 0.615564
0.755322 0 0.600809
1 0 0.58439
1 0 0.578714
0 0.621408 0.476295
0 0.60383 0.4748
0.585214 0.561913 0.464286
1 0.521508 0.471901
1 0.515541 0.478553
0 1 0.202548
0 1 0.196933
0 1 0.166674
0.996689 1 0.10341
1 0.980606 0.346807
0 1 0
0 1 0
0 1 0
0.90013 1 0
1 1 0
0 0 1
0 0 1
0.765606 0 1
1 0 1
1 0 1
0 0 1
0 0 1
0.712749 0 1
1 0 1
1 0 1
0 0.485573 0.954849
0 0.463066 0.953338
0.526589 0.409979 0.946914
1 0.320058 0.937804
1 0.290959 0.934981
0 0.992874 0.844495
0 0.985992 0.841199
0 0.968093 0.831464
0.975158 0.933379 0.825971
1 0.926604 0.849088
0 1 0.783352
0 1 0.775235
0 1 0.759564
0.912856 1 0.738231
1 1 0.73962
0 0 1
0 0 1
0.747585 0 1
1 0 1
1 0 1
0 0 1
0 0 1
0.693355 0 1
1 0 1
1 0 1
0 0.427436 1
0 0.400168 1
0.496376 0.33547 1
1 0.214801 1
1 0.154025 1
0 0.959564 1
0 0.951537 1
0 0.931624 1
0.956847 0.896819 1
1 0.882811 1
0 1 0.992279
0 1 0.991333
0 1 0.987579
0.892256 1 0.979339
1 0.995041 0.97998
