public/textures/LUTs/COUNTRY.CUBE
TITLE "Generated by Resolve"
LUT_3D_SIZE 9
0 0 0
0.0398413 0 0
0.164721 0 0
0.411017 0 0
0.725689 0 0
1 0 0
1 0 0
1 0 0
1 0 0
0 0.0345922 0
0.0196536 0.0322271 0
0.174289 0.0176852 0
0.423316 0 0
0.723415 0 0
0.996353 0 0
1 0 0
1 0 0
1 0 0
0 0.148226 0
0 0.144335 0
0.099443 0.140612 0
0.475135 0.0872663 0
0.790585 0.0065156 0
1 0 0
1 0 0
1 0 0
1 0 0
0 0.383932 0
0 0.375799 0
0 0.38677 0
0.256336 0.369146 0
0.78941 0.283223 0
1 0.216815 0
1 0.179202 0
1 0.174212 0
1 0.175326 0
0 0.679149 0
0 0.67187 0
0 0.669306 0
0 0.686961 0
0.499596 0.655909 0
1 0.573785 0
1 0.540764 0
1 0.527901 0
1 0.524834 0
0 0.93109 0
0 0.924483 0
0 0.917556 0
0 0.931029 0
0 0.934508 0
0.753109 0.895842 0
1 0.827222 0
1 0.806439 0
1 0.794018 0
0 1 0
0 1 0
0 1 0
0 1 0
0 1 0
0.44744 1 0
0.966628 1 0
1 1 0
1 1 0
0 1 0
0 1 0
0 1 0
0 1 0
0 1 0
0.319951 1 0
0.833768 1 0
1 1 0
1 1 0
0 1 0
0 1 0
0 1 0
0 1 0
0 1 0
0.288197 1 0
0.773129 1 0
0.991958 1 0
1 1 0
0 0 0.0378882
0.0449989 0 0.0356909
0.192584 0 0.0319219
0.49131 0 0.0180819
0.810407 0 0
1 0 0
1 0 0
1 0 0
1 0 0
0 0.0282902 0.0217136
0.0245212 0.0237583 0.0206302
0.15314 0.0166781 0.0198062
0.400946 0 0.012253
0.716884 0 0
1 0 0
1 0 0
1 0 0
1 0 0
0 0.145037 0
0 0.139864 0
0.110521 0.134096 0
0.433768 0.0914321 0
0.738277 0.0203861 0
1 0 0
1 0 0
1 0 0
1 0 0
0 0.382513 0
0 0.374533 0
0 0.368063 0
0.28368 0.360113 0
0.771313 0.286198 0
1 0.229923 0
1 0.196185 0
1 0.187564 0
1 0.189044 0
0 0.678416 0
0 0.671138 0
0 0.661814 0
0 0.672816 0
0.527474 0.647044 0
1 0.573678 0
1 0.544106 0
1 0.536233 0
1 0.536599 0
0 0.930388 0
0 0.923781 0
0 0.915496 0
0 0.91426 0
0.0109865 0.923415 0
0.778653 0.887617 0
1 0.825299 0
1 0.808179 0
1 0.798535 0
0 1 0
0 1 0
0 1 0
0 1 0
0 1 0
0.500359 1 0
0.977279 1 0
1 1 0
1 1 0
0 1 0
0 1 0
0 1 0
0 1 0
0 1 0
0.404089 1 0
0.854414 1 0
1 1 0
1 1 0
0 1 0
0 1 0
0 1 0
0 1 0
0 1 0
0.407523 1 0
0.807446 1 0
0.996841 1 0
1 1 0
0 0 0.153964
0.0336614 0 0.150927
0.183536 0 0.146914
0.494453 0 0.135225
0.840085 0 0.111238
1 0 0.0768292
1 0 0.0561685
1 0 0.0505837
1 0 0.0485237
0 0.00244144 0.132494
0.0142672 0 0.130648
0.164279 0 0.127214
0.467033 0 0.116411
0.800565 0 0.0924239
1 0 0.0596628
1 0 0.0395819
1 0 0.0361944
1 0 0.0372015
0 0.127703 0.0971084
0 0.122332 0.0962387
0.116304 0.111589 0.0937972
0.3841 0.0869154 0.0898909
0.707912 0.0180972 0.0708782
0.998047 0 0.0432441
1 0 0.0198825
1 0 0.0142061
1 0 0.015198
0 0.374914 0
0 0.366934 0
0 0.3561 0
0.308812 0.343755 0
0.734936 0.28629 0
1 0.243046 0
1 0.207309 0
1 0.203464 0
1 0.210575 0
0 0.674144 0
0 0.666819 0
0 0.657359 0
0 0.650523 0
0.553689 0.634379 0
1 0.571954 0
1 0.547707 0
1 0.544594 0
1 0.544594 0
0 0.927367 0
0 0.920745 0
0 0.912444 0
0 0.900954 0
0.191821 0.908476 0
0.803372 0.87689 0
1 0.823194 0
1 0.80853 0
1 0.803983 0
0 1 0
0 1 0
0 1 0
0 1 0
0 1 0
0.553628 1 0
0.986801 1 0
1 1 0
1 1 0
0 1 0
0 1 0
0 1 0
0 1 0
0 1 0
0.488685 1 0
0.874357 1 0
1 1 0
1 1 0
0 1 0
0 1 0
0 1 0
0 1 0
0 1 0
0.519448 1 0
0.84062 1 0
1 1 0
1 1 0
0 0 0.405539
0 0 0.400412
0.154559 0 0.394919
0.476356 0 0.385077
0.826917 0 0.370565
1 0 0.353857
1 0 0.343008
1 0 0.338003
1 0 0.333715
0 0 0.368826
0 0 0.36492
0.137423 0 0.359701
0.450568 0 0.350561
0.803311 0 0.33666
1 0 0.320165
1 0 0.308598
1 0 0.303883
1 0 0.302113
0 0.0397192 0.324315
0 0.0344854 0.321508
0.0863966 0.0235447 0.317433
0.413718 0 0.309697
0.773373 0 0.296681
1 0 0.279515
1 0 0.269734
1 0 0.270207
1 0 0.274281
0 0.348882 0.246448
0 0.340734 0.246448
0 0.329549 0.245045
0.325154 0.307256 0.240543
0.673747 0.279393 0.244358
0.973419 0.236942 0.232166
1 0.19292 0.223774
1 0.177676 0.225147
1 0.175525 0.230304
0 0.661784 0.0381933
0 0.654414 0.0431373
0 0.644862 0.045304
0 0.629953 0.0397803
0.577386 0.613123 0.00451667
0.970642 0.562951 0.0945754
1 0.542931 0.167102
1 0.539086 0.193652
1 0.544533 0.190402
0 0.919463 0
0 0.912825 0
0 0.904494 0
0 0.892485 0
0.329564 0.88426 0
0.825788 0.860945 0
1 0.816083 0
1 0.804593 0
1 0.801358 0
0 1 0
0 1 0
0 1 0
0 1 0
0.0158999 1 0
0.607584 1 0
0.994904 1 0
1 1 0
1 1 0
0 1 0
0 1 0
0 1 0
0 1 0
0 1 0
0.583612 1 0
0.893385 1 0
1 1 0
1 1 0
0 1 0
0 1 0
0 1 0
0 1 0
0 1 0
0.600488 1 0
0.873167 1 0
1 1 0
1 1 0
0 0 0.696223
0 0 0.692348
0.076524 0 0.687297
0.445106 0 0.679393
0.806592 0 0.669032
1 0 0.657771
1 0 0.65008
1 0 0.646387
1 0 0.643977
0 0 0.662089
0 0 0.658274
0.0582895 0 0.653498
0.419791 0 0.64622
0.783764 0 0.636652
1 0 0.626139
1 0 0.619165
1 0 0.616602
1 0 0.614527
0 0 0.622339
0 0 0.619394
0.0033875 0 0.615564
0.382895 0 0.609369
0.755322 0 0.600809
1 0 0.591012
1 0 0.58439
1 0 0.580941
1 0 0.578714
0 0.257343 0.565179
0 0.247349 0.563897
0 0.233234 0.561578
0.286824 0.205386 0.556725
0.700725 0.143282 0.54905
1 0.0254063 0.539178
1 0 0.531502
1 0 0.531502
1 0 0.534936
0 0.621408 0.476295
0 0.613748 0.476219
0 0.60383 0.4748
0 0.588449 0.470603
0.585214 0.561913 0.464286
0.911986 0.537606 0.478874
1 0.521508 0.471901
1 0.516197 0.473884
1 0.515541 0.478553
0 0.893614 0.351598
0 0.886915 0.352285
0 0.878523 0.351492
0 0.866453 0.347509
0.37995 0.848188 0.338079
0.839185 0.826078 0.322255
1 0.790249 0.401221
1 0.782315 0.452964
1 0.782498 0.468849
0 1 0.202548
0 1 0.201236
0 1 0.196933
0 1 0.186786
0 1 0.166674
0.663111 1 0.146563
0.996689 1 0.10341
1 0.990036 0.233845
1 0.980606 0.346807
0 1 0.0653086
0 1 0.057023
0 1 0.042359
0 1 0.0170443
0 1 0
0.643442 1 0
0.905943 1 0
1 1 0
1 1 0.0299535
0 1 0
0 1 0
0 1 0
0 1 0
0 1 0
0.611734 1 0
0.90013 1 0
1 1 0
1 1 0
0 0 0.929213
0 0 0.925933
0 0 0.921782
0.407248 0 0.915602
0.783856 0 0.907652
1 0 0.899092
1 0 0.893019
1 0 0.889906
1 0 0.887755
0 0 0.900038
0 0 0.896666
0 0 0.892561
0.381277 0 0.886656
0.761364 0 0.879149
1 0 0.871061
1 0 0.865461
1 0 0.863111
1 0 0.861631
0 0 0.865476
0 0 0.862684
0 0 0.859205
0.342733 0 0.853788
0.733242 0 0.846845
1 0 0.839155
1 0 0.833738
1 0 0.831662
1 0 0.830152
0 0.0387579 0.817365
0 0.0180667 0.815625
0 0 0.813123
0.235904 0 0.808759
0.678065 0 0.802441
1 0 0.795071
1 0 0.789639
1 0 0.78703
1 0 0.784482
0 0.559518 0.750408
0 0.551278 0.749386
0 0.540475 0.747402
0 0.523766 0.743511
0.555459 0.495888 0.737331
0.935607 0.458137 0.730114
1 0.430655 0.723583
1 0.425864 0.723156
1 0.425483 0.726329
0 0.854353 0.669291
0 0.847501 0.66862
0 0.838865 0.666987
0 0.826459 0.663447
0.341268 0.807462 0.657206
0.831312 0.779934 0.653742
1 0.762585 0.678996
1 0.76286 0.673793
1 0.763134 0.675166
0 1 0.592309
0 1 0.590616
0 1 0.587594
0 1 0.582193
0 1 0.573648
0.703471 0.990677 0.562829
0.990585 0.973495 0.559731
1 0.957107 0.626841
1 0.950149 0.672206
0 1 0.542931
0 1 0.539559
0 1 0.534585
0 1 0.526833
0 1 0.515572
0.63003 1 0.501366
0.912749 1 0.488975
1 1 0.488975
1 1 0.553124
0 1 0.504952
0 1 0.500328
0 1 0.493919
0 1 0.484581
0 1 0.471672
0.586465 1 0.455497
0.917052 1 0.446235
1 1 0.412268
1 1 0.433921
0 0 1
0 0 1
0 0 1
0.376349 0 1
0.765606 0 1
1 0 1
1 0 1
1 0 1
1 0 1
0 0 1
0 0 1
0 0 1
0.346838 0 1
0.742107 0 1
1 0 1
1 0 1
1 0 1
1 0 1
0 0 1
0 0 1
0 0 1
0.302907 0 1
0.712749 0 1
1 0 1
1 0 1
1 0 1
1 0 1
0 0 0.99971
0 0 0.998993
0 0 0.997787
0.174655 0 0.995407
0.6551 0 0.991318
0.998184 0 0.986175
1 0 0.982391
1 0 0.981216
1 0 0.980652
0 0.485573 0.954849
0 0.475883 0.954391
0 0.463066 0.953338
0 0.443351 0.951003
0.526589 0.409979 0.946914
0.918349 0.363455 0.941695
1 0.320058 0.937804
1 0.299031 0.936675
1 0.290959 0.934981
0 0.808072 0.897902
0 0.800732 0.897597
0 0.791501 0.896605
0 0.778271 0.89427
0.293126 0.757839 0.889998
0.805814 0.731365 0.884306
1 0.707668 0.879622
1 0.702846 0.878004
1 0.702052 0.880003
0 0.992874 0.844495
0 0.98996 0.843305
0 0.985992 0.841199
0 0.979721 0.8374
0 0.968093 0.831464
0.680354 0.951858 0.82388
0.975158 0.933379 0.825971
1 0.924773 0.853269
1 0.926604 0.849088
0 1 0.810376
0 1 0.807996
0 1 0.804379
0 1 0.79884
0 1 0.791058
0.602045 1 0.78146
0.922393 1 0.774838
1 1 0.776822
1 1 0.827909
0 1 0.783352
0 1 0.779919
0 1 0.775235
0 1 0.768505
0 1 0.759564
0.556313 1 0.748791
0.912856 1 0.738231
0.99266 1 0.727016
1 1 0.73962
0 0 1
0 0 1
0 0 1
0.359167 0 1
0.754696 0 1
1 0 1
1 0 1
1 0 1
1 0 1
0 0 1
0 0 1
0 0 1
0.327321 0 1
0.730632 0 1
1 0 1
1 0 1
1 0 1
1 0 1
0 0 1
0 0 1
0 0 1
0.279484 0 1
0.70045 0 1
1 0 1
1 0 1
1 0 1
1 0 1
0 0 1
0 0 1
0 0 1
0.132158 0 1
0.640772 0 1
0.988327 0 1
1 0 1
1 0 1
1 0 1
0 0.441733 1
0 0.430625 1
0 0.415885 1
0 0.393164 1
0.50724 0.354543 1
0.90663 0.299092 1
1 0.244099 1
1 0.215152 1
1 0.192584 1
0 0.779904 1
0 0.772061 1
0 0.762158 1
0 0.747951 1
0.255283 0.726177 1
0.791135 0.697932 0.999954
1 0.671458 0.997223
1 0.656992 0.996872
1 0.647715 0.996704
0 0.96846 0.969131
0 0.96527 0.968948
0 0.960891 0.968368
0 0.954055 0.96698
0 0.941695 0.963882
0.661311 0.924514 0.959411
0.962234 0.908034 0.955322
1 0.902235 0.953719
1 0.901061 0.954345
0 1 0.949767
0 1 0.948837
0 1 0.947356
0 1 0.944869
0 1 0.940673
0.578485 1 0.935058
0.918685 0.993423 0.929564
0.999817 0.986877 0.933761
1 0.983124 0.947784
0 1 0.937224
0 1 0.935775
0 1 0.93373
0 1 0.930617
0 1 0.925856
0.529183 1 0.919646
0.899718 1 0.91342
0.986816 1 0.910887
1 1 0.914748
0 0 1
0 0 1
0 0 1
0.349432 0 1
0.747585 0 1
1 0 1
1 0 1
1 0 1
1 0 1
0 0 1
0 0 1
0 0 1
0.317143 0 1
0.723705 0 1
1 0 1
1 0 1
1 0 1
1 0 1
0 0 1
0 0 1
0 0 1
0.267918 0 1
0.693355 0 1
1 0 1
1 0 1
1 0 1
1 0 1
0 0 1
0 0 1
0 0 1
0.109331 0 1
0.632624 0 1
0.982467 0 1
1 0 1
1 0 1
1 0 1
0 0.427436 1
0 0.415702 1
0 0.400168 1
0 0.376226 1
0.496376 0.33547 1
0.899687 0.276066 1
1 0.214801 1
1 0.181155 1
1 0.154025 1
0 0.77026 1
0 0.762188 1
0 0.751934 1
0 0.73727 1
0.232441 0.7149 1
0.782315 0.685847 1
1 0.658274 1
1 0.643046 1
1 0.631251 1
0 0.959564 1
0 0.956161 1
0 0.951537 1
0 0.944366 1
0 0.931624 1
0.649088 0.913954 1
0.956847 0.896819 1
1 0.888533 1
1 0.882811 1
0 1 0.997147
0 1 0.997024
0 1 0.996674
0 1 0.995819
0 1 0.993484
0.56321 0.994446 0.989822
0.912169 0.981811 0.986068
0.995575 0.976822 0.984771
1 0.97583 0.984741
0 1 0.992279
0 1 0.991943
0 1 0.991333
0 1 0.990188
0 1 0.987579
0.511376 1 0.983612
0.892256 1 0.979339
0.986358 0.996918 0.977569
1 0.995041 0.97998
