public/textures/LUTs/COUNTRY.CUBE
TITLE "Generated by Resolve"
LUT_3D_SIZE 33
0 0 0
0 0 0
0 0 0
0.0144656 0 0
0.0398413 0 0
0.0692302 0 0
0.100175 0 0
0.129534 0 0
0.164721 0 0
0.208576 0 0
0.263111 0 0
0.330358 0 0
0.411017 0 0
0.495232 0 0
0.573754 0 0
0.650645 0 0
0.725689 0 0
0.798917 0 0
0.869688 0 0
0.939803 0 0
1 0 0
1 0 0
1 0 0
1 0 0
1 0 0
1 0 0
1 0 0
1 0 0
1 0 0
1 0 0
1 0 0
1 0 0
1 0 0
0 0 0
0 0 0
0 0 0
0.0142977 0 0
0.0383001 0 0
0.0662852 0 0
0.0969406 0 0
0.125612 0 0
0.159289 0 0
0.201297 0 0
0.25359 0 0
0.318135 0 0
0.395941 0 0
0.479637 0 0
0.557687 0 0
0.634211 0 0
0.708995 0 0
0.782055 0 0
0.85275 0 0
0.922896 0 0
0.994064 0 0
1 0 0
1 0 0
1 0 0
1 0 0
1 0 0
1 0 0
1 0 0
1 0 0
1 0 0
1 0 0
1 0 0
1 0 0
0 0 0
0 0 0
0 0 0
0.0187076 0 0
0.0443732 0 0
0.0724651 0 0
0.102403 0 0
0.130312 0 0
0.163592 0 0
0.204761 0 0
0.25594 0 0
0.319158 0 0
0.395438 0 0
0.477836 0 0
0.554772 0 0
0.630472 0 0
0.704555 0 0
0.777035 0 0
0.847318 0 0
0.917159 0 0
0.988342 0 0
1 0 0
1 0 0
1 0 0
1 0 0
1 0 0
1 0 0
1 0 0
1 0 0
1 0 0
1 0 0
1 0 0
1 0 0
0 0.0129549 0
0 0.0123445 0
0 0.0128939 0
0.00515755 0.0119783 0
0.0429541 0.00758373 0
0.0758373 0.0053254 0
0.105715 0.00369268 0
0.134081 0.00204471 0
0.169451 0 0
0.213062 0 0
0.266423 0 0
0.331044 0 0
0.407599 0 0
0.487617 0 0
0.562493 0 0
0.636316 0 0
0.708812 0 0
0.779889 0 0
0.849027 0 0
0.917922 0 0
0.988296 0 0
1 0 0
1 0 0
1 0 0
1 0 0
1 0 0
1 0 0
1 0 0
1 0 0
1 0 0
1 0 0
1 0 0
1 0 0
0 0.0345922 0
0 0.0338445 0
0 0.0334783 0
0 0.0347143 0
0.0196536 0.0322271 0
0.0664683 0.0261692 0
0.103151 0.0231632 0
0.136629 0.0204929 0
0.174289 0.0176852 0
0.219318 0.0139467 0
0.275074 0.00836194 0
0.343313 4.57771e-05 0
0.423316 0 0
0.504128 0 0
0.578988 0 0
0.652125 0 0
0.723415 0 0
0.792996 0 0
0.860563 0 0
0.927855 0 0
0.996353 0 0
1 0 0
1 0 0
1 0 0
1 0 0
1 0 0
1 0 0
1 0 0
1 0 0
1 0 0
1 0 0
1 0 0
1 0 0
0 0.0595407 0
0 0.0587167 0
0 0.057969 0
0 0.0586099 0
0.000732433 0.0590982 0
0.0368963 0.0556191 0
0.090486 0.0482643 0
0.13135 0.0442206 0
0.176913 0.0399329 0
0.228138 0.0349889 0
0.28687 0.028748 0
0.356481 0.0199741 0
0.437186 0.00764477 0
0.518349 0 0
0.59411 0 0
0.668147 0 0
0.740108 0 0
0.810117 0 0
0.877562 0 0
0.944381 0 0
1 0 0
1 0 0
1 0 0
1 0 0
1 0 0
1 0 0
1 0 0
1 0 0
1 0 0
1 0 0
1 0 0
1 0 0
1 0 0
0 0.0870375 0
0 0.086183 0
0 0.0853742 0
0 0.0848707 0
0 0.0861524 0
0.0139925 0.085832 0
0.0560311 0.0815442 0
0.11548 0.0727245 0
0.169574 0.066804 0
0.228855 0.0604105 0
0.297139 0.0522164 0
0.373922 0.0416876 0
0.455436 0.0285649 0
0.534813 0.013489 0
0.609186 0 0
0.682612 0 0
0.754757 0 0
0.825116 0 0
0.893065 0 0
0.960327 0 0
1 0 0
1 0 0
1 0 0
1 0 0
1 0 0
1 0 0
1 0 0
1 0 0
1 0 0
1 0 0
1 0 0
1 0 0
1 0 0
0 0.114565 0
0 0.113649 0
0 0.11281 0
0 0.111833 0
0 0.112306 0
0 0.113725 0
0.0286412 0.113039 0
0.076173 0.108141 0
0.149081 0.0982986 0
0.219806 0.0900587 0
0.295277 0.0805371 0
0.382742 0.0676432 0
0.471809 0.0521706 0
0.554269 0.0355383 0
0.628519 0.0185245 0
0.700587 1.5259e-05 0
0.770947 0 0
0.840085 0 0
0.907362 0 0
0.974609 0 0
1 0 0
1 0 0
1 0 0
1 0 0
1 0 0
1 0 0
1 0 0
1 0 0
1 0 0
1 0 0
1 0 0
1 0 0
1 0 0
0 0.148226 0
0 0.147127 0
0 0.146105 0
0 0.144839 0
0 0.144335 0
0 0.146487 0
0.00595102 0.147845 0
0.0399481 0.146868 0
0.099443 0.140612 0
0.190951 0.128023 0
0.28246 0.116503 0
0.377249 0.10396 0
0.475135 0.0872663 0
0.565911 0.0672923 0
0.645487 0.047715 0
0.719982 0.0274968 0
0.790585 0.0065156 0
0.858564 0 0
0.9243 0 0
0.989624 0 0
1 0 0
1 0 0
1 0 0
1 0 0
1 0 0
1 0 0
1 0 0
1 0 0
1 0 0
1 0 0
1 0 0
1 0 0
1 0 0
0 0.190219 0
0 0.188907 0
0 0.187686 0
0 0.186236 0
0 0.184955 0
0 0.186328 0
0 0.189639 0
0.00610361 0.190799 0
0.0459907 0.189364 0
0.127825 0.181155 0
0.242222 0.16527 0
0.358328 0.149752 0
0.46598 0.134386 0
0.563958 0.116808 0
0.650721 0.0972 0
0.731701 0.074052 0
0.806699 0.0501869 0
0.87686 0.0262303 0
0.943084 0.00202945 0
1 0 0
1 0 0
1 0 0
1 0 0
1 0 0
1 0 0
1 0 0
1 0 0
1 0 0
1 0 0
1 0 0
1 0 0
1 0 0
1 0 0
0 0.242496 0
0 0.240955 0
0 0.239536 0
0 0.237873 0
0 0.236057 0
0 0.236255 0
0 0.239933 0
0 0.243702 0
0 0.244663 0
0.0516823 0.242374 0
0.162615 0.231754 0
0.30399 0.211994 0
0.440833 0.192508 0
0.551232 0.175555 0
0.643854 0.159045 0
0.730892 0.140368 0
0.8121 0.119326 0
0.887617 0.095552 0
0.957595 0.0685283 0
1 0.0418097 0
1 0.0165713 0
1 0 0
1 0 0
1 0 0
1 0 0
1 0 0
1 0 0
1 0 0
1 0 0
1 0 0
1 0 0
1 0 0
1 0 0
0 0.307012 0
0 0.305211 0
0 0.303563 0
0 0.301656 0
0 0.299474 0
0 0.298634 0
0 0.301228 0
0 0.306859 0
0 0.310658 0
0 0.311238 0
0.057908 0.307729 0
0.205051 0.29427 0
0.375097 0.270436 0
0.518181 0.24802 0
0.626383 0.230457 0
0.719249 0.214405 0
0.805692 0.197116 0
0.886625 0.178347 0
0.961944 0.158175 0
1 0.13695 0
1 0.115496 0
1 0.0963912 0
1 0.0809186 0
1 0.0681773 0
1 0.0593729 0
1 0.0540932 0
1 0.0507057 0
1 0.0489967 0
1 0.0487831 0
1 0.0487678 0
1 0.0483253 0
1 0.0472725 0
1 0.0477302 0
0 0.383932 0
0 0.381994 0
0 0.380194 0
0 0.378134 0
0 0.375799 0
0 0.374121 0
0 0.375235 0
0 0.380484 0
0 0.38677 0
0 0.389944 0
0 0.389914 0
0.0684825 0.384985 0
0.256336 0.369146 0
0.442649 0.342428 0
0.58265 0.318639 0
0.695003 0.299367 0
0.78941 0.283223 0
0.874998 0.267277 0
0.955001 0.250507 0
1 0.233402 0
1 0.216815 0
1 0.203082 0
1 0.19263 0
1 0.184497 0
1 0.179202 0
1 0.176089 0
1 0.17438 0
1 0.173861 0
1 0.174212 0
1 0.174578 0
1 0.174609 0
1 0.174365 0
1 0.175326 0
0 0.462516 0
0 0.460639 0
0 0.45893 0
0 0.456947 0
0 0.454765 0
0 0.452689 0
0 0.452491 0
0 0.455756 0
0 0.462257 0
0 0.467613 0
0 0.469734 0
0 0.46894 0
0.106249 0.462669 0
0.320226 0.445869 0
0.497322 0.421225 0
0.64181 0.397238 0
0.757305 0.377661 0
0.854261 0.361425 0
0.938735 0.347005 0
1 0.332341 0
1 0.318151 0
1 0.306249 0
1 0.296757 0
1 0.289433 0
1 0.284611 0
1 0.28159 0
1 0.279973 0
1 0.2795 0
1 0.279713 0
1 0.280034 0
1 0.280293 0
1 0.280613 0
1 0.281575 0
0 0.536187 0
0 0.53434 0
0 0.532647 0
0 0.530663 0
0 0.528542 0
0 0.526329 0
0 0.525261 0
0 0.526864 0
0 0.532143 0
0 0.538689 0
0 0.542748 0
0 0.543786 0
0 0.541939 0
0.179995 0.533944 0
0.381155 0.517311 0
0.556085 0.493263 0
0.701442 0.469398 0
0.817929 0.449882 0
0.915557 0.433722 0
0.998398 0.420035 0
1 0.407279 0
1 0.396246 0
1 0.387243 0
1 0.379965 0
1 0.374823 0
1 0.371237 0
1 0.369024 0
1 0.367987 0
1 0.367605 0
1 0.367498 0
1 0.367529 0
1 0.367941 0
1 0.36875 0
0 0.608423 0
0 0.606622 0
0 0.604974 0
0 0.603052 0
0 0.600992 0
0 0.59881 0
0 0.597192 0
0 0.597589 0
0 0.601175 0
0 0.607553 0
0 0.61323 0
0 0.616022 0
0 0.616037 0
0 0.613031 0
0.249378 0.604212 0
0.441184 0.587472 0
0.61294 0.564034 0
0.758129 0.540429 0
0.874968 0.520897 0
0.972854 0.504524 0
1 0.491432 0
1 0.481056 0
1 0.472389 0
1 0.465171 0
1 0.459739 0
1 0.455543 0
1 0.452583 0
1 0.450736 0
1 0.449561 0
1 0.448798 0
1 0.448341 0
1 0.448554 0
1 0.449073 0
0 0.679149 0
0 0.677394 0
0 0.675776 0
0 0.673869 0
0 0.67187 0
0 0.669734 0
0 0.66775 0
0 0.667262 0
0 0.669306 0
0 0.674586 0
0 0.68101 0
0 0.685389 0
0 0.686961 0
0 0.686015 0
0.0643473 0.682078 0
0.315038 0.672663 0
0.499596 0.655909 0
0.667994 0.633097 0
0.811627 0.609995 0
0.930373 0.590127 0
1 0.573785 0
1 0.562005 0
1 0.553597 0
1 0.546426 0
1 0.540764 0
1 0.536141 0
1 0.532601 0
1 0.529931 0
1 0.527901 0
1 0.526314 0
1 0.525139 0
1 0.524834 0
1 0.524834 0
0 0.746456 0
0 0.744686 0
0 0.743053 0
0 0.741176 0
0 0.739193 0
0 0.737072 0
0 0.73492 0
0 0.733761 0
0 0.734646 0
0 0.738445 0
0 0.744595 0
0 0.750164 0
0 0.75317 0
0 0.753613 0
0 0.751934 0
0.16965 0.747143 0
0.381353 0.737209 0
0.559915 0.720333 0
0.723476 0.698253 0
0.868101 0.675166 0
0.983902 0.655177 0
1 0.639933 0
1 0.629709 0
1 0.6224 0
1 0.616617 0
1 0.611719 0
1 0.607706 0
1 0.604501 0
1 0.601709 0
1 0.599344 0
1 0.597482 0
1 0.596399 0
1 0.595712 0
0 0.810101 0
0 0.808347 0
0 0.806729 0
0 0.804837 0
0 0.802884 0
0 0.800778 0
0 0.798566 0
0 0.796963 0
0 0.796948 0
0 0.79939 0
0 0.804654 0
0 0.810758 0
0 0.815045 0
0 0.816785 0
0 0.816312 0
0 0.814069 0
0.257298 0.808469 0
0.449363 0.797894 0
0.620951 0.781003 0
0.783413 0.758968 0
0.92726 0.735668 0
1 0.716686 0
1 0.703319 0
1 0.694011 0
1 0.687785 0
1 0.682765 0
1 0.678462 0
1 0.67483 0
1 0.671595 0
1 0.668681 0
1 0.666148 0
1 0.664347 0
1 0.662928 0
0 0.871702 0
0 0.869963 0
0 0.868345 0
0 0.866484 0
0 0.864561 0
0 0.86247 0
0 0.860304 0
0 0.858381 0
0 0.857755 0
0 0.859159 0
0 0.863218 0
0 0.869154 0
0 0.874464 0
0 0.877379 0
0 0.878019 0
0 0.876936 0
0.0756847 0.874113 0
0.336172 0.86775 0
0.514885 0.856718 0
0.684535 0.839399 0
0.848966 0.816754 0
0.979004 0.794232 0
1 0.777417 0
1 0.765225 0
1 0.756863 0
1 0.751247 0
1 0.746822 0
1 0.742916 0
1 0.739361 0
1 0.736034 0
1 0.733074 0
1 0.730648 0
1 0.728573 0
0 0.93109 0
0 0.929488 0
0 0.927993 0
0 0.926268 0
0 0.924483 0
0 0.922576 0
0 0.920577 0
0 0.918608 0
0 0.917556 0
0 0.918029 0
0 0.920745 0
0 0.925673 0
0 0.931029 0
0 0.934722 0
0 0.936248 0
0 0.93608 0
0 0.934508 0
0.201083 0.931182 0
0.408789 0.924575 0
0.581369 0.91342 0
0.753109 0.895842 0
0.908965 0.873915 0
1 0.853651 0
1 0.838315 0
1 0.827222 0
1 0.819501 0
1 0.814221 0
1 0.810208 0
1 0.806439 0
1 0.802792 0
1 0.799451 0
1 0.796597 0
1 0.794018 0
0 0.984421 0
0 0.983047 0
0 0.98175 0
0 0.980255 0
0 0.978729 0
0 0.97705 0
0 0.975296 0
0 0.973465 0
0 0.972168 0
0 0.971984 0
0 0.973465 0
0 0.97702 0
0 0.981659 0
0 0.98555 0
0 0.987533 0
0 0.988022 0
0 0.987198 0
0 0.985245 0
0.300069 0.981598 0
0.485206 0.974868 0
0.656214 0.963607 0
0.823545 0.94667 0
0.954803 0.927291 0
1 0.910109 0
1 0.896803 0
1 0.887114 0
1 0.880095 0
1 0.875227 0
1 0.871443 0
1 0.867796 0
1 0.864286 0
1 0.861204 0
1 0.858289 0
0 1 0
0 1 0
0 1 0
0 1 0
0 1 0
0 1 0
0 1 0
0 1 0
0 1 0
0 1 0
0 1 0
0 1 0
0 1 0
0 1 0
0 1 0
0 1 0
0 1 0
0 1 0
0.186145 1 0
0.398917 1 0
0.571939 1 0
0.737865 1 0
0.88513 0.989929 0
0.983886 0.974334 0
1 0.96025 0
1 0.949371 0
1 0.941085 0
1 0.934966 0
1 0.93048 0
1 0.926925 0
1 0.923552 0
1 0.920455 0
1 0.917494 0
0 1 0
0 1 0
0 1 0
0 1 0
0 1 0
0 1 0
0 1 0
0 1 0
0 1 0
0 1 0
0 1 0
0 1 0
0 1 0
0 1 0
0 1 0
0 1 0
0 1 0
0 1 0
0.0471504 1 0
0.326192 1 0
0.503853 1 0
0.665339 1 0
0.814984 1 0
0.933303 1 0
1 1 0
1 1 0
1 0.992966 0
1 0.986481 0
1 0.98146 0
1 0.977539 0
1 0.974411 0
1 0.971725 0
1 0.969039 0
0 1 0
0 1 0
0 1 0
0 1 0
0 1 0
0 1 0
0 1 0
0 1 0
0 1 0
0 1 0
0 1 0
0 1 0
0 1 0
0 1 0
0 1 0
0 1 0
0 1 0
0 1 0
0 1 0
0.260258 1 0
0.44744 1 0
0.606195 1 0
0.752621 1 0
0.880156 1 0
0.966628 1 0
1 1 0
1 1 0
1 1 0
1 1 0
1 1 0
1 1 0
1 1 0
1 1 0
0 1 0
0 1 0
0 1 0
0 1 0
0 1 0
0 1 0
0 1 0
0 1 0
0 1 0
0 1 0
0 1 0
0 1 0
0 1 0
0 1 0
0 1 0
0 1 0
0 1 0
0 1 0
0 1 0
0.197421 1 0
0.402975 1 0
0.559762 1 0
0.702525 1 0
0.829572 1 0
0.926848 1 0
0.992782 1 0
1 1 0
1 1 0
1 1 0
1 1 0
1 1 0
1 1 0
1 1 0
0 1 0
0 1 0
0 1 0
0 1 0
0 1 0
0 1 0
0 1 0
0 1 0
0 1 0
0 1 0
0 1 0
0 1 0
0 1 0
0 1 0
0 1 0
0 1 0
0 1 0
0 1 0
0 1 0
0.140932 1 0
0.369314 1 0
0.526513 1 0
0.663935 1 0
0.788876 1 0
0.890959 1 0
0.96199 1 0
1 1 0
1 1 0
1 1 0
1 1 0
1 1 0
1 1 0
1 1 0
0 1 0
0 1 0
0 1 0
0 1 0
0 1 0
0 1 0
0 1 0
0 1 0
0 1 0
