public/textures/LUTs/DANGERFIELD.CUBE
TITLE "Generated by Resolve"
LUT_3D_SIZE 33
0.0117037 0.00477607 0.00274662
0.0137942 0.00500496 0.00292973
0.0158389 0.00526436 0.00302129
0.0439765 0.0106661 0.00674449
0.0762798 0.0168002 0.0113375
0.116411 0.0250095 0.0171817
0.159823 0.033753 0.0244297
0.213855 0.0450294 0.033051
0.275166 0.0578775 0.0429999
0.33846 0.0711528 0.0535134
0.404044 0.0849165 0.0646677
0.467384 0.0982223 0.0759747
0.526268 0.110643 0.0875868
0.581613 0.122347 0.0990921
0.622812 0.131136 0.11014
0.663432 0.139849 0.121553
0.696071 0.147387 0.138125
0.72871 0.15491 0.154711
0.758267 0.166491 0.189654
0.787594 0.178347 0.22591
0.81413 0.229953 0.288457
0.839979 0.291508 0.357595
0.85745 0.365484 0.4271
0.870726 0.44567 0.496788
0.881819 0.513481 0.562249
0.89102 0.570489 0.624002
0.899031 0.620539 0.678584
0.905287 0.660151 0.722423
0.910979 0.696269 0.762768
0.915099 0.722713 0.793698
0.918837 0.747997 0.824506
0.920699 0.766293 0.847761
0.922271 0.784756 0.870039
0.0119936 0.00675975 0.00332647
0.0140688 0.00689708 0.00364691
0.016144 0.00701915 0.00396735
0.0432593 0.0122072 0.00721752
0.0746014 0.0179904 0.0114137
0.114977 0.0260777 0.0172885
0.158633 0.0350042 0.0237278
0.212955 0.0462196 0.0319524
0.274998 0.0586404 0.0426642
0.338491 0.0717021 0.0528267
0.404196 0.0852216 0.0635233
0.467643 0.0983902 0.0744945
0.526604 0.110826 0.0860456
0.58204 0.12256 0.0975052
0.623301 0.131472 0.108598
0.664027 0.140307 0.120027
0.696803 0.148028 0.136629
0.72958 0.155764 0.153216
0.75938 0.168048 0.188464
0.788968 0.180667 0.225025
0.815274 0.233783 0.288472
0.840757 0.297002 0.358618
0.858045 0.371572 0.428611
0.871244 0.451926 0.498543
0.882246 0.519585 0.564034
0.891325 0.576196 0.625666
0.89929 0.625803 0.68011
0.905547 0.665049 0.723827
0.911238 0.700786 0.764019
0.915358 0.726955 0.794781
0.919112 0.751949 0.825437
0.92108 0.770169 0.848753
0.922728 0.788525 0.871183
0.0122835 0.00875868 0.00389105
0.0142367 0.00881972 0.00418097
0.0162051 0.00892653 0.00447089
0.0426947 0.0136721 0.00791943
0.0729534 0.0191653 0.0115663
0.113527 0.0271611 0.017319
0.157778 0.0361028 0.0237736
0.212528 0.0471809 0.0318608
0.274235 0.0597238 0.0410315
0.337575 0.0727398 0.0500801
0.404334 0.0855421 0.0623789
0.467903 0.0985428 0.0730297
0.52694 0.111009 0.0845197
0.582452 0.122789 0.0959487
0.623819 0.131807 0.107042
0.664607 0.140749 0.118517
0.697536 0.148684 0.135119
0.730449 0.156619 0.15172
0.76051 0.169635 0.187259
0.790341 0.182971 0.224155
0.816419 0.237598 0.288472
0.841535 0.30248 0.35967
0.858656 0.377752 0.430167
0.871748 0.458122 0.500282
0.882658 0.525689 0.56582
0.891646 0.581857 0.627283
0.899535 0.631144 0.681636
0.905806 0.669886 0.725231
0.911498 0.705287 0.765286
0.915602 0.731151 0.795895
0.919402 0.755962 0.826398
0.921462 0.773999 0.849729
0.923186 0.792279 0.872312
0.0135195 0.0360266 0
0.0165713 0.0357824 0
0.0195926 0.0352789 0
0.0440223 0.0373693 0.00817884
0.0716716 0.0394903 0.018555
0.112825 0.0435035 0.0260624
0.156954 0.049073 0.0284276
0.211856 0.0570687 0.0343633
0.273762 0.0663767 0.0423896
0.337789 0.0771649 0.0513619
0.404059 0.0896773 0.0611276
0.467842 0.102159 0.0708476
0.528252 0.113573 0.084062
0.583886 0.124819 0.094667
0.62501 0.133135 0.104768
0.665614 0.141466 0.115297
0.698695 0.149737 0.132265
0.731792 0.158022 0.149248
0.762142 0.17203 0.185534
0.79234 0.186496 0.223194
0.818189 0.243717 0.289097
0.842969 0.311635 0.362051
0.859754 0.386999 0.433097
0.872557 0.466331 0.503212
0.883238 0.532952 0.568597
0.892073 0.58851 0.629847
0.89987 0.63711 0.683925
0.906111 0.675395 0.727337
0.911772 0.710277 0.767178
0.915908 0.735882 0.797665
0.919738 0.760342 0.82797
0.921813 0.778164 0.851133
0.923522 0.796124 0.873625
0.0148928 0.0671855 0
0.0192111 0.0665599 0
0.0235447 0.0659342 0
0.0447089 0.0648814 0.00665293
0.0684672 0.0637522 0.0223392
0.110277 0.0632944 0.03122
0.158328 0.0632334 0.0370489
0.212207 0.0677958 0.0390784
0.273442 0.0738537 0.0443732
0.337774 0.0823224 0.05243
0.404715 0.0939651 0.0620737
0.469169 0.105562 0.0717174
0.528572 0.117052 0.0813001
0.585489 0.127138 0.093431
0.626322 0.134646 0.102342
0.666667 0.142229 0.111803
0.699931 0.150851 0.129213
0.733211 0.159487 0.146624
0.763897 0.174594 0.183719
0.794415 0.190188 0.222232
0.820066 0.250187 0.289799
0.844511 0.321279 0.36463
0.86096 0.396887 0.436286
0.873396 0.474769 0.506325
0.883848 0.540383 0.571542
0.892531 0.59527 0.632517
0.900221 0.643275 0.686366
0.906416 0.680949 0.729534
0.912077 0.715328 0.769177
0.916213 0.740642 0.799527
0.920073 0.764828 0.829694
0.922133 0.782315 0.852613
0.923827 0.799969 0.874968
0.00277714 0.107378 0
0.00727855 0.106767 0
0.0119326 0.105806 0
0.0318914 0.104707 0
0.0543984 0.10312 0.007187
0.0988479 0.101213 0.023331
0.151431 0.0988174 0.0412604
0.211719 0.10013 0.0546426
0.275654 0.103853 0.06215
0.338766 0.110338 0.0644083
0.405676 0.117372 0.0694591
0.470817 0.124941 0.0766461
0.53077 0.133028 0.0848402
0.587045 0.140673 0.0931411
0.628107 0.1467 0.100954
0.668559 0.153094 0.108949
0.70338 0.158984 0.127153
0.73666 0.165667 0.141955
0.767636 0.181643 0.18024
0.79852 0.198459 0.220172
0.823423 0.261555 0.290745
0.84683 0.336233 0.368978
0.862608 0.411261 0.441733
0.874617 0.486717 0.511818
0.884749 0.55053 0.576791
0.893278 0.604242 0.637308
0.900832 0.651118 0.690654
0.90695 0.687968 0.733394
0.91252 0.721553 0.77258
0.91664 0.746273 0.802457
0.92047 0.769863 0.832105
0.92253 0.78703 0.854749
0.924208 0.804334 0.876844
0 0.150835 0
0 0.150042 0
0 0.149981 0
0.014313 0.148653 0
0.0363622 0.147967 0
0.0845197 0.145266 0.0112306
0.141848 0.14284 0.0450446
0.205829 0.142428 0.0644694
0.274067 0.144533 0.0744945
0.343694 0.1449 0.0841382
0.411124 0.14638 0.0865949
0.474495 0.149081 0.0864881
0.534005 0.153353 0.0912337
0.590494 0.157137 0.0973983
0.631983 0.161944 0.104143
0.672953 0.166445 0.11136
0.706157 0.170428 0.12224
0.74081 0.173434 0.136522
0.772168 0.190494 0.176074
0.803342 0.208316 0.217731
0.827314 0.274723 0.291798
0.849409 0.353017 0.374014
0.864469 0.427558 0.448142
0.875944 0.499855 0.518135
0.885771 0.561685 0.582879
0.894133 0.613916 0.642802
0.901549 0.659724 0.695705
0.907546 0.695476 0.737835
0.913024 0.728206 0.776516
0.917098 0.752163 0.805722
0.920913 0.775174 0.834836
0.922957 0.791897 0.857099
0.924605 0.808865 0.878935
0 0.205463 0
0 0.205127 0
0 0.204273 0
0 0.204044 0
0.0110628 0.203235 0
0.0576944 0.200931 0
0.115587 0.197543 0.0222477
0.184329 0.196826 0.0500038
0.261143 0.196643 0.0768597
0.337621 0.195682 0.0959793
0.413748 0.193271 0.106264
0.48452 0.192905 0.114565
0.543954 0.194491 0.115938
0.59884 0.196323 0.115511
0.638773 0.196918 0.117174
0.679133 0.198016 0.120821
0.711681 0.199649 0.128405
0.74461 0.201099 0.13669
0.777539 0.215442 0.177981
0.808927 0.232151 0.21828
0.831601 0.297307 0.294438
0.85211 0.37464 0.379583
0.866285 0.446082 0.454719
0.877333 0.514946 0.525017
0.886824 0.573892 0.58941
0.894972 0.624369 0.648707
0.90222 0.668467 0.700832
0.908141 0.703182 0.742367
0.913558 0.734829 0.780407
0.917617 0.758251 0.809155
0.921416 0.780591 0.837736
0.9234 0.796994 0.85977
0.924987 0.813504 0.8813
0 0.267521 0
0 0.267231 0
0 0.266926 0
0 0.266209 0
0 0.265446 0
0.022858 0.263447 0
0.0773327 0.261021 0
0.152636 0.258473 0.0194705
0.24181 0.255833 0.0745708
0.327794 0.254765 0.10959
0.410163 0.255512 0.12166
0.487373 0.254963 0.132753
0.554269 0.25182 0.141894
0.615015 0.248539 0.148119
0.654032 0.243412 0.146883
0.691173 0.239322 0.142947
0.721279 0.239719 0.145464
0.752499 0.239628 0.149722
0.782284 0.252613 0.181308
0.813428 0.265843 0.217578
0.836149 0.326162 0.298116
0.854841 0.399237 0.385489
0.868132 0.46656 0.461616
0.878721 0.530999 0.532143
0.887877 0.586847 0.596262
0.895781 0.635172 0.654749
0.902876 0.677516 0.706142
0.908751 0.710857 0.746883
0.914137 0.741436 0.784268
0.918196 0.76434 0.812619
0.921996 0.786221 0.840818
0.923873 0.802121 0.862577
0.925338 0.818204 0.883848
0 0.333898 0
0 0.333654 0
0 0.33283 0
0 0.332784 0
0 0.332082 0
0 0.330327 0
0.0330968 0.327581 0
0.109117 0.325322 0
0.208179 0.32195 0.0467842
0.304204 0.320562 0.0924392
0.397177 0.32076 0.124529
0.482597 0.320897 0.148577
0.554192 0.317784 0.158099
0.620386 0.313405 0.166751
0.664759 0.303243 0.171664
0.707607 0.29514 0.175708
0.738842 0.292439 0.17995
0.768551 0.290517 0.181033
0.792996 0.300649 0.20032
0.819944 0.311543 0.225238
0.838895 0.36463 0.299809
0.856214 0.428244 0.387594
0.869871 0.48809 0.466667
0.879911 0.547509 0.537499
0.888731 0.59971 0.601495
0.896468 0.64567 0.659556
0.903426 0.68603 0.710445
0.90927 0.718273 0.750683
0.914626 0.747845 0.78761
0.918685 0.770184 0.815641
0.922499 0.791485 0.843458
0.924315 0.807065 0.865003
0.925719 0.822766 0.886061
0 0.405173 0
0 0.40444 0
0 0.404898 0
0 0.403784 0
0 0.403815 0
0 0.401572 0
0 0.400168 0
0.052491 0.397482 0
0.158221 0.396017 0
0.265293 0.393362 0.0409552
0.372549 0.391943 0.112474
0.470512 0.389929 0.164034
0.549142 0.390326 0.175814
0.621561 0.388037 0.186114
0.669108 0.381155 0.192203
0.715663 0.373083 0.197986
0.749538 0.367315 0.204547
0.783307 0.360265 0.210788
0.811795 0.36318 0.234485
0.836896 0.366918 0.253758
0.848524 0.409751 0.316045
0.859525 0.459922 0.39292
0.870542 0.512032 0.467643
0.880903 0.564431 0.540795
0.889357 0.612482 0.604929
0.896986 0.655695 0.662898
0.903899 0.694224 0.713695
0.909697 0.725338 0.753628
0.915038 0.75404 0.790356
0.919112 0.775708 0.818112
0.922927 0.796521 0.84567
0.924758 0.811734 0.866957
0.926162 0.827207 0.887907
0 0.474174 0
0 0.474098 0
0 0.473487 0
0 0.47364 0
0 0.473213 0
0 0.471794 0
0 0.469444 0
0.00123598 0.468467 0
0.096437 0.467124 0
0.206287 0.464912 0
0.332967 0.461082 0.0916152
0.446021 0.459785 0.16199
0.535332 0.4607 0.184497
0.617227 0.460365 0.20383
0.669688 0.454337 0.210864
0.720851 0.449241 0.218021
0.755383 0.441138 0.222843
0.789899 0.433021 0.227665
0.818524 0.429358 0.247303
0.846799 0.427146 0.268223
0.861936 0.454429 0.336172
0.868894 0.491585 0.406439
0.874067 0.536049 0.471962
0.881148 0.58323 0.540703
0.889891 0.625849 0.606744
0.897383 0.666087 0.664988
0.904204 0.702205 0.715877
0.910002 0.73225 0.755764
0.915343 0.759869 0.792386
0.919448 0.780987 0.82005
0.923293 0.801205 0.847349
0.925155 0.81622 0.868452
0.926574 0.831342 0.889372
0 0.538613 0
0 0.538521 0
0 0.538445 0
0 0.538216 0
0 0.537972 0
0 0.536919 0
0 0.535546 0
0 0.534005 0
0.0109255 0.532341 0
0.108019 0.530861 0
0.260182 0.529595 0.0515297
0.397208 0.528237 0.124727
0.503975 0.526726 0.175143
0.601556 0.524849 0.217334
0.662501 0.521508 0.226658
0.721798 0.517861 0.235645
0.758114 0.509743 0.240116
0.794415 0.501625 0.244587
0.822171 0.495781 0.25948
0.849332 0.49012 0.275105
0.865721 0.505806 0.338964
0.879194 0.52694 0.414511
0.884153 0.561303 0.48159
0.884871 0.602365 0.543435
0.889662 0.640742 0.604166
0.89752 0.676829 0.664454
0.904204 0.710063 0.715984
0.910048 0.738552 0.756146
0.915434 0.76495 0.793027
0.919585 0.78558 0.820829
0.923491 0.805386 0.848066
0.925475 0.820096 0.868986
0.92697 0.834928 0.890059
0 0.599741 0
0 0.599649 0
0 0.599161 0
0 0.599466 0
0 0.599374 0
0 0.598642 0
0 0.597269 0
0 0.596201 0
0 0.594385 0
0.0236057 0.593576 0
0.190143 0.593469 0.00877394
0.34197 0.593057 0.0809491
0.465934 0.589929 0.158709
0.579309 0.587091 0.223774
0.650782 0.585031 0.238193
0.719509 0.583444 0.251759
0.758633 0.575677 0.256352
0.797757 0.56791 0.26096
0.825132 0.559411 0.271382
0.851637 0.551812 0.282399
0.868681 0.557336 0.339315
0.883345 0.566278 0.407752
0.890745 0.589319 0.479652
0.892714 0.620981 0.549905
0.892332 0.655238 0.605722
0.897093 0.688502 0.66183
0.904189 0.718166 0.71548
0.910063 0.745052 0.756054
0.91548 0.770108 0.793286
0.919692 0.790173 0.821286
0.923659 0.80943 0.848493
0.92575 0.823865 0.869276
0.927352 0.838392 0.890578
0 0.647623 0
0 0.64715 0
0 0.647471 0
0 0.646983 0
0 0.647303 0
0 0.646372 0
0 0.646097 0
0 0.644617 0
0 0.643717 0
0 0.642771 0
0.125841 0.643534 0
0.261585 0.642863 0.0115053
0.401236 0.64184 0.114031
0.531289 0.639933 0.202518
0.618952 0.638788 0.232898
0.704189 0.636454 0.261646
0.750362 0.630991 0.268498
0.796689 0.624598 0.275151
0.82536 0.616815 0.283238
0.852872 0.60795 0.291203
0.871839 0.607843 0.335836
0.888624 0.60882 0.389563
0.89575 0.624292 0.460838
0.897948 0.64596 0.541146
0.899931 0.671687 0.608881
0.899062 0.701427 0.660319
0.90338 0.728237 0.710964
0.909941 0.752331 0.75407
0.915389 0.775494 0.792081
0.919661 0.794659 0.820447
0.92369 0.81323 0.847791
0.925917 0.827253 0.868605
0.927672 0.841367 0.890455
0 0.694606 0
0 0.694545 0
0 0.694194 0
0 0.694408 0
0 0.694331 0
0 0.694011 0
0 0.693309 0
0 0.692927 0
0 0.692103 0
0 0.691814 0
0.0621042 0.691875 0
0.179324 0.692454 0
0.335378 0.692638 0.0674601
0.48127 0.692485 0.175952
0.586633 0.690669 0.224964
0.687724 0.689265 0.270527
0.7411 0.685145 0.279789
0.794446 0.681025 0.289036
0.824979 0.672358 0.294636
0.853742 0.664073 0.30013
0.874693 0.657786 0.332601
0.89366 0.652064 0.371771
0.900526 0.658839 0.442481
0.901427 0.672587 0.528527
0.903258 0.690654 0.602457
0.904448 0.713466 0.663142
0.903807 0.737804 0.708873
0.909819 0.75993 0.751812
0.915251 0.781018 0.790753
0.919615 0.799313 0.819486
0.923705 0.816983 0.847105
0.92607 0.830701 0.867903
0.928008 0.844358 0.890196
0 0.728893 0
0 0.728893 0
0 0.728893 0
0 0.728832 0
0 0.728771 0
0 0.728527 0
0 0.728222 0
0 0.727703 0
0 0.727016 0
0 0.726574 0
0 0.726436 0
0.0872206 0.72668 0
0.253346 0.727703 0
0.411307 0.728283 0.0744182
0.536614 0.727123 0.171542
0.657557 0.725856 0.263249
0.717754 0.723262 0.279301
0.777935 0.720653 0.295338
0.814527 0.713741 0.30222
0.849424 0.706523 0.308446
0.873198 0.699672 0.332631
0.894163 0.692927 0.361318
0.902846 0.695445 0.426657
0.905394 0.702586 0.510307
0.907271 0.714748 0.585672
0.908537 0.731273 0.653758
0.908949 0.749737 0.708965
0.909545 0.770474 0.746181
0.914763 0.788449 0.787457
0.919295 0.805097 0.816953
0.923552 0.821271 0.845243
0.926131 0.834394 0.866133
0.928435 0.84741 0.888808
0 0.76318 0
0 0.763241 0
0 0.763027 0
0 0.763256 0
0 0.763195 0
0 0.763043 0
0 0.762585 0
0 0.762463 0
0 0.761929 0
0 0.761349 0
0 0.760433 0
0 0.760922 0
0.171298 0.762768 0
0.341329 0.76408 0
0.487449 0.762982 0.119112
0.62739 0.762463 0.25597
0.694408 0.761364 0.278798
0.761425 0.760281 0.30164
0.804227 0.754437 0.309667
0.845121 0.748959 0.316747
0.871687 0.741558 0.332662
0.894682 0.733776 0.350866
0.905119 0.731472 0.411093
0.909361 0.732601 0.492088
0.911269 0.738842 0.568887
0.911192 0.749783 0.641825
0.912139 0.762539 0.704112
0.912581 0.779446 0.746334
0.913939 0.796063 0.783413
0.918975 0.81088 0.814404
0.9234 0.825498 0.843442
0.926177 0.838056 0.864576
0.928847 0.850462 0.887358
0 0.789441 0
0 0.789303 0
0 0.789593 0
0 0.789364 0
0 0.789548 0
0 0.789212 0
0 0.789242 0
0 0.788708 0
0 0.788495 0
0 0.787747 0
0 0.78732 0
0 0.787198 0
0.10663 0.788937 0
0.254688 0.789944 0
0.412955 0.790188 0.0846571
0.567376 0.789899 0.218982
0.652949 0.78912 0.258503
0.739223 0.7879 0.29839
0.78613 0.784695 0.310536
0.830777 0.78085 0.320897
0.861479 0.774624 0.334981
0.889021 0.767163 0.349966
0.903868 0.7635 0.399527
0.912535 0.760937 0.466484
0.916075 0.763836 0.540398
0.915053 0.770642 0.620996
0.915068 0.779904 0.689372
0.916487 0.791974 0.740322
0.915557 0.80592 0.780331
0.918791 0.819059 0.810162
0.922927 0.831647 0.840482
0.925933 0.842893 0.862165
0.928939 0.854124 0.884688
0 0.815152 0
0 0.815229 0
0 0.815076 0
0 0.81532 0
0 0.815335 0
0 0.815213 0
0 0.814817 0
0 0.814771 0
0 0.81445 0
0 0.813993 0
0 0.813153 0
0 0.813352 0
0.043183 0.814481 0
0.165469 0.815564 0
0.337804 0.81622 0.0522927
0.504417 0.817182 0.179446
0.610193 0.816144 0.236789
0.715953 0.815106 0.294118
0.767727 0.813565 0.310842
0.815412 0.812497 0.324758
0.85066 0.807065 0.337453
0.882765 0.800595 0.349828
0.902327 0.794675 0.38854
0.915663 0.789654 0.440116
0.920928 0.788891 0.511086
0.919066 0.792096 0.599115
0.918074 0.797314 0.674281
0.91841 0.805982 0.729946
0.919234 0.815167 0.77937
0.919066 0.827344 0.806546
0.922423 0.837858 0.837491
0.925673 0.847883 0.859724
0.928954 0.857816 0.882261
0 0.834058 0
0 0.835294 0
0 0.83653 0
0 0.836683 0
0 0.836683 0
0 0.836561 0
0 0.836408 0
0 0.836194 0
0 0.83595 0
0 0.835569 0
0 0.835065 0
0 0.834836 0
0 0.835142 0
0.0653697 0.835706 0
0.251759 0.837293 0.0160678
0.433967 0.838697 0.093431
0.55787 0.837613 0.187427
0.681773 0.83653 0.281422
0.741741 0.835889 0.306386
0.797147 0.835264 0.326421
0.835889 0.8318 0.340291
0.870451 0.827634 0.352636
0.89453 0.822278 0.383474
0.913375 0.816327 0.42356
0.922118 0.813733 0.488731
0.922042 0.814054 0.575845
0.921798 0.816434 0.652857
0.921309 0.821927 0.714748
0.921386 0.828199 0.769528
0.922942 0.836637 0.804761
0.922103 0.846372 0.832914
0.925521 0.854612 0.856382
0.928771 0.862959 0.879469
0 0.851286 0.0758984
0 0.853956 0.095491
0 0.856489 0.114229
0 0.856962 0.116915
0 0.856916 0.115923
0 0.856809 0.114153
0 0.856519 0.111101
0 0.856519 0.109255
0 0.856321 0.105806
0 0.856031 0.100694
0 0.855497 0.0926375
0 0.855207 0.0701305
0 0.854597 0.0144656
0 0.854551 0
0.164691 0.856626 0
0.361501 0.858824 0
0.503166 0.857694 0.131151
0.644816 0.85658 0.266514
0.714305 0.856016 0.300771
0.778134 0.855848 0.327535
0.820111 0.854612 0.343221
0.856641 0.853117 0.356161
0.885222 0.848386 0.380163
0.909728 0.842573 0.409491
0.922393 0.838499 0.468132
0.924727 0.836164 0.552239
0.925643 0.835645 0.630167
0.924453 0.838392 0.698329
0.923735 0.841901 0.758633
0.924346 0.847807 0.797116
0.924651 0.854017 0.832792
0.925231 0.861891 0.852415
0.928573 0.868421 0.876799
0 0.869184 0.181415
0 0.871214 0.196368
0 0.873533 0.212909
0 0.87364 0.213306
0 0.873716 0.212848
0 0.873503 0.210208
0 0.873549 0.208682
0 0.873274 0.204974
0 0.873213 0.202152
0 0.872862 0.196445
0 0.87274 0.190509
0 0.872206 0.169207
0 0.871687 0.122606
0 0.871458 0.0798962
0.0675822 0.873747 0.0639353
0.229587 0.875608 0.0543221
0.408713 0.87538 0.160357
0.589746 0.874891 0.265156
0.673961 0.874205 0.302449
0.752728 0.873228 0.334173
0.800458 0.872801 0.352148
0.841138 0.87219 0.366522
0.872679 0.8692 0.386084
0.900084 0.864637 0.40798
0.917021 0.860609 0.455863
0.925139 0.856474 0.526421
0.929305 0.85449 0.599344
0.927672 0.854902 0.676661
0.926497 0.856443 0.744305
0.926421 0.860059 0.787015
0.926589 0.864088 0.827176
0.927565 0.86949 0.851545
0.928267 0.875288 0.873976
0 0.887419 0.289052
0 0.888106 0.293492
0 0.88867 0.297246
0 0.888853 0.297688
0 0.888792 0.296605
0 0.888747 0.294881
0 0.888579 0.29221
0 0.888563 0.290379
0 0.88838 0.287449
0 0.888197 0.283635
0 0.887922 0.27808
0 0.887846 0.268971
0 0.887602 0.249622
0 0.887739 0.229908
0 0.889326 0.208133
0.0654307 0.891096 0.193057
0.294377 0.891875 0.232242
0.523293 0.892668 0.271412
0.627985 0.890944 0.30779
0.723217 0.889342 0.343709
0.778851 0.888701 0.36408
0.824414 0.888334 0.38056
0.858732 0.886778 0.396689
0.887221 0.884993 0.412879
0.908827 0.881407 0.447761
0.9243 0.876326 0.499046
0.932784 0.872709 0.565011
0.930968 0.871763 0.651789
0.929473 0.871397 0.728252
0.928893 0.873121 0.775433
0.928466 0.875013 0.819944
0.928985 0.878584 0.847059
0.928023 0.882811 0.87129
0 0.901686 0.367376
0 0.902022 0.368246
0 0.902342 0.369131
0 0.902342 0.368292
0 0.902281 0.367208
0 0.902235 0.365621
0 0.90222 0.363851
0 0.902113 0.361624
0 0.901976 0.359075
0 0.901854 0.355947
0 0.901778 0.352193
0 0.901732 0.347524
0 0.901778 0.341115
0 0.902174 0.331914
0 0.904021 0.311528
0.0354009 0.905806 0.292714
0.257633 0.906874 0.296071
0.47982 0.907942 0.299413
0.591287 0.905867 0.330282
0.694865 0.903563 0.363104
0.755886 0.902693 0.383246
0.806256 0.90219 0.400214
0.843412 0.901534 0.414374
0.87396 0.900816 0.427115
0.898772 0.898146 0.452049
0.918547 0.893751 0.487617
0.930846 0.890135 0.543526
0.931899 0.887648 0.629892
0.932418 0.885863 0.707485
0.931426 0.886046 0.760891
0.930556 0.886442 0.811124
0.930449 0.88838 0.840787
0.930343 0.890303 0.870466
0 0.912474 0.420066
0 0.91342 0.423972
0 0.91426 0.42742
0 0.914412 0.427436
0 0.914351 0.426307
0 0.914321 0.424811
0 0.914199 0.422675
0 0.91426 0.421103
0 0.914199 0.418753
0 0.914153 0.415915
0 0.914031 0.412024
0 0.914183 0.408072
0 0.914397 0.401526
0 0.915084 0.392889
0 0.917449 0.375372
0.12108 0.919936 0.359533
0.288792 0.920546 0.35288
0.456474 0.921157 0.346197
0.563989 0.918685 0.36733
0.667002 0.916228 0.391058
0.731716 0.915022 0.408743
0.78677 0.914153 0.424918
0.827314 0.913314 0.437858
0.860243 0.912749 0.449668
0.887083 0.911315 0.467155
0.908537 0.909194 0.489845
0.924117 0.90634 0.534051
0.9308 0.902815 0.610239
0.935332 0.899886 0.682582
0.933989 0.898909 0.743694
0.932754 0.898039 0.801114
0.932326 0.898665 0.833616
0.931899 0.899199 0.866133
0 0.923079 0.471397
0 0.924239 0.475975
0 0.925566 0.481331
0 0.925689 0.480964
0 0.925826 0.480613
0 0.925765 0.479072
0 0.925887 0.478157
0 0.925811 0.476112
0 0.925902 0.474662
0 0.925811 0.472007
0 0.925917 0.469795
0 0.925902 0.465766
0 0.926223 0.460899
0 0.926787 0.453681
0.08925 0.929122 0.44239
0.218494 0.931182 0.429984
0.339574 0.931289 0.421607
0.459327 0.931304 0.411765
0.556909 0.92903 0.426642
0.651957 0.926467 0.441688
0.715602 0.925261 0.456062
0.771145 0.924254 0.468467
0.812512 0.923705 0.479179
0.846967 0.923171 0.487205
0.875074 0.922698 0.497704
0.897993 0.921996 0.508446
0.916182 0.920226 0.53901
0.927718 0.916503 0.597559
0.935958 0.91339 0.658518
0.935515 0.911284 0.725841
0.935027 0.90956 0.788724
0.934249 0.908812 0.825147
0.933501 0.908248 0.861387
0 0.93341 0.520684
0 0.934493 0.523735
0 0.935485 0.52639
0.00733959 0.936034 0.527413
0.038407 0.936416 0.527657
0.056199 0.936614 0.527306
0.0675212 0.936645 0.526329
0.0809491 0.936782 0.525887
0.0921187 0.936797 0.524895
