public/textures/LUTs/DANGERFIELD.CUBE
TITLE "Generated by Resolve"
LUT_3D_SIZE 5
0.0117037 0.00477607 0.00274662
0.275166 0.0578775 0.0429999
0.696071 0.147387 0.138125
0.881819 0.513481 0.562249
0.922271 0.784756 0.870039
0 0.267521 0
0.24181 0.255833 0.0745708
0.721279 0.239719 0.145464
0.887877 0.586847 0.596262
0.925338 0.818204 0.883848
0 0.728893 0
0 0.727016 0
0.717754 0.723262 0.279301
0.907271 0.714748 0.585672
0.928435 0.84741 0.888808
0 0.901686 0.367376
0 0.901976 0.359075
0.257633 0.906874 0.296071
0.898772 0.898146 0.452049
0.930343 0.890303 0.870466
0.604623 0.951476 0.767086
0.644816 0.950805 0.771557
0.693111 0.950011 0.77734
0.830671 0.947402 0.796231
0.941161 0.950576 0.832731
0 0 0.22768
0.275441 0.0135805 0.228199
0.700343 0.135668 0.246815
0.885817 0.50518 0.607538
0.921721 0.785046 0.897322
0 0.23212 0.200748
0.196582 0.210468 0.208957
0.722072 0.180102 0.210437
0.891981 0.577829 0.637278
0.924834 0.819745 0.911177
0 0.726452 0
0 0.726375 0
0.715953 0.721309 0.281041
0.906294 0.714717 0.630716
0.927932 0.849973 0.917525
0 0.903548 0.419318
0 0.903883 0.413108
0.199145 0.9084 0.342855
0.897566 0.899382 0.485115
0.931289 0.891783 0.895399
0.587549 0.953567 0.799527
0.6327 0.952956 0.804685
0.683024 0.952193 0.808743
0.827283 0.949554 0.826871
0.940688 0.951553 0.863432
0 0 0.684733
0.184817 0 0.687343
0.674891 0.0333257 0.680186
0.875776 0.380545 0.744869
0.919966 0.77116 0.912184
0 0 0.699687
0.0712596 0 0.698604
0.678431 0.0521401 0.688731
0.885542 0.463111 0.762264
0.923308 0.806821 0.921447
0 0.708263 0.721126
0 0.706767 0.721218
0.646296 0.683009 0.73547
0.905913 0.687617 0.756497
0.926528 0.840238 0.927199
0 0.9093 0.624475
0 0.90988 0.619348
0.0604562 0.916793 0.577783
0.890639 0.901427 0.647837
0.932143 0.890043 0.914427
0.561395 0.955993 0.837903
0.610224 0.955459 0.842252
0.670649 0.954757 0.849928
0.821027 0.952621 0.867048
0.939864 0.952453 0.899519
0 0 0.887724
0 0 0.890105
0.677058 0 0.883894
0.811246 0.074052 0.889982
0.913725 0.719265 0.93817
0 0 0.89366
0 0 0.893538
0.676158 0 0.890837
0.817243 0.09897 0.899748
0.917739 0.760296 0.943313
0 0.518578 1
0 0.495674 1
0.473777 0.400107 0.975265
0.871641 0.431632 0.94638
0.921324 0.798199 0.949279
0 0.904616 0.965576
0 0.90483 0.965682
0 0.907561 0.967163
0.870344 0.889677 0.964828
0.930282 0.88539 0.953338
0.485588 0.960449 0.939559
0.546975 0.959945 0.94052
0.623346 0.959197 0.942382
0.806561 0.957351 0.947463
0.934874 0.955139 0.951217
0 0 0.917128
0 0 0.917998
0.535378 0 0.922957
0.798306 0.0358892 0.928222
0.840406 0.139223 0.946105
0 0 0.920424
0 0 0.920241
0.465415 0 0.928512
0.802579 0.0592508 0.934188
0.848035 0.182208 0.948684
0 0.121675 0.980636
0 0.098558 0.970672
0.177722 0 0.936385
0.806653 0.11339 0.942946
0.879622 0.412253 0.962371
0 0.877531 1
0 0.876936 1
0 0.855619 1
0.850294 0.851575 1
0.925719 0.854765 0.989227
0 0.958022 1
0.280491 0.962905 1
0.483726 0.962081 1
0.785779 0.958144 1
0.935134 0.954604 1
