public/textures/LUTs/DANGERFIELD.CUBE
TITLE "Generated by Resolve"
LUT_3D_SIZE 9
0.0117037 0.00477607 0.00274662
0.0762798 0.0168002 0.0113375
0.275166 0.0578775 0.0429999
0.526268 0.110643 0.0875868
0.696071 0.147387 0.138125
0.81413 0.229953 0.288457
0.881819 0.513481 0.562249
0.910979 0.696269 0.762768
0.922271 0.784756 0.870039
0.0148928 0.0671855 0
0.0684672 0.0637522 0.0223392
0.273442 0.0738537 0.0443732
0.528572 0.117052 0.0813001
0.699931 0.150851 0.129213
0.820066 0.250187 0.289799
0.883848 0.540383 0.571542
0.912077 0.715328 0.769177
0.923827 0.799969 0.874968
0 0.267521 0
0 0.265446 0
0.24181 0.255833 0.0745708
0.554269 0.25182 0.141894
0.721279 0.239719 0.145464
0.836149 0.326162 0.298116
0.887877 0.586847 0.596262
0.914137 0.741436 0.784268
0.925338 0.818204 0.883848
0 0.538613 0
0 0.537972 0
0.0109255 0.532341 0
0.503975 0.526726 0.175143
0.758114 0.509743 0.240116
0.865721 0.505806 0.338964
0.889662 0.640742 0.604166
0.915434 0.76495 0.793027
0.92697 0.834928 0.890059
0 0.728893 0
0 0.728771 0
0 0.727016 0
0.253346 0.727703 0
0.717754 0.723262 0.279301
0.873198 0.699672 0.332631
0.907271 0.714748 0.585672
0.914763 0.788449 0.787457
0.928435 0.84741 0.888808
0 0.834058 0
0 0.836683 0
0 0.83595 0
0 0.835142 0
0.55787 0.837613 0.187427
0.835889 0.8318 0.340291
0.922118 0.813733 0.488731
0.921386 0.828199 0.769528
0.928771 0.862959 0.879469
0 0.901686 0.367376
0 0.902281 0.367208
0 0.901976 0.359075
0 0.901778 0.341115
0.257633 0.906874 0.296071
0.755886 0.902693 0.383246
0.898772 0.898146 0.452049
0.932418 0.885863 0.707485
0.930343 0.890303 0.870466
0 0.942168 0.572747
0.206668 0.944884 0.577722
0.279255 0.945296 0.577478
0.35108 0.945037 0.57702
0.495384 0.942855 0.587228
0.710384 0.938415 0.60914
0.851377 0.93846 0.60676
0.928969 0.936797 0.632212
0.936858 0.926574 0.85005
0.604623 0.951476 0.767086
0.626078 0.951095 0.769924
0.644816 0.950805 0.771557
0.664286 0.950393 0.77322
0.693111 0.950011 0.77734
0.74844 0.948974 0.784543
0.830671 0.947402 0.796231
0.900801 0.948455 0.810651
0.941161 0.950576 0.832731
0.0102388 0 0.0538491
0.0767987 0.00759899 0.0553445
0.275639 0.0566262 0.0631723
0.526833 0.110002 0.10135
0.696818 0.146273 0.154788
0.815473 0.228 0.309377
0.883726 0.511528 0.582437
0.912428 0.695399 0.781064
0.92195 0.785138 0.88423
0 0.0579843 0.0452125
0.058854 0.0529641 0.0491188
0.272953 0.0601968 0.0513008
0.528283 0.111513 0.0934462
0.700404 0.149645 0.147539
0.820798 0.246128 0.309712
0.885542 0.537026 0.589883
0.913573 0.713619 0.785443
0.923461 0.799939 0.888426
0 0.263325 0
0 0.262074 0
0.23946 0.251957 0.0745861
0.553613 0.244602 0.141176
0.719524 0.229603 0.144366
0.836896 0.321523 0.318303
0.889769 0.584512 0.614923
0.915862 0.741268 0.801007
0.925109 0.819806 0.898665
0 0.53727 0
0 0.537194 0
0.00665293 0.53167 0
0.503059 0.525734 0.176684
0.758373 0.506767 0.240726
0.866865 0.502052 0.350851
0.89221 0.640406 0.626154
0.917418 0.765423 0.810132
0.926711 0.836454 0.905196
0 0.72874 0
0 0.729091 0
0 0.727138 0
0.246448 0.727703 0
0.717525 0.723156 0.279911
0.873487 0.699001 0.33846
0.906798 0.715312 0.60592
0.91696 0.788647 0.804288
0.9281 0.848768 0.904753
0 0.836851 0.00918593
0 0.837156 0.00891127
0 0.836378 0.00471504
0 0.834867 0
0.552895 0.837919 0.187945
0.835813 0.832013 0.342794
0.921553 0.81416 0.507103
0.921279 0.829023 0.786664
0.929885 0.863508 0.896147
0 0.902892 0.394095
0 0.903044 0.390707
0 0.902922 0.38378
0 0.902617 0.365255
0.229801 0.90753 0.316548
0.753704 0.903426 0.392432
0.898299 0.898711 0.465797
0.931685 0.886427 0.727916
0.929625 0.891524 0.881453
0 0.942809 0.596002
0.0692302 0.944076 0.598474
0.248966 0.946212 0.60061
0.333501 0.946044 0.600107
0.484962 0.944106 0.60856
0.708141 0.939284 0.631373
0.850431 0.938994 0.629648
0.928222 0.93724 0.653819
0.936629 0.927199 0.864424
0.597238 0.952667 0.783902
0.618219 0.952239 0.785306
0.63888 0.951949 0.787472
0.658793 0.951568 0.788815
0.68809 0.95108 0.792172
0.745464 0.950195 0.80058
0.829389 0.948333 0.811276
0.900511 0.948959 0.825544
0.940993 0.95111 0.847471
0 0 0.22768
0.053254 0 0.227527
0.275441 0.0135805 0.228199
0.53283 0.0916915 0.2271
0.700343 0.135668 0.246815
0.817182 0.217029 0.36112
0.885817 0.50518 0.607538
0.913176 0.693889 0.801358
0.921721 0.785046 0.897322
0 0 0.228168
0.0272984 0 0.22768
0.270558 0.0176089 0.226001
0.533394 0.0934005 0.222339
0.703593 0.138918 0.242313
0.822141 0.233356 0.362402
0.8878 0.531304 0.615198
0.914733 0.712108 0.80502
0.92314 0.799832 0.901625
0 0.23212 0.200748
0 0.231006 0.200534
0.196582 0.210468 0.208957
0.54757 0.182803 0.189487
0.722072 0.180102 0.210437
0.838071 0.302556 0.369329
0.891981 0.577829 0.637278
0.917021 0.738811 0.818708
0.924834 0.819745 0.911177
0 0.526833 0.00521859
0 0.526909 0.00361639
0 0.522683 0
0.495781 0.514076 0.180392
0.759487 0.486931 0.249119
0.867002 0.489952 0.38407
0.894575 0.637186 0.65008
0.91902 0.764782 0.828565
0.926574 0.837568 0.917449
0 0.726452 0
0 0.726848 0
0 0.726375 0
0.209384 0.725933 0
0.715953 0.721309 0.281041
0.873991 0.696345 0.353582
0.906294 0.714717 0.630716
0.91899 0.788342 0.821363
0.927932 0.849973 0.917525
0 0.836622 0.0425422
0 0.836942 0.0424659
0 0.836759 0.0375982
0 0.835279 0.0152743
0.539055 0.838743 0.189837
0.835462 0.832349 0.349386
0.920714 0.814557 0.53167
0.920974 0.829664 0.802884
0.929625 0.864393 0.912123
0 0.903548 0.419318
0 0.903655 0.416968
0 0.903883 0.413108
0 0.903944 0.398993
0.199145 0.9084 0.342855
0.750423 0.90454 0.409689
0.897566 0.899382 0.485115
0.931121 0.887221 0.748531
0.931289 0.891783 0.895399
0 0.943755 0.617838
0 0.943908 0.619516
0.0902571 0.945006 0.618921
0.312459 0.947295 0.625788
0.472282 0.945495 0.632593
0.705074 0.940291 0.656184
0.8495 0.93962 0.656641
0.927291 0.937819 0.678828
0.93637 0.927825 0.878767
0.587549 0.953567 0.799527
0.61033 0.953262 0.801801
0.6327 0.952956 0.804685
0.653498 0.952636 0.80592
0.683024 0.952193 0.808743
0.741344 0.9514 0.816876
0.827283 0.949554 0.826871
0.90016 0.949584 0.841794
0.940688 0.951553 0.863432
0 0 0.472587
0 0 0.47335
0.25835 0 0.468315
0.521279 0.0252842 0.471305
0.699519 0.0697337 0.474266
0.81593 0.163455 0.493614
0.886839 0.469856 0.650416
0.912032 0.685313 0.818555
0.921141 0.781476 0.907271
0 0 0.474495
0 0 0.474678
0.248814 0 0.469871
0.521828 0.0338598 0.472831
0.70193 0.0732128 0.47422
0.820829 0.179538 0.495094
0.889662 0.500191 0.655528
0.913954 0.703731 0.822461
0.922576 0.796201 0.910903
0 0.111192 0.518151
0 0.106081 0.515892
0.149172 0.0462196 0.500038
0.520226 0.0726482 0.477928
0.713497 0.0972152 0.470054
0.836454 0.233494 0.498253
0.894377 0.552087 0.672816
0.91635 0.73106 0.834989
0.924315 0.816205 0.917769
0 0.492073 0.455848
0 0.491402 0.45594
0 0.482322 0.452247
0.389731 0.458915 0.463142
0.752285 0.407431 0.433417
0.858213 0.445258 0.494362
0.897704 0.61825 0.683177
0.918593 0.757076 0.843687
0.92604 0.834684 0.922896
0 0.725887 0.326345
0 0.726207 0.324865
0 0.72575 0.316915
0.0441596 0.726009 0.268269
0.701823 0.715053 0.365576
0.87393 0.686488 0.442741
0.902586 0.710796 0.664897
0.920302 0.783658 0.835874
0.927443 0.84828 0.923842
0 0.839246 0.302052
0 0.839368 0.300221
0 0.839673 0.294102
0 0.838727 0.270756
0.460273 0.842496 0.278691
0.832792 0.833219 0.392691
0.918807 0.814725 0.574487
0.918914 0.829435 0.811078
0.929259 0.86334 0.920378
0 0.90486 0.474434
0 0.905028 0.472343
0 0.905318 0.468986
0 0.90547 0.459464
0.153964 0.91107 0.40415
0.74435 0.90634 0.448875
0.896117 0.900236 0.523537
0.930556 0.8878 0.767025
0.932113 0.891554 0.906035
0 0.944823 0.645014
0 0.944808 0.646067
0 0.945235 0.648951
0.270512 0.948363 0.656153
0.4551 0.94725 0.662959
0.700267 0.941909 0.686824
0.848142 0.940444 0.690532
0.926436 0.938628 0.710369
0.936217 0.928389 0.890379
0.576165 0.954696 0.815946
0.599649 0.95433 0.818143
0.623163 0.954025 0.821012
0.647623 0.953811 0.824201
0.678004 0.95346 0.826993
0.737255 0.952682 0.83476
0.824765 0.950805 0.844083
0.89984 0.950088 0.858717
0.9402 0.951858 0.879911
0 0 0.684733
0 0 0.685847
0.184817 0 0.687343
0.508461 0 0.675898
0.674891 0.0333257 0.680186
0.790722 0.0798657 0.676127
0.875776 0.380545 0.744869
0.909041 0.660807 0.838605
0.919966 0.77116 0.912184
0 0 0.687236
0 0 0.687739
0.170535 0 0.689906
0.507286 0 0.679072
0.677211 0.04271 0.683711
0.794675 0.0905928 0.680491
0.878691 0.405203 0.749142
0.910857 0.680156 0.842527
0.921462 0.786267 0.915236
0 0 0.699687
0 0 0.697719
0.0712596 0 0.698604
0.481605 0 0.683436
0.678431 0.0521401 0.688731
0.80592 0.126116 0.694118
0.885542 0.463111 0.762264
0.913542 0.70956 0.853132
0.923308 0.806821 0.921447
0 0.363485 0.800641
0 0.35967 0.802075
0 0.336843 0.805997
0.31751 0.279225 0.762371
0.712917 0.259236 0.744961
0.842298 0.303365 0.729839
0.896086 0.552956 0.773663
0.916152 0.737514 0.86128
0.92491 0.825696 0.926192
0 0.708263 0.721126
0 0.708278 0.721691
0 0.706767 0.721218
0 0.702571 0.726101
0.646296 0.683009 0.73547
0.861158 0.656184 0.707424
0.905913 0.687617 0.756497
0.919432 0.768612 0.858701
0.926528 0.840238 0.927199
0 0.844923 0.632258
0 0.845197 0.631983
0 0.845426 0.629389
0 0.844724 0.622003
0.235798 0.849317 0.588388
0.819074 0.832242 0.625772
0.912596 0.813855 0.706798
0.920974 0.824277 0.833829
0.928573 0.858534 0.924392
0 0.9093 0.624475
0 0.90956 0.622797
0 0.90988 0.619348
0 0.910475 0.612207
0.0604562 0.916793 0.577783
0.725887 0.910445 0.595438
0.890639 0.901427 0.647837
0.929595 0.88835 0.800473
0.932143 0.890043 0.914427
0 0.947311 0.699535
0 0.947311 0.699977
0 0.947097 0.700816
0.0487984 0.948135 0.704601
0.413611 0.95021 0.715343
0.687739 0.945006 0.737423
0.845426 0.941772 0.747005
0.92459 0.939345 0.764309
0.936034 0.929152 0.900435
0.561395 0.955993 0.837903
0.585641 0.955596 0.839734
0.610224 0.955459 0.842252
0.636423 0.955108 0.845319
0.670649 0.954757 0.849928
0.731945 0.954284 0.857847
0.821027 0.952621 0.867048
0.899123 0.951003 0.880003
0.939864 0.952453 0.899519
0 0 0.815702
0 0 0.816602
0.0369879 0 0.819348
0.49482 0 0.808606
0.667399 0.00868238 0.810788
0.762936 0.0480812 0.810086
0.845304 0.204395 0.829572
0.902403 0.603052 0.88481
0.917754 0.752483 0.92079
0 0 0.817777
0 0 0.818387
0.0247196 0 0.821317
0.491997 0 0.811643
0.669657 0.0231785 0.814954
0.765454 0.0569467 0.813642
0.849561 0.228595 0.835981
0.904662 0.625284 0.887724
0.919295 0.768185 0.92311
0 0 0.824109
0 0 0.823987
0 0 0.824079
0.44799 0 0.816236
0.665049 0.0230259 0.818402
0.7691 0.0656138 0.820249
0.858244 0.279149 0.850858
0.907973 0.660578 0.895201
0.921355 0.790066 0.928237
0 0.157473 0.888594
0 0.144381 0.883589
0 0.117021 0.872877
0.25919 0.0478828 0.862028
0.657298 0.0788891 0.846006
0.785061 0.128908 0.846372
0.873396 0.384268 0.872419
0.911101 0.694209 0.90219
0.92314 0.809659 0.93225
0 0.642954 0.916609
0 0.641932 0.917464
0 0.635111 0.918669
0 0.613153 0.934905
0.580362 0.582284 0.943236
0.837263 0.556374 0.912566
0.899107 0.615 0.89163
0.915053 0.736095 0.90515
0.924651 0.824979 0.933455
0 0.834241 0.891539
0 0.834485 0.892287
0 0.834394 0.892775
0 0.833082 0.892515
0.0192874 0.835157 0.906294
0.795087 0.816281 0.897658
0.906966 0.802258 0.883619
0.922606 0.812451 0.902159
0.927199 0.849424 0.933013
0 0.912581 0.835309
0 0.91284 0.834897
0 0.913085 0.833906
0 0.913649 0.832029
0 0.918044 0.822705
0.665354 0.916182 0.828916
0.880171 0.900038 0.847791
0.927077 0.888365 0.879637
0.93164 0.888228 0.928115
0 0.951507 0.812314
0 0.951949 0.811719
0 0.952041 0.811399
0 0.951446 0.81146
0.172091 0.953292 0.818189
0.648707 0.951019 0.832624
0.834195 0.945129 0.843442
0.921523 0.93962 0.857557
0.935866 0.929519 0.920928
0.534569 0.957946 0.878782
0.560342 0.957641 0.880247
0.587198 0.957443 0.881926
0.615305 0.957168 0.884306
0.653178 0.956893 0.888197
0.720455 0.956405 0.896452
0.814404 0.955322 0.906676
0.894347 0.953399 0.911543
0.939116 0.953231 0.92401
0 0 0.887724
0 0 0.88838
0 0 0.890105
0.412436 0 0.884932
0.677058 0 0.883894
0.760662 0.0349126 0.889555
0.811246 0.074052 0.889982
0.883146 0.446479 0.927337
0.913725 0.719265 0.93817
0 0 0.88954
0 0 0.889998
0 0 0.891722
0.404913 0 0.887358
0.678874 0 0.886976
0.763134 0.0470893 0.892973
0.81323 0.0832685 0.893248
0.886961 0.476005 0.929595
0.915465 0.73608 0.939788
0 0 0.89366
0 0 0.893462
0 0 0.893538
0.357702 0 0.890227
0.676158 0 0.890837
0.764355 0.0574044 0.897047
0.817243 0.09897 0.899748
0.89247 0.525383 0.934386
0.917739 0.760296 0.943313
0 0 0.909377
0 0 0.9093
0 0 0.906935
0.132708 0 0.899825
0.62768 0 0.889311
0.755581 0.0675364 0.899123
0.824872 0.132952 0.910582
0.89778 0.576333 0.939559
0.919722 0.78143 0.946868
0 0.518578 1
0 0.515389 1
0 0.495674 1
0 0.429038 1
0.473777 0.400107 0.975265
0.790341 0.373846 0.950957
0.871641 0.431632 0.94638
0.906294 0.660304 0.945754
0.921324 0.798199 0.949279
0 0.799893 0.988983
0 0.799756 0.989013
0 0.798505 0.989181
0 0.793866 0.989319
0 0.787091 1
0.773678 0.777096 0.984802
0.895018 0.769574 0.961227
0.918303 0.78497 0.951064
0.924559 0.830839 0.951431
0 0.904616 0.965576
0 0.904662 0.965576
0 0.90483 0.965682
0 0.904967 0.965774
0 0.907561 0.967163
0.601709 0.906783 0.981048
0.870344 0.889677 0.964828
0.927062 0.883223 0.95079
0.930282 0.88539 0.953338
0 0.950698 0.936492
0 0.951095 0.936339
0 0.952071 0.936568
0 0.953384 0.936339
0 0.953719 0.936919
0.571313 0.954559 0.947204
0.808591 0.94789 0.945083
0.913344 0.938766 0.943679
0.935088 0.929442 0.951476
0.485588 0.960449 0.939559
0.516136 0.960098 0.939986
0.546975 0.959945 0.94052
0.579202 0.959609 0.941176
0.623346 0.959197 0.942382
0.701244 0.958602 0.94432
0.806561 0.957351 0.947463
0.887984 0.955978 0.94934
0.934874 0.955139 0.951217
0 0 0.908675
0 0 0.909194
0 0 0.909773
0.13164 0 0.909895
0.70602 0 0.908736
0.780346 0.034699 0.917967
0.803784 0.038941 0.921233
0.826947 0.104891 0.931746
0.906172 0.648737 0.959121
0 0 0.910521
0 0 0.91017
0 0 0.910933
0.119661 0 0.911681
0.708354 0 0.911788
0.782788 0.0468757 0.920897
0.805829 0.0512551 0.924315
0.828565 0.112093 0.933654
0.90808 0.668803 0.960632
0 0 0.912139
0 0 0.912093
0 0 0.911482
0.0515755 0 0.913741
0.708003 0.00521859 0.914321
0.786343 0.0580453 0.924102
0.807721 0.0612192 0.927077
0.83183 0.126894 0.937285
0.910857 0.69926 0.963577
0 0 0.914626
0 0 0.914702
0 0 0.914305
0 0 0.914351
0.659388 0 0.912123
0.773556 0.0613413 0.923949
0.807996 0.0679789 0.929519
0.840925 0.166171 0.944488
0.913222 0.72488 0.96672
0 0.344213 1
0 0.340154 1
0 0.324331 1
0 0.264408 1
0.317327 0.135454 0.953582
0.743923 0.190784 0.941985
0.826352 0.217243 0.947951
0.87361 0.386252 0.958938
0.915389 0.747082 0.969512
0 0.777005 1
0 0.776577 1
0 0.773449 1
0 0.757534 1
0 0.722698 1
0.74696 0.720607 0.997848
0.871992 0.715251 0.979965
0.911391 0.731533 0.977996
0.920226 0.798047 0.973022
0 0.882216 1
0 0.882307 1
0 0.882109 1
0 0.881178 1
0 0.879942 1
0.583078 0.873228 1
0.860914 0.871916 1
0.922667 0.869673 0.984131
0.928023 0.873289 0.977066
0 0.944213 0.987747
0 0.944595 0.987961
0 0.944228 0.987945
0 0.945464 0.988556
0 0.94844 0.991028
0.490867 0.950591 1
0.801785 0.939651 1
0.912551 0.932006 0.991653
0.934035 0.928923 0.98323
0.404456 0.962051 0.982925
0.445212 0.961898 0.983413
0.484749 0.961654 0.983581
0.525216 0.961288 0.983993
0.580682 0.960754 0.984436
0.676417 0.959915 0.984421
0.796551 0.95848 0.984405
0.890562 0.955581 0.989441
0.936553 0.954131 0.987259
0 0 0.917128
0 0 0.917617
0 0 0.917998
0 0 0.918624
0.535378 0 0.922957
0.786618 0.0352026 0.926833
0.798306 0.0358892 0.928222
0.81088 0.0401617 0.93051
0.840406 0.139223 0.946105
0 0 0.918914
0 0 0.918563
0 0 0.919127
0 0 0.9196
0.521981 0 0.925566
0.788724 0.0473945 0.929747
0.800458 0.0480964 0.931121
0.812985 0.052842 0.933562
0.843275 0.154726 0.947066
0 0 0.920424
0 0 0.920577
0 0 0.920241
0 0 0.920684
0.465415 0 0.928512
0.790753 0.0585184 0.932876
0.802579 0.0592508 0.934188
0.815396 0.0647746 0.936629
0.848035 0.182208 0.948684
0 0 0.922347
0 0 0.922499
0 0 0.922423
0 0 0.922042
0.337591 0 0.928161
0.792935 0.0703288 0.936049
0.804715 0.071107 0.937331
0.81883 0.0833448 0.940368
0.856565 0.234958 0.951827
0 0.121675 0.980636
0 0.116274 0.978164
0 0.098558 0.970672
0 0.062974 0.958938
0.177722 0 0.936385
0.75259 0.0949569 0.940261
0.806653 0.11339 0.942946
0.833494 0.168063 0.947646
0.879622 0.412253 0.962371
0 0.790143 1
0 0.789639 1
0 0.786801 1
0 0.771557 1
0 0.662654 1
0.677241 0.580499 0.990066
0.842954 0.567025 0.972061
0.891447 0.622248 0.974609
0.911299 0.709255 0.979919
0 0.877531 1
0 0.877638 1
0 0.876936 1
0 0.871962 1
0 0.855619 1
0.194095 0.845335 1
0.850294 0.851575 1
0.910307 0.851209 0.990677
0.925719 0.854765 0.989227
0 0.92723 1
0 0.927352 1
0 0.927382 1
0 0.927337 1
0 0.926711 1
0.181262 0.924117 1
0.81976 0.916732 1
0.907851 0.923568 1
0.933059 0.923201 0.998016
0 0.958022 1
0 0.958648 1
0.280491 0.962905 1
0.379995 0.962676 1
0.483726 0.962081 1
0.631876 0.960769 1
0.785779 0.958144 1
0.894408 0.953292 1
0.935134 0.954604 1
