public/textures/LUTs/DONT_BREATH.cube
TITLE "Generated by Resolve"
LUT_3D_SIZE 33
0.0120089 0.0478218 0.0615702
0.0120089 0.0478218 0.0615702
0.014725 0.0478676 0.0616312
0.0348363 0.0482948 0.0617533
0.0575113 0.0490578 0.0609293
0.0841077 0.0501411 0.059968
0.113848 0.0518349 0.0590219
0.150759 0.0531319 0.0574807
0.196689 0.0530404 0.0550393
0.251881 0.0499886 0.0518654
0.320974 0.0349889 0.0439155
0.398306 0.0160525 0.0312352
0.479744 0.000640879 0.0148623
0.549401 1.5259e-05 0.00451667
0.608164 0 0.000274662
0.656703 0 0
0.692897 0 0
0.721294 0 0
0.744228 0 0
0.761761 0 0
0.774563 0 0
0.784085 0 0
0.789639 0 0
0.793484 0 0
0.796078 0 0
0.797467 0 0
0.798276 0 0
0.798749 0 0
0.798856 0 0
0.798947 0 0
0.798917 0 0
0.798825 0 0
0.798749 0 0
0.0125887 0.0531167 0.0604715
0.0125887 0.0531167 0.0604562
0.0146639 0.0532082 0.0604715
0.031281 0.0538491 0.0602884
0.0533303 0.0546883 0.0593729
0.0795453 0.0558175 0.0583963
0.109041 0.0574044 0.0574044
0.145953 0.0590066 0.0558938
0.191287 0.0595865 0.0536812
0.246098 0.0573129 0.0507057
0.314763 0.0454566 0.0429847
0.392126 0.0245212 0.0302434
0.47361 0.00108339 0.0144503
0.544305 0.00030518 0.0040589
0.603738 0 0.000335698
0.653376 0 0
0.691188 0 0
0.720226 0 0
0.743893 0 0
0.762387 0 0
0.775341 0 0
0.78497 0 0
0.79089 0 0
0.794751 0 0
0.797482 0 0
0.798993 0 0
0.799954 0 0
0.800488 0 0
0.80061 0 0
0.800748 0 0
0.800702 0 0
0.80058 0 0
0.800473 0 0
0.0108644 0.06009 0.0593576
0.0108644 0.06009 0.0593576
0.012604 0.0601511 0.0593271
0.0276036 0.0609293 0.0590219
0.05066 0.0618296 0.0582895
0.0785382 0.0629892 0.0574502
0.109392 0.0644999 0.0565652
0.148119 0.066453 0.0551156
0.193408 0.0674144 0.053193
0.250263 0.0647288 0.0495766
0.318502 0.0556039 0.0425574
0.396841 0.0342565 0.0285801
0.477974 0.0123445 0.0132448
0.548669 0.00173953 0.00303655
0.60676 3.0518e-05 0.000595102
0.655604 0 0
0.694575 0 0
0.723705 0 0
0.747173 0 0
0.765972 0 0
0.778424 0 0
0.787396 0 0
0.793622 0 0
0.797253 0 0
0.800153 0 0
0.801465 0 0
0.802487 0 0
0.802884 0 0
0.802976 0 0
0.803067 0 0
0.802899 0 0
0.802701 0 0
0.802563 0 0
0.0087129 0.0685588 0.0580148
0.0087129 0.0685588 0.0580148
0.0100099 0.0686656 0.0579995
0.0230411 0.0693523 0.0578164
0.0461891 0.0702373 0.0572366
0.074342 0.0714275 0.0564279
0.106447 0.0727245 0.0554818
0.147662 0.0749828 0.0540322
0.196414 0.0762036 0.0520027
0.25713 0.0738079 0.0480201
0.327962 0.0661479 0.0408331
0.409705 0.0426947 0.0246738
0.490593 0.0177157 0.0107729
0.560006 0.00173953 0.00230411
0.617243 0.000366217 0.000503548
0.663218 0 0
0.701701 0 0
0.73135 0 0
0.753109 0 0
0.770581 0 0
0.78323 0 0
0.791424 0 0
0.797864 0 0
0.80145 0 0
0.80441 0 0
0.805859 0 0
0.807126 0 0
0.807416 0 0
0.807645 0 0
0.807797 0 0
0.807584 0 0
0.807416 0 0
0.807294 0 0
0.0059968 0.0787213 0.0567788
0.0059968 0.0787213 0.0567788
0.00677501 0.0788586 0.0567636
0.0177768 0.0796368 0.0565957
0.0413519 0.0806134 0.0562295
0.069337 0.0819104 0.0557412
0.10161 0.0834211 0.0551003
0.142992 0.0856031 0.0538033
0.192477 0.0875715 0.0516518
0.254704 0.086656 0.0474708
0.329732 0.0792401 0.038529
0.415885 0.0618143 0.020676
0.50045 0.0316167 0.00741588
0.57026 0.0111086 0.00146487
0.629297 0.000244144 0
0.675059 4.57771e-05 0
0.711559 1.5259e-05 0
0.740658 0 0
0.761685 0 0
0.777203 0 0
0.789517 0 0
0.797498 0 0
0.803342 0 0
0.807279 0 0
0.809888 0 0
0.811551 0 0
0.812634 0 0
0.812863 0 0
0.813138 0 0
0.813092 0 0
0.812924 0 0
0.812772 0 0
0.81265 0 0
0.00248722 0.0903792 0.055436
0.00248722 0.0903792 0.055436
0.0030518 0.0904097 0.0554513
0.0128634 0.0912795 0.0554665
0.0358282 0.0923476 0.0554818
0.063508 0.0936446 0.0552071
0.0958419 0.095552 0.0546578
0.137652 0.0978866 0.0535439
0.187182 0.100664 0.0511788
0.249027 0.101595 0.0471199
0.325231 0.0968185 0.0372931
0.412787 0.0850996 0.0192874
0.500923 0.0513313 0.00523384
0.573373 0.0234684 0.000839246
0.635004 0.00584421 0
0.684565 0.000976577 0
0.720378 0.000228885 0
0.748409 0 0
0.770367 0 0
0.785397 0 0
0.796887 0 0
0.805493 0 0
0.810636 0 0
0.814923 0 0
0.817029 0 0
0.818814 0 0
0.819516 0 0
0.819867 0 0
0.820233 0 0
0.820096 0 0
0.82005 0 0
0.820035 0 0
0.819959 0 0
0.0009308 0.105531 0.0547189
0.0009308 0.105531 0.0547189
0.00166323 0.105608 0.0547494
0.0109712 0.106188 0.0549477
0.0304417 0.107332 0.0549325
0.0572519 0.109041 0.054612
0.0903639 0.111269 0.0539559
0.13164 0.113832 0.0526894
0.181827 0.116899 0.0500496
0.24361 0.118898 0.0455787
0.319799 0.116945 0.0355535
0.407599 0.107759 0.0195926
0.498421 0.0832837 0.00334173
0.573205 0.0484474 0.000442512
0.636881 0.0197604 0
0.689113 0.00302129 0
0.726909 0.00123598 0
0.755123 0.000534066 0
0.777493 0.000350958 0
0.794202 0.000213626 0
0.805158 0.00015259 0
0.813764 9.15541e-05 0
0.819135 6.10361e-05 0
0.823194 0 0
0.825315 0 0
0.82707 0 0
0.827604 0 0
0.828153 0 0
0.828382 0 0
0.828489 0 0
0.82855 0 0
0.828733 0 0
0.828687 0 0
0 0.123156 0.0544289
0 0.123156 0.0544289
0.000701915 0.123232 0.0544442
0.00773632 0.123873 0.0545663
0.0226749 0.125139 0.0545205
0.0495613 0.126879 0.0541085
0.0841077 0.12929 0.0534066
0.125017 0.13257 0.052018
0.176242 0.135943 0.0489357
0.237888 0.13933 0.0438697
0.314519 0.139879 0.0336156
0.403021 0.134447 0.0181277
0.496193 0.118364 0.00131228
0.574121 0.0872816 0.000259403
0.63949 0.0607156 0
0.693721 0.0410163 0
0.735286 0.0302586 0
0.765072 0.0204929 0
0.78851 0.0137789 0
0.806607 0.00991836 0
0.81799 0.00701915 0
0.82649 0.0041352 0
0.83209 0.00146487 0
0.835416 0.000610361 0
0.837385 0.000579843 0
0.838621 0.000549325 0
0.839155 0.000503548 0
0.839628 0.000396735 0
0.839506 0.000381476 0
0.839506 0.000366217 0
0.839475 0.000350958 0
0.839414 0.000335698 0
0.839216 0.000320439 0
0 0.144808 0.0543832
0 0.144808 0.0543679
0.000244144 0.144747 0.0543832
0.00231937 0.145144 0.0543832
0.0121614 0.146014 0.0542
0.0404212 0.147158 0.0538338
0.0763104 0.150149 0.0530404
0.117845 0.153933 0.0514992
0.169528 0.158389 0.047776
0.231342 0.163104 0.0416266
0.3093 0.165927 0.0303655
0.399603 0.164736 0.0146029
0.494148 0.155261 0.000671397
0.575921 0.135302 0.000122072
0.643229 0.113237 0
0.700053 0.0931258 0
0.745418 0.0755322 0
0.777111 0.0603647 0
0.801984 0.0514229 0
0.8206 0.0455024 0
0.833097 0.0413214 0
0.841413 0.0369116 0
0.847623 0.033463 0
0.850736 0.031632 0
0.853223 0.0299687 0
0.854292 0.028275 0
0.854963 0.0266423 0
0.855528 0.025452 0
0.855436 0.0242161 0
0.855436 0.0231937 0
0.85568 0.0225986 0
0.855406 0.021561 0
0.855192 0.0208286 0
0 0.171206 0.0542611
0 0.171206 0.0542611
7.62951e-05 0.171313 0.0542458
0.000686656 0.171908 0.0540932
0.00534066 0.173083 0.0536812
0.0167697 0.174777 0.0530404
0.0518807 0.177371 0.0521859
0.102495 0.181048 0.0505074
0.160113 0.186496 0.0459602
0.225101 0.192737 0.0375219
0.305653 0.197986 0.0216983
0.39765 0.199878 0.00730907
0.493126 0.196246 7.62951e-05
0.577996 0.186999 1.5259e-05
0.649042 0.174182 0
0.708125 0.158846 0
0.755856 0.14316 0
0.792477 0.13022 0
0.818372 0.121065 0
0.837552 0.113756 0
0.850828 0.107256 0
0.859068 0.10042 0
0.865797 0.0948806 0
0.869215 0.0888075 0
0.872129 0.082948 0
0.87335 0.0791791 0
0.874159 0.0749218 0
0.874754 0.0725872 0
0.8748 0.0704509 0
0.874937 0.068864 0
0.874907 0.0673381 0
0.874601 0.066331 0
0.874464 0.0658885 0
0 0.202808 0.053315
0 0.202686 0.053315
0 0.202777 0.0532998
0 0.203677 0.0531777
0.00106813 0.205127 0.0527199
0.00363165 0.207233 0.0519112
0.0296483 0.210956 0.0501869
0.0745403 0.215991 0.0472114
0.14374 0.222751 0.0412451
0.217746 0.229938 0.0308843
0.301625 0.237156 0.0135195
0.396521 0.242283 0.00309758
0.493904 0.242832 0
0.581292 0.23888 0
0.655528 0.230426 0
0.717647 0.219211 0
0.768704 0.207507 0
0.808484 0.197482 0
0.835752 0.189578 0
0.855863 0.182589 0
0.87042 0.176684 0
0.879164 0.171481 0
0.886305 0.166842 0
0.890257 0.162356 0
0.893523 0.158328 0
0.894987 0.155047 0
0.896406 0.152361 0
0.896742 0.148943 0
0.896986 0.146212 0
0.897124 0.143511 0
0.8972 0.141894 0
0.896757 0.139727 0
0.896666 0.138766 0
0 0.239796 0.0504463
0 0.239796 0.0504463
0 0.240116 0.0504005
0 0.241077 0.0501564
0 0.243107 0.0494698
0.000244144 0.246265 0.048249
0.00979629 0.250843 0.0452277
0.0485084 0.257008 0.0405127
0.12311 0.264591 0.0323033
0.206149 0.273564 0.0198825
0.29662 0.283223 0.00553903
0.395621 0.29099 0.000854505
0.495445 0.295308 0
0.584375 0.295201 0
0.663279 0.290684 0
0.728618 0.282124 0
0.783078 0.273945 0
0.826215 0.265751 0
0.855665 0.258366 0
0.877012 0.252461 0
0.892897 0.246784 0
0.902953 0.242298 0
0.910582 0.237766 0
0.915328 0.233921 0
0.918685 0.229953 0
0.92047 0.226551 0
0.921874 0.223102 0
0.922179 0.220417 0
0.922271 0.217777 0
0.922332 0.215503 0
0.922148 0.213947 0
0.921813 0.212482 0
0.92163 0.211505 0
0 0.283268 0.0428626
0 0.283268 0.0428626
0 0.283558 0.0427558
0 0.284504 0.0422827
0 0.28629 0.0412451
0 0.289052 0.0394141
0.00112917 0.293996 0.0357977
0.031281 0.301106 0.0291295
0.0971847 0.310307 0.0187381
0.190692 0.321523 0.00720226
0.290608 0.333272 0.000610361
0.393256 0.344396 1.5259e-05
0.496147 0.351278 0
0.588342 0.35407 0
0.67187 0.352529 0
0.741176 0.348013 0
0.798337 0.34139 0
0.843717 0.334752 0
0.877134 0.328542 0
0.899977 0.323095 0
0.917601 0.317937 0
0.928862 0.313756 0
0.936919 0.309285 0
0.942473 0.305409 0
0.946197 0.302052 0
0.948058 0.298222 0
0.949584 0.294896 0
0.949874 0.292073 0
0.950134 0.28954 0
0.950484 0.287587 0
0.95024 0.285893 0
0.950011 0.284367 0
0.94995 0.283421 0
0 0.329198 0.0295262
0 0.329198 0.0295262
0 0.329152 0.0294041
0 0.33048 0.0282597
0 0.332403 0.0260471
0 0.335149 0.0226444
0.00062562 0.34023 0.0175937
0.0168917 0.348348 0.010193
0.0695201 0.359335 0.00361639
0.170199 0.373083 0.000793469
0.280949 0.387366 3.0518e-05
0.388739 0.401434 0
0.49604 0.411948 0
0.591836 0.417868 0
0.679042 0.418875 0
0.75407 0.416632 0
0.813977 0.411612 0
0.861738 0.405692 0
0.899168 0.40061 0
0.923766 0.395544 0
0.943114 0.390585 0
0.955901 0.386694 0
0.964569 0.382803 0
0.970886 0.378851 0
0.974029 0.374762 0
0.975845 0.371099 0
0.977203 0.368093 0
0.977691 0.365469 0
0.978164 0.36318 0
0.978469 0.361059 0
0.978653 0.359503 0
0.978805 0.358053 0
0.979049 0.357137 0
0 0.374655 0.0129702
0 0.374655 0.0129702
0 0.374578 0.0128939
0 0.375723 0.0118257
0 0.377783 0.0102846
0 0.381125 0.00828565
0.000213626 0.386069 0.00584421
0.00762951 0.394232 0.00267033
0.0476692 0.406653 0.000564584
0.142748 0.423239 7.62951e-05
0.264454 0.441184 0
0.379553 0.458534 0
0.491447 0.472541 0
0.591592 0.481804 0
0.684092 0.486397 0
0.763958 0.486915 0
0.828 0.484092 0
0.879561 0.480034 0
0.919264 0.475624 0
0.947021 0.470298 0
0.968124 0.465736 0
0.982712 0.461891 0
0.990814 0.457465 0
0.996719 0.453468 0
0.998383 0.449928 0
0.999161 0.44625 0
0.999557 0.443336 0
0.999573 0.440787 0
0.999588 0.438575 0
0.999588 0.436347 0
0.999588 0.43473 0
0.999603 0.433417 0
0.999603 0.43241 0
0 0.417777 0.00143435
0 0.417777 0.00143435
0 0.4177 0.00146487
0 0.41883 0.00134279
0 0.420874 0.00128176
0 0.424353 0.00108339
0 0.42948 0.000717174
0.00321965 0.438178 0.000244144
0.029099 0.451438 1.5259e-05
0.114168 0.469993 0
0.241825 0.491478 0
0.369909 0.512001 0
0.485145 0.529305 0
0.588785 0.542184 0
0.685374 0.550744 0
0.770886 0.554635 0
0.838514 0.553735 0
0.892912 0.550393 0
0.935851 0.546456 0
0.966949 0.542672 0
0.985412 0.538567 0
0.996826 0.534859 0
0.998596 0.53109 0
0.999664 0.527474 0
0.999847 0.523827 0
0.999969 0.520302 0
1 0.517388 0
1 0.515419 0
1 0.513542 0
1 0.511711 0
1 0.509865 0
1 0.508415 0
1 0.507744 0
0 0.456855 1.5259e-05
0 0.456855 1.5259e-05
0 0.457191 1.5259e-05
0 0.458442 1.5259e-05
0 0.460273 1.5259e-05
0 0.464088 1.5259e-05
0 0.469398 0
0.00172427 0.478904 0
0.0126802 0.491859 0
0.0857252 0.511223 0
0.215152 0.535348 0
0.355077 0.559319 0
0.475883 0.580331 0
0.582742 0.596216 0
0.68217 0.607523 0
0.771862 0.614298 0
0.844907 0.616556 0
0.902403 0.614954 0
0.948135 0.612604 0
0.982635 0.60972 0
0.994568 0.60679 0
0.999954 0.603738 0
0.999985 0.599512 0
1 0.596139 0
1 0.593225 0
1 0.590585 0
1 0.587869 0
1 0.585962 0
1 0.584268 0
1 0.582177 0
1 0.58088 0
1 0.579675 0
1 0.579126 0
0 0.490852 0
0 0.490852 0
0 0.491234 0
0 0.492744 0
0 0.494835 0
0 0.49897 0
0 0.504448 0
0.000122072 0.513008 0
0.00434882 0.525734 0
0.0614633 0.545754 0
0.188067 0.571771 0
0.335683 0.598932 0
0.465003 0.62417 0
0.574609 0.642649 0
0.675547 0.656519 0
0.767971 0.666178 0
0.846571 0.671427 0
0.906859 0.672114 0
0.95555 0.671183 0
0.992889 0.669505 0
0.997528 0.667155 0
1 0.664317 0
1 0.661051 0
1 0.657847 0
1 0.655161 0
1 0.652979 0
1 0.650721 0
1 0.648676 0
1 0.646906 0
1 0.645319 0
1 0.644129 0
1 0.642924 0
1 0.642618 0
0 0.518349 0
0 0.518349 0
0 0.518746 0
0 0.52047 0
0 0.522622 0
0 0.526864 0
0 0.532647 0
1.5259e-05 0.5411 0
0.00619516 0.553704 0
0.0495155 0.574182 0
0.171771 0.60177 0
0.318624 0.630777 0
0.45214 0.658259 0
0.56405 0.679652 0
0.666651 0.696132 0
0.76112 0.708278 0
0.842893 0.715679 0
0.906783 0.718441 0
0.957076 0.719081 0
0.992889 0.718471 0
0.997543 0.716152 0
1 0.714076 0
1 0.711635 0
1 0.709041 0
1 0.706859 0
1 0.704601 0
1 0.702541 0
1 0.70074 0
1 0.699107 0
1 0.697841 0
1 0.69659 0
1 0.69575 0
1 0.694484 0
0 0.540764 0
0 0.540764 0
0 0.541054 0
0 0.542901 0
0 0.545037 0
0 0.549187 0
0 0.555093 0
0 0.563531 0
0.00582895 0.57644 0
0.0336919 0.595239 0
0.14963 0.623667 0
0.298589 0.654353 0
0.440925 0.683436 0
0.553323 0.706828 0
0.656519 0.724743 0
0.751797 0.738216 0
0.835828 0.747112 0
0.902968 0.751537 0
0.953582 0.753658 0
0.988235 0.753979 0
0.996658 0.753674 0
1 0.752087 0
1 0.750454 0
1 0.748577 0
1 0.746685 0
1 0.745159 0
1 0.743481 0
1 0.742061 0
1 0.740581 0
1 0.739513 0
1 0.738628 0
1 0.737835 0
1 0.736996 0
0 0.558953 0
0 0.558953 0
0 0.559243 0
0 0.561135 0
0 0.563531 0
0 0.567605 0
0 0.573709 0
0 0.582162 0
0.00363165 0.59472 0
0.0232853 0.612436 0
0.124498 0.64062 0
0.27924 0.672465 0
0.42797 0.702968 0
0.541878 0.727611 0
0.646021 0.746487 0
0.741695 0.760922 0
0.827604 0.771282 0
0.897963 0.777737 0
0.949142 0.780392 0
0.983078 0.781781 0
0.996399 0.782116 0
1 0.781613 0
1 0.780682 0
1 0.779416 0
1 0.778225 0
1 0.777035 0
1 0.775631 0
1 0.774441 0
1 0.773342 0
1 0.772427 0
1 0.771496 0
1 0.771084 0
1 0.770275 0
0 0.572992 0
0 0.572992 0
0 0.573343 0
0 0.575387 0
0 0.577951 0
0 0.58204 0
0 0.588266 0
0 0.596643 0
0.0015259 0.60882 0
0.0171817 0.625986 0
0.0946059 0.652262 0
0.258824 0.685573 0
0.41294 0.716838 0
0.530022 0.742306 0
0.635554 0.763088 0
0.732341 0.77879 0
0.819577 0.790982 0
0.89305 0.79942 0
0.944518 0.802716 0
0.978821 0.804807 0
0.997314 0.805615 0
1 0.80592 0
1 0.805905 0
1 0.805264 0
1 0.804562 0
1 0.80351 0
1 0.802243 0
1 0.801343 0
1 0.800046 0
1 0.799313 0
1 0.798657 0
1 0.797894 0
1 0.797467 0
0 0.584527 0
0 0.584527 0
0 0.584833 0
0 0.586633 0
0 0.589242 0
0 0.593103 0
0 0.599115 0
0 0.607187 0
0.00047303 0.619058 0
0.0153353 0.636255 0
0.0747845 0.6607 0
0.241856 0.694438 0
0.396628 0.726238 0
0.519356 0.752514 0
0.625986 0.774273 0
0.723415 0.790875 0
0.81088 0.803738 0
0.88423 0.812787 0
0.93817 0.817533 0
0.974792 0.820447 0
0.99939 0.822126 0
1 0.822858 0
1 0.823346 0
1 0.82298 0
1 0.822629 0
1 0.82179 0
1 0.821103 0
1 0.820432 0
1 0.819715 0
1 0.819135 0
1 0.818708 0
1 0.818082 0
1 0.817823 0
0 0.59321 0
0 0.59321 0
0 0.593484 0
0 0.595148 0
0 0.597772 0
0 0.601556 0
0 0.607416 0
0 0.615549 0
7.62951e-05 0.627466 0
0.0132906 0.644877 0
0.0622416 0.668132 0
0.226291 0.702098 0
0.383078 0.734813 0
0.510246 0.761852 0
0.617456 0.784283 0
0.715465 0.801862 0
0.803021 0.81529 0
0.877043 0.824765 0
0.932937 0.830686 0
0.97203 0.834089 0
0.999603 0.836347 0
0.999817 0.837217 0
1 0.837842 0
1 0.837613 0
1 0.83743 0
1 0.836835 0
1 0.836255 0
1 0.83566 0
1 0.835081 0
1 0.834607 0
1 0.834012 0
1 0.833753 0
1 0.833371 0
0 0.599771 0
0 0.599771 0
0 0.600031 0
0 0.601572 0
0 0.604166 0
0 0.607828 0
0 0.613779 0
0 0.621881 0
0 0.633616 0
0.0141756 0.651194 0
0.0680705 0.6748 0
0.217105 0.707683 0
0.373281 0.740215 0
0.500999 0.767529 0
0.609674 0.790814 0
0.708782 0.809232 0
0.796048 0.823026 0
0.869825 0.833021 0
0.928389 0.839597 0
0.970031 0.843412 0
0.998337 0.846281 0
0.999374 0.847654 0
1 0.848341 0
1 0.848417 0
1 0.848402 0
1 0.84802 0
1 0.847623 0
1 0.847242 0
1 0.846784 0
1 0.846296 0
1 0.84596 0
1 0.845594 0
1 0.845411 0
0 0.604547 0
0 0.604547 0
0 0.604852 0
0 0.606592 0
0 0.609354 0
0 0.613214 0
0 0.61912 0
0 0.627298 0
0 0.639002 0
0.0150149 0.656657 0
0.0723278 0.680797 0
0.206378 0.712535 0
0.366552 0.74548 0
0.49398 0.773083 0
0.603769 0.796963 0
0.703487 0.816129 0
0.790509 0.83035 0
0.864408 0.840833 0
0.924697 0.848066 0
0.969131 0.852125 0
0.996933 0.855253 0
0.998947 0.856733 0
1 0.857572 0
1 0.857801 0
1 0.857893 0
1 0.857694 0
1 0.857404 0
1 0.856992 0
1 0.856596 0
1 0.856184 0
1 0.855817 0
1 0.855589 0
1 0.85536 0
0 0.608713 0
0 0.608713 0
0 0.609033 0
0 0.610834 0
0 0.613657 3.0518e-05
0 0.617624 0
0 0.623438 0
0 0.631693 0
0 0.643229 0
0.0151522 0.660792 0
0.0732738 0.684825 0
0.19559 0.715572 0
0.361242 0.748837 0
0.488334 0.776486 0
0.59794 0.800366 0
0.698344 0.819944 0
0.785657 0.834363 0
0.859342 0.844984 0
0.920119 0.852491 0
0.965301 0.857069 0
0.991745 0.860502 0
0.997726 0.862501 0
1 0.86363 0
1 0.864195 0
1 0.864485 0
1 0.864424 0
1 0.864424 0
1 0.864225 0
1 0.863783 0
1 0.863523 0
1 0.863386 0
1 0.86305 0
1 0.862821 0
0 0.61178 0
0 0.61178 0
0 0.612116 0
0 0.613977 6.10361e-05
0 0.616907 9.15541e-05
0 0.620981 1.5259e-05
0 0.626795 0
0 0.635142 0
0 0.64651 0
