public/textures/LUTs/DONT_BREATH.cube
TITLE "Generated by Resolve"
LUT_3D_SIZE 5
0.0120089 0.0478218 0.0615702
0.196689 0.0530404 0.0550393
0.692897 0 0
0.796078 0 0
0.798749 0 0
0 0.144808 0.0543832
0.169528 0.158389 0.047776
0.745418 0.0755322 0
0.853223 0.0299687 0
0.855192 0.0208286 0
0 0.456855 1.5259e-05
0.0126802 0.491859 0
0.844907 0.616556 0
1 0.593225 0
1 0.579126 0
0 0.599771 0
0 0.633616 0
0.796048 0.823026 0
1 0.848402 0
1 0.845411 0
0 0.621698 0.000137331
0.00163272 0.656535 0
0.775296 0.849485 0
1 0.885893 0
1 0.886946 0
0 0.0590677 0.158602
0.18143 0.0587472 0.195941
0.707225 0 0.149584
0.796506 0 0.126848
0.798489 0 0.114641
0 0.156329 0.14139
0.116915 0.16611 0.161135
0.717891 0.10695 0.100206
0.854475 0.0443275 0.0651255
0.861509 0.0278325 0.0522774
0 0.466682 0.0953689
0.000442512 0.49604 0.0948348
0.821073 0.625193 0.00267033
1 0.603021 0.000808728
1 0.589334 0
0 0.60705 0.0760357
0 0.639826 0.0601968
0.770016 0.829541 0
1 0.857221 0
1 0.854917 0.00180056
0 0.628946 0.0817121
9.15541e-05 0.661952 0.0677195
0.748104 0.855177 0.00158694
1 0.895232 0.0015259
1 0.896406 0.00106813
0 0.0735332 0.399176
0 0.0591135 0.503624
0.690623 0 0.52372
0.790753 0 0.509606
0.793759 0 0.500404
0 0.182559 0.41207
0 0.198672 0.443931
0.716365 0.11873 0.522286
0.849363 0.0637675 0.503578
0.853773 0.0462806 0.494041
0 0.512016 0.38819
0 0.537118 0.43975
0.750225 0.674418 0.506813
0.999115 0.657084 0.48426
1 0.648432 0.463111
0 0.647944 0.378225
0 0.681315 0.417411
0.673152 0.87599 0.440482
0.999908 0.911574 0.437095
1 0.90866 0.434638
0 0.668666 0.371405
0 0.70132 0.403647
0.651362 0.899809 0.425589
0.99942 0.948699 0.422736
1 0.950805 0.428275
0 0.0800641 0.596292
0 0.0801099 0.629114
0.581537 0 0.702388
0.798306 0 0.691569
0.801968 0 0.688151
0 0.188495 0.649989
0 0.228641 0.646204
0.472633 0.226184 0.757458
0.849867 0.0847639 0.732937
0.856214 0.0705272 0.725277
0 0.551461 0.67277
0 0.564065 0.703166
0.443565 0.707835 0.805707
0.970871 0.653239 0.825895
0.998932 0.65481 0.822461
0 0.684855 0.648249
0 0.709987 0.684565
0.512657 0.901274 0.795087
0.971023 0.944289 0.829511
1 0.956939 0.840513
0 0.704021 0.635904
0 0.731365 0.673304
0.504143 0.928512 0.781628
0.964355 0.996139 0.823636
1 0.997971 0.831235
0 0.0898909 0.634928
0 0.0898146 0.647105
0.337224 0.0312963 0.711376
0.801755 0 0.713054
0.806378 0 0.711498
0 0.198016 0.67808
0 0.243549 0.686763
0.294987 0.255238 0.769787
0.850019 0.0949569 0.76733
0.858915 0.0801251 0.759915
0 0.554711 0.735454
0 0.559853 0.774151
0.236561 0.695872 0.843015
0.943999 0.697948 0.89929
0.994583 0.656855 0.88333
0 0.692821 0.731975
0 0.71313 0.756634
0.439948 0.89659 0.866972
0.936309 0.964721 0.921111
1 0.960616 0.932815
0 0.711192 0.718883
0 0.734646 0.746029
0.412177 0.920333 0.852018
0.948409 0.999664 0.92018
0.999954 1 0.928771
