public/textures/LUTs/DONT_BREATH.cube
TITLE "Generated by Resolve"
LUT_3D_SIZE 9
0.0120089 0.0478218 0.0615702
0.0575113 0.0490578 0.0609293
0.196689 0.0530404 0.0550393
0.479744 0.000640879 0.0148623
0.692897 0 0
0.774563 0 0
0.796078 0 0
0.798856 0 0
0.798749 0 0
0.0059968 0.0787213 0.0567788
0.0413519 0.0806134 0.0562295
0.192477 0.0875715 0.0516518
0.50045 0.0316167 0.00741588
0.711559 1.5259e-05 0
0.789517 0 0
0.809888 0 0
0.813138 0 0
0.81265 0 0
0 0.144808 0.0543832
0.0121614 0.146014 0.0542
0.169528 0.158389 0.047776
0.494148 0.155261 0.000671397
0.745418 0.0755322 0
0.833097 0.0413214 0
0.853223 0.0299687 0
0.855436 0.0242161 0
0.855192 0.0208286 0
0 0.283268 0.0428626
0 0.28629 0.0412451
0.0971847 0.310307 0.0187381
0.496147 0.351278 0
0.798337 0.34139 0
0.917601 0.317937 0
0.946197 0.302052 0
0.950134 0.28954 0
0.94995 0.283421 0
0 0.456855 1.5259e-05
0 0.460273 1.5259e-05
0.0126802 0.491859 0
0.475883 0.580331 0
0.844907 0.616556 0
0.994568 0.60679 0
1 0.593225 0
1 0.584268 0
1 0.579126 0
0 0.558953 0
0 0.563531 0
0.00363165 0.59472 0
0.42797 0.702968 0
0.827604 0.771282 0
0.996399 0.782116 0
1 0.778225 0
1 0.773342 0
1 0.770275 0
0 0.599771 0
0 0.604166 0
0 0.633616 0
0.373281 0.740215 0
0.796048 0.823026 0
0.998337 0.846281 0
1 0.848402 0
1 0.846784 0
1 0.845411 0
0 0.614588 1.5259e-05
0 0.619883 0.000122072
0 0.6495 0
0.356573 0.754314 0
0.779507 0.84152 0
0.985122 0.86952 0
1 0.875135 0
1 0.875257 0
1 0.874617 0
0 0.621698 0.000137331
0 0.626581 6.10361e-05
0.00163272 0.656535 0
0.356039 0.761303 0
0.775296 0.849485 0
0.981796 0.878828 0
1 0.885893 0
1 0.886961 0
1 0.886946 0
0.000381476 0.0517891 0.0958114
0.0265812 0.0530861 0.107195
0.199008 0.0546578 0.100435
0.508003 0 0.0655985
0.710689 0 0.0150454
0.780926 0 0.00750744
0.796872 0 0.00675975
0.799008 0 0.00479133
0.798886 0 0.00302129
0.000228885 0.0819867 0.0899062
0.0210422 0.08336 0.09337
0.179019 0.0894789 0.0913863
0.469444 0.0459297 0.0583505
0.69778 9.15541e-05 0.00756847
0.786175 0 0.00421149
0.810056 0 0.0028687
0.813809 0 0.000762951
0.813581 0 1.5259e-05
0 0.147753 0.0847639
0.00457771 0.148867 0.0864576
0.155856 0.160922 0.0826123
0.485008 0.159197 0.0335546
0.740169 0.0800793 0.000732433
0.830579 0.0446479 0
0.854017 0.0367132 0
0.85922 0.030869 0
0.859937 0.0257725 9.15541e-05
0 0.28661 0.0713054
0 0.289006 0.0705577
0.0645762 0.310948 0.0540169
0.484688 0.353597 0.00030518
0.792508 0.34522 0
0.915755 0.321202 0
0.946014 0.305348 0
0.950774 0.29369 0
0.951354 0.288762 0
0 0.459617 0.00607309
0 0.462913 0.00959792
0.00788891 0.492424 0.00544747
0.461006 0.581491 0
0.835859 0.620066 0
0.99263 0.610101 0
1 0.597009 0
1 0.587594 0
1 0.582528 0
0 0.561639 0.0021973
0 0.566094 0.000396735
0.00216678 0.596445 0.000686656
0.409735 0.70248 0
0.817578 0.772732 0
0.995193 0.784466 0
1 0.780743 0
1 0.775906 0
1 0.772854 0
0 0.601892 0.0148928
0 0.606378 0.0117952
0 0.63505 0.00321965
0.351125 0.739544 0
0.78645 0.824201 0
0.995926 0.848417 0
1 0.850935 0
1 0.849424 0
1 0.848203 0
0 0.617029 0.019028
0 0.622171 0.0185397
0 0.650858 0.00634775
0.337469 0.753368 0
0.769299 0.842191 0
0.981628 0.871473 0
1 0.877424 0
1 0.877897 0
1 0.877455 0
0 0.623926 0.0208286
0 0.628595 0.0210422
0.000854505 0.657633 0.0077821
0.336141 0.760601 0
0.765972 0.85034 0
0.978622 0.880659 0
1 0.888212 0
1 0.889616 0
1 0.889662 0
0 0.0590677 0.158602
0.000381476 0.0607767 0.180117
0.18143 0.0587472 0.195941
0.495445 0 0.177203
0.707225 0 0.149584
0.780591 0 0.137438
0.796506 0 0.126848
0.798657 0 0.118944
0.798489 0 0.114641
0 0.0877241 0.159426
0.00143435 0.0903029 0.169467
0.156252 0.0948501 0.181109
0.483497 0.0361028 0.163912
0.711711 7.62951e-05 0.133501
0.789853 0 0.121416
0.80975 0 0.112856
0.81265 0 0.102708
0.812299 0 0.0935073
0 0.156329 0.14139
0 0.156298 0.148577
0.116915 0.16611 0.161135
0.454047 0.170611 0.143099
0.717891 0.10695 0.100206
0.824948 0.0570382 0.0757
0.854475 0.0443275 0.0651255
0.861128 0.0354925 0.0575875
0.861509 0.0278325 0.0522774
0 0.295537 0.133562
0 0.297002 0.139635
0.029572 0.315465 0.14258
0.462013 0.35816 0.0907301
0.781857 0.351049 0.0375677
0.910201 0.327977 0.0267491
0.943084 0.313222 0.0294652
0.950607 0.306691 0.03093
0.953643 0.306249 0.029572
0 0.466682 0.0953689
0 0.470085 0.095613
0.000442512 0.49604 0.0948348
0.430701 0.585855 0.0166781
0.821073 0.625193 0.00267033
0.987945 0.615991 0.00140383
1 0.603021 0.000808728
1 0.594064 1.5259e-05
1 0.589334 0
0 0.56759 0.0741894
0 0.571969 0.0680858
0.000274662 0.6009 0.0655833
0.371206 0.70454 0.0103456
0.801129 0.77818 0
0.993042 0.791226 0
1 0.787121 0
1 0.782467 0
1 0.780194 0
0 0.60705 0.0760357
0 0.611475 0.0656901
0 0.639826 0.0601968
0.307317 0.74107 0.0140536
0.770016 0.829541 0
0.991348 0.855482 0
1 0.857221 0
1 0.855863 0.00111391
1 0.854917 0.00180056
0 0.621881 0.0776379
0 0.627359 0.0738079
0 0.655436 0.0662699
0.292714 0.754238 0.0106661
0.751919 0.846815 0
0.975341 0.878096 3.0518e-05
1 0.884199 0.000747692
1 0.884611 0.00120546
1 0.884215 0.0010071
0 0.628946 0.0817121
0 0.633753 0.0790723
9.15541e-05 0.661952 0.0677195
0.280568 0.761364 0.00456245
0.748104 0.855177 0.00158694
0.97258 0.887068 0.000167849
1 0.895232 0.0015259
1 0.896498 0.00169375
1 0.896406 0.00106813
0 0.0682536 0.256306
0 0.0694285 0.285466
0.0425422 0.0635538 0.367971
0.481865 6.10361e-05 0.345632
0.700206 0 0.331762
0.776776 0 0.322545
0.794141 0 0.313024
0.796811 0 0.305638
0.796658 0 0.301579
0 0.0975967 0.296788
0 0.101411 0.280552
0.0165408 0.10602 0.32311
0.468238 0.0389715 0.331411
0.704707 0.000106813 0.31696
0.787518 0 0.307454
0.808865 0 0.299886
0.811383 0 0.292897
0.810834 0 0.288762
0 0.16878 0.241505
0 0.16788 0.252583
0.0238346 0.179232 0.285069
0.451606 0.176486 0.312352
0.728389 0.106676 0.300664
0.826535 0.0536355 0.291844
0.851637 0.0398413 0.28217
0.857267 0.0336309 0.271717
0.858579 0.0305333 0.262394
0 0.314275 0.23032
0 0.314626 0.242679
0.00508125 0.327993 0.271366
0.423362 0.371466 0.290044
0.758923 0.36994 0.269902
0.898909 0.351217 0.253574
0.940612 0.339315 0.241352
0.95079 0.33167 0.228809
0.954543 0.329442 0.218708
0 0.482704 0.224842
0 0.486458 0.237812
0 0.510964 0.256275
0.357748 0.599084 0.24271
0.793851 0.64181 0.183703
0.977417 0.631647 0.164065
0.999969 0.617929 0.162768
1 0.610025 0.157717
1 0.607935 0.158907
0 0.583276 0.218936
0 0.5879 0.226154
0 0.61561 0.233066
0.267704 0.714 0.20412
0.769863 0.794324 0.117144
0.985992 0.807477 0.115145
1 0.80238 0.120897
1 0.797665 0.120729
1 0.795026 0.11986
0 0.621393 0.210956
0 0.62623 0.216983
0 0.654383 0.223209
0.223697 0.749935 0.194003
0.736873 0.843442 0.0970779
0.973724 0.870375 0.0975662
1 0.87306 0.10695
1 0.871809 0.112078
1 0.87071 0.114412
0 0.636423 0.204669
0 0.641932 0.210636
0 0.669245 0.217243
0.193591 0.761151 0.185794
0.720806 0.860227 0.0842603
0.960281 0.89276 0.0869306
1 0.899947 0.101549
1 0.900374 0.109285
1 0.900084 0.112688
0 0.642618 0.203174
0 0.647715 0.209201
0 0.675593 0.214893
0.188006 0.767498 0.185367
0.716594 0.868666 0.0914931
0.955413 0.902235 0.0940871
1 0.91133 0.105959
1 0.912627 0.11284
1 0.912627 0.116472
0 0.0735332 0.399176
0 0.0727398 0.42562
0 0.0591135 0.503624
0.435584 0.000808728 0.541375
0.690623 0 0.52372
0.772122 0 0.516945
0.790753 0 0.509606
0.793851 0 0.503655
0.793759 0 0.500404
0 0.105119 0.454856
0 0.111437 0.431388
0 0.114565 0.466087
0.37348 0.0619669 0.544656
0.693645 0.000198367 0.517571
0.782635 0 0.508186
0.805936 0 0.501381
0.80914 0 0.495491
0.808698 0 0.492805
0 0.182559 0.41207
0 0.179034 0.45452
0 0.198672 0.443931
0.270939 0.207691 0.532418
0.716365 0.11873 0.522286
0.822782 0.0802777 0.512016
0.849363 0.0637675 0.503578
0.854047 0.0533761 0.497566
0.853773 0.0462806 0.494041
0 0.344045 0.397971
0 0.343145 0.413886
6.10361e-05 0.350713 0.446952
0.223499 0.398825 0.494987
0.741726 0.387167 0.525292
0.889891 0.363333 0.517388
0.928603 0.348043 0.508995
0.938521 0.34107 0.501396
0.94258 0.340734 0.493446
0 0.512016 0.38819
0 0.515145 0.405188
0 0.537118 0.43975
0.200366 0.617197 0.490196
0.750225 0.674418 0.506813
0.947616 0.665385 0.49601
0.999115 0.657084 0.48426
1 0.651194 0.472389
1 0.648432 0.463111
0 0.609873 0.381964
0 0.614771 0.39852
0 0.642817 0.430655
0.131502 0.727794 0.462562
0.712474 0.827985 0.46595
0.95436 0.843198 0.456687
1 0.839277 0.452369
1 0.833631 0.44889
1 0.83212 0.452018
0 0.647944 0.378225
0 0.653727 0.393515
0 0.681315 0.417411
0.119341 0.765469 0.439658
0.673152 0.87599 0.440482
0.938247 0.907012 0.433921
0.999908 0.911574 0.437095
1 0.909911 0.43505
1 0.90866 0.434638
0 0.66302 0.373327
0 0.668757 0.386923
0 0.694942 0.40708
0.107073 0.776364 0.427405
0.654017 0.892027 0.427909
0.921798 0.928817 0.422919
1 0.937926 0.425818
1 0.938613 0.426215
1 0.938277 0.426993
0 0.668666 0.371405
0 0.674006 0.384009
0 0.70132 0.403647
0.101396 0.783261 0.425223
0.651362 0.899809 0.425589
0.91516 0.938155 0.419944
0.99942 0.948699 0.422736
1 0.950683 0.425361
1 0.950805 0.428275
0 0.0733043 0.534005
0 0.0741741 0.548318
0 0.0693523 0.594919
0.12604 0.0530709 0.653681
0.678767 0 0.655863
0.774334 0 0.649012
0.794598 0 0.646189
0.797803 0 0.642969
0.79765 0 0.641215
0 0.111971 0.573266
0 0.119463 0.560861
0 0.123964 0.58053
0.0804913 0.114656 0.648295
0.667414 0.000823987 0.668086
0.782559 1.5259e-05 0.653178
0.808011 0 0.648798
0.812238 0 0.645121
0.812177 0 0.642527
0 0.182452 0.5953
0 0.188968 0.602457
0 0.216846 0.586191
0.0503548 0.226886 0.645045
0.642756 0.159487 0.704021
0.818799 0.0890211 0.680018
0.847883 0.074815 0.671321
0.853452 0.0659495 0.665599
0.853376 0.0600595 0.662104
0 0.359945 0.568338
0 0.356542 0.584787
0 0.357504 0.644465
0.0183108 0.412421 0.647517
0.596445 0.431479 0.737469
0.876692 0.375113 0.718441
0.919005 0.358846 0.710658
0.929076 0.347066 0.705013
0.93135 0.340597 0.701991
0 0.542184 0.578912
0 0.543542 0.592157
0 0.558679 0.621759
0.139986 0.626703 0.682536
0.607843 0.705226 0.726543
0.920378 0.682658 0.742092
0.986648 0.667674 0.733913
0.999619 0.657374 0.728573
0.999969 0.654185 0.724941
0 0.63769 0.5626
0 0.641077 0.576944
0 0.664088 0.607584
0.0686809 0.735668 0.655207
0.637369 0.85005 0.713405
0.912474 0.871077 0.729519
0.994659 0.870848 0.727535
1 0.868772 0.721523
1 0.867948 0.717235
0 0.673793 0.551476
0 0.677958 0.566033
0 0.703136 0.596536
0.0667582 0.777615 0.642557
0.58764 0.899611 0.69395
0.893355 0.940185 0.712398
0.994537 0.944671 0.713771
1 0.944778 0.713542
1 0.943526 0.712642
0 0.687816 0.544182
0 0.692363 0.559197
0 0.717494 0.590265
0.0619821 0.791211 0.63154
0.566415 0.91574 0.676661
0.875746 0.962173 0.695048
0.986526 0.973312 0.702098
1 0.974533 0.702983
1 0.97438 0.703456
0 0.693294 0.541726
0 0.698161 0.557397
0 0.724483 0.587671
0.0602884 0.798352 0.626657
0.569589 0.924254 0.67013
0.869078 0.971298 0.687968
0.981628 0.984497 0.696025
0.999939 0.98645 0.698177
1 0.986587 0.699199
0 0.0800641 0.596292
0 0.0818799 0.60296
0 0.0801099 0.629114
0.0134432 0.0738689 0.663035
0.581537 0 0.702388
0.776471 0 0.693339
0.798306 0 0.691569
0.801999 0 0.689326
0.801968 0 0.688151
0 0.120272 0.623133
0 0.12813 0.61738
0 0.133959 0.629511
0.0149233 0.126833 0.669932
0.51931 0.0373693 0.722713
0.783719 0.000320439 0.703365
0.811276 0.00030518 0.70045
0.816083 0.00030518 0.697993
0.816358 0.000122072 0.696315
0 0.188495 0.649989
0 0.19855 0.651881
0 0.228641 0.646204
0.00643931 0.238102 0.684779
0.472633 0.226184 0.757458
0.815869 0.100862 0.741726
0.849867 0.0847639 0.732937
0.856001 0.0757916 0.728115
0.856214 0.0705272 0.725277
0 0.361089 0.658732
0 0.349493 0.679576
0 0.364706 0.705837
0.000717174 0.421668 0.710826
0.438422 0.457023 0.793774
0.847105 0.375998 0.796201
0.913863 0.358007 0.786343
0.926665 0.351751 0.78352
0.929442 0.346014 0.780468
0 0.551461 0.67277
0 0.5505 0.680095
0 0.564065 0.703166
0.129656 0.625147 0.78175
0.443565 0.707835 0.805707
0.843885 0.697322 0.844587
0.970871 0.653239 0.825895
0.995682 0.66006 0.825422
0.998932 0.65481 0.822461
0 0.649607 0.662104
0 0.651774 0.672145
0 0.670604 0.6972
0.0411231 0.734539 0.74168
0.593133 0.853864 0.811475
0.844526 0.876829 0.830045
0.985382 0.863172 0.839536
1 0.873655 0.845426
1 0.871336 0.84477
0 0.684855 0.648249
0 0.687709 0.6598
0 0.709987 0.684565
0.0359045 0.776089 0.726879
0.512657 0.901274 0.795087
0.861112 0.946334 0.828
0.971023 0.944289 0.829511
1 0.954391 0.839612
1 0.956939 0.840513
0 0.69868 0.639811
0 0.701976 0.651682
0 0.724193 0.676051
0.0411536 0.79263 0.720211
0.502754 0.918318 0.784985
0.84918 0.9729 0.822034
0.967163 0.98352 0.827253
0.999741 0.985473 0.828794
1 0.988098 0.835691
0 0.704021 0.635904
0 0.707424 0.64712
0 0.731365 0.673304
0.0397955 0.800427 0.717235
0.504143 0.928512 0.781628
0.843198 0.982452 0.815015
0.964355 0.996139 0.823636
0.99794 0.997665 0.826856
1 0.997971 0.831235
0 0.0857557 0.622858
0 0.0878004 0.627115
0 0.0865797 0.642313
0.00340276 0.079408 0.664591
0.436164 0.00671397 0.712291
0.770459 0 0.709117
0.801114 0 0.707683
0.805066 0 0.70631
0.805234 0 0.705562
0 0.12607 0.644526
0 0.134157 0.641718
0 0.140032 0.649821
0.00102235 0.133806 0.676997
0.391623 0.0894789 0.73344
0.772396 0.00213626 0.725139
0.813199 0.00077821 0.719783
0.817227 0.000289921 0.71635
0.818692 0.000274662 0.716121
0 0.193515 0.669947
0 0.205783 0.671992
0 0.237812 0.674067
0.000518807 0.246342 0.70222
0.368643 0.245823 0.768246
0.788113 0.131762 0.773358
0.850553 0.0894789 0.756085
0.857603 0.0818952 0.752148
0.85803 0.0768749 0.74963
0 0.353079 0.70193
0 0.3449 0.711192
0 0.372595 0.727443
4.57771e-05 0.428611 0.738354
0.308888 0.469429 0.812406
0.786007 0.436072 0.840406
0.91342 0.366232 0.818204
0.925856 0.35552 0.813596
0.929137 0.350179 0.811215
0 0.55285 0.715114
0 0.552621 0.719554
0 0.56231 0.752926
0.0832074 0.62034 0.808133
0.315358 0.702083 0.834669
0.79028 0.726757 0.882231
0.965866 0.667567 0.87216
0.991485 0.660929 0.867292
0.99617 0.655894 0.865095
0 0.655253 0.714366
0 0.656687 0.723079
0 0.673182 0.742718
0.0386053 0.737209 0.783963
0.600259 0.854337 0.871733
0.795773 0.886412 0.879591
0.949493 0.864225 0.897429
1 0.870512 0.898238
1 0.872786 0.899153
0 0.690166 0.703685
0 0.692454 0.712291
0 0.712337 0.731853
0.0208286 0.773114 0.772183
0.445823 0.896559 0.842741
0.850614 0.952712 0.884245
0.950683 0.957992 0.894636
1 0.957351 0.903609
1 0.959762 0.904494
0 0.70367 0.694606
0 0.706065 0.70277
0 0.726558 0.7243
0.0269322 0.790021 0.76466
0.446342 0.913527 0.831724
0.829725 0.975265 0.875898
0.958282 0.989364 0.893706
0.997253 0.991104 0.899123
1 0.992432 0.900496
0 0.708782 0.68893
0 0.711528 0.697658
0 0.733883 0.721126
0.0298772 0.798779 0.760723
0.45156 0.925246 0.829358
0.826535 0.985122 0.872847
0.95317 0.99913 0.889387
0.992935 1 0.88925
1 1 0.896147
0 0.0898909 0.634928
0 0.0920119 0.637903
0 0.0898146 0.647105
4.57771e-05 0.0819104 0.663294
0.337224 0.0312963 0.711376
0.755413 0 0.712917
0.801755 0 0.713054
0.80618 0 0.712154
0.806378 0 0.711498
0 0.130175 0.653178
0 0.138384 0.652338
0 0.145022 0.658824
0.00015259 0.138598 0.679896
0.322347 0.114763 0.733577
0.745357 0.00694286 0.733486
0.813916 0.00143435 0.727016
0.819944 0.0012665 0.7252
0.820539 0.000747692 0.724025
0 0.198016 0.67808
0 0.210605 0.680735
0 0.243549 0.686763
0.000137331 0.251774 0.70927
0.294987 0.255238 0.769787
0.740124 0.173678 0.787884
0.850019 0.0949569 0.76733
0.858228 0.0845655 0.762036
0.858915 0.0801251 0.759915
0 0.34786 0.716258
0 0.34522 0.721675
0 0.378393 0.73698
4.57771e-05 0.434241 0.750927
0.228748 0.47364 0.815076
0.739269 0.460182 0.852964
0.909178 0.378225 0.834058
0.925734 0.358236 0.82594
0.929183 0.352667 0.823743
0 0.554711 0.735454
0 0.553826 0.741253
0 0.559853 0.774151
0.0507668 0.617609 0.815213
0.236561 0.695872 0.843015
0.745174 0.738582 0.896574
0.943999 0.697948 0.89929
0.989502 0.661677 0.885267
0.994583 0.656855 0.88333
0 0.65774 0.741176
0 0.658595 0.747234
0 0.674586 0.763989
0.0382696 0.738109 0.806592
0.57998 0.853086 0.894163
0.764752 0.891112 0.902434
0.935378 0.895155 0.925536
0.999878 0.876341 0.923949
1 0.872679 0.922026
0 0.692821 0.731975
0 0.694667 0.738689
0 0.71313 0.756634
0.0181125 0.771786 0.795377
0.439948 0.89659 0.866972
0.853132 0.953445 0.916213
0.936309 0.964721 0.921111
0.997665 0.963149 0.935195
1 0.960616 0.932815
0 0.70605 0.72369
0 0.70808 0.731121
0 0.727413 0.749813
0.0217288 0.787915 0.787869
0.403311 0.908064 0.854551
0.813214 0.975219 0.901595
0.953658 0.991897 0.922316
0.992233 0.993881 0.929702
1 0.993072 0.93225
0 0.711192 0.718883
0 0.713634 0.726131
0 0.734646 0.746029
0.0246281 0.796994 0.784176
0.412177 0.920333 0.852018
0.812192 0.984863 0.897841
0.948409 0.999664 0.92018
0.9906 1 0.926223
0.999954 1 0.928771
