public/textures/LUTs/DUSK.CUBE
TITLE "Generated by Resolve"
LUT_3D_SIZE 33
0.0354467 0.126879 0.105806
0.0354467 0.126879 0.105806
0.0464637 0.125795 0.110445
0.0670481 0.124041 0.119463
0.0870985 0.122362 0.128878
0.10959 0.119783 0.137499
0.13373 0.11751 0.140337
0.159579 0.115068 0.138949
0.192966 0.110948 0.135958
0.240681 0.103731 0.131044
0.299031 0.0933852 0.12398
0.367208 0.0807813 0.115328
0.437583 0.0666514 0.10547
0.500938 0.0526589 0.095491
0.560418 0.0393988 0.0860304
0.621866 0.0267948 0.0772106
0.684123 0.014847 0.068986
0.742687 0.00521859 0.0624094
0.795193 0 0.0573587
0.839063 0 0.053254
0.873594 0 0.0502174
0.899931 0 0.0484474
0.923858 0 0.0469673
0.945342 0 0.0458076
0.964477 0 0.045243
0.981613 0 0.0447852
0.99379 0 0.0445563
1 0 0.0446021
1 0 0.0448768
1 0 0.0453498
1 0 0.0459144
1 0 0.046479
1 0 0.047425
0.0354467 0.126879 0.105806
0.0354467 0.126879 0.105806
0.0455787 0.125887 0.110063
0.0661326 0.124102 0.119051
0.0860609 0.122469 0.128405
0.108415 0.119905 0.13727
0.132448 0.117601 0.140352
0.158053 0.115236 0.139071
0.190906 0.111208 0.136141
0.237781 0.104189 0.13135
0.295048 0.0941176 0.124468
0.362905 0.0816205 0.115908
0.433524 0.0675212 0.106096
0.497093 0.0535439 0.0961318
0.556558 0.0402075 0.0865949
0.617609 0.0276341 0.0777905
0.679698 0.0156558 0.0695354
0.738613 0.00578317 0.0628061
0.791699 0 0.0576791
0.836332 0 0.0534829
0.870863 0 0.0504463
0.897688 0 0.0486
0.921981 0 0.0470741
0.943725 0 0.0458534
0.962844 0 0.0452888
0.980194 0 0.0448157
0.993194 0 0.0445563
1 0 0.0445716
1 0 0.0448615
1 0 0.045304
1 0 0.0458686
1 0 0.0464332
1 0 0.0473335
0.0354467 0.126879 0.105806
0.0354467 0.126879 0.105806
0.044831 0.125963 0.109758
0.0654002 0.124163 0.11873
0.0852827 0.12253 0.128038
0.107393 0.120012 0.137072
0.131395 0.117693 0.140368
0.156985 0.115358 0.139162
0.189349 0.111406 0.136294
0.235569 0.104524 0.131579
0.292088 0.0946517 0.124834
0.359365 0.0823072 0.116396
0.430198 0.0682383 0.1066
0.493935 0.0542763 0.0966506
0.553384 0.0408637 0.087068
0.614298 0.0283055 0.0782635
0.676509 0.0162356 0.0699321
0.7355 0.00622568 0.0631113
0.789029 0 0.0579385
0.833951 0 0.0536965
0.86865 0 0.0506447
0.895872 0 0.0487068
0.92047 0 0.0471656
0.94229 0 0.0458991
0.961425 0 0.0453346
0.978943 0 0.0448463
0.992676 0 0.0445563
0.999588 0 0.0445716
1 0 0.044831
1 0 0.0452735
1 0 0.0458228
1 0 0.0463874
1 0 0.0472725
0.0354467 0.126879 0.105806
0.0354467 0.126879 0.105806
0.0440833 0.126024 0.109438
0.0646677 0.124224 0.11841
0.0845655 0.122591 0.127703
0.106538 0.120104 0.136904
0.130434 0.117754 0.140398
0.155901 0.11548 0.139254
0.1879 0.111589 0.136416
0.233524 0.104845 0.131792
0.289708 0.095079 0.125124
0.356344 0.0829023 0.116808
0.427344 0.068864 0.107042
0.491234 0.054902 0.0971084
0.550652 0.0414435 0.0874647
0.611475 0.0288701 0.078645
0.67332 0.0168154 0.0703136
0.732403 0.00665293 0.0634012
0.786358 0 0.0581979
0.831769 0 0.0538949
0.866621 0 0.0508278
0.894057 0 0.0488289
0.919081 0 0.0472572
0.940978 0 0.0459602
0.960204 0 0.0453651
0.977874 0 0.0448768
0.992203 0 0.0445563
0.999115 0 0.0445716
1 0 0.0448157
1 0 0.0452277
1 0 0.0457771
1 0 0.0463569
1 0 0.0472114
0.0381323 0.136614 0.10132
0.0380713 0.1364 0.101411
0.0459907 0.135531 0.104723
0.0662089 0.13373 0.1131
0.0849622 0.132097 0.121019
0.104326 0.130144 0.129198
0.126925 0.127367 0.136767
0.152819 0.124529 0.13727
0.184207 0.120684 0.134569
0.229129 0.113939 0.130236
0.285466 0.104219 0.124086
0.351415 0.0919661 0.115785
0.422827 0.077821 0.106203
0.487358 0.0637217 0.0965591
0.546944 0.0500801 0.0869306
0.607965 0.0372015 0.0783398
0.669596 0.0255589 0.0698405
0.729015 0.0152132 0.062974
0.783795 0.00708019 0.0578775
0.829404 0.00221256 0.0536965
0.864759 0.000488289 0.0506447
0.89276 0 0.0486152
0.918013 0 0.0471199
0.940124 0 0.0460975
0.95964 0 0.0455177
0.97792 0 0.0452735
0.993286 0 0.045304
0.998917 0 0.0454871
1 0 0.0459449
1 0 0.0465705
1 0 0.0473487
1 0 0.0483406
1 0 0.0495766
0.043122 0.151537 0.0964065
0.0430457 0.151308 0.0964523
0.0501564 0.150515 0.0993362
0.0699779 0.148501 0.107301
0.0882582 0.146792 0.114717
0.106554 0.144945 0.122072
0.126711 0.142718 0.13019
0.149752 0.140307 0.135134
0.18056 0.136599 0.132876
0.224979 0.1299 0.12845
0.281056 0.120394 0.12221
0.346944 0.108263 0.114015
0.418219 0.0944533 0.104524
0.483299 0.0805829 0.0948348
0.543374 0.0670634 0.0854047
0.605234 0.0541238 0.0773327
0.667704 0.0423133 0.069337
0.727687 0.0326238 0.0625467
0.783581 0.0242161 0.0573587
0.829664 0.0179294 0.0539254
0.866255 0.01355 0.051545
0.89482 0.010544 0.0499428
0.920729 0.00828565 0.0488136
0.943664 0.00672923 0.0482948
0.964263 0.00588998 0.0482948
0.982864 0.00537118 0.0485389
0.998123 0.00529488 0.049073
0.999619 0.00593576 0.050248
1 0.00688182 0.0516365
1 0.00794995 0.053193
1 0.00933852 0.0550546
1 0.0111086 0.057145
1 0.0131533 0.0594797
0.0477302 0.165637 0.092958
0.0476539 0.165408 0.0930037
0.0539406 0.164584 0.0955978
0.0734875 0.162402 0.103731
0.0917067 0.160815 0.111635
0.109316 0.159014 0.119615
0.128283 0.157198 0.128603
0.149813 0.155352 0.13434
0.178759 0.152377 0.132998
0.222904 0.146166 0.128298
0.279561 0.136843 0.122042
0.345708 0.125154 0.114061
0.417731 0.111803 0.104875
0.483055 0.0981918 0.0952163
0.54406 0.0852674 0.0860914
0.606714 0.0730449 0.0778515
0.670588 0.0614939 0.0706798
0.732723 0.052079 0.0647288
0.789258 0.0446021 0.0601663
0.836332 0.0393225 0.0572366
0.873869 0.0358892 0.0555581
0.903853 0.033753 0.0548409
0.931105 0.0324865 0.0547646
0.955245 0.032166 0.0551003
0.977554 0.0324712 0.0561837
0.993332 0.0333562 0.0577707
1 0.0348974 0.0597543
1 0.0368811 0.0622416
1 0.0393835 0.0650339
1 0.042298 0.0681468
1 0.0454108 0.0715953
1 0.0492256 0.0756542
1 0.0533303 0.0796674
0.0500191 0.180377 0.0885176
0.0500191 0.180133 0.0885939
0.0555886 0.17937 0.0911116
0.0749371 0.177401 0.099855
0.0929122 0.176074 0.108629
0.110109 0.174762 0.117418
0.128679 0.173556 0.126192
0.150225 0.172137 0.132494
0.178195 0.169696 0.133547
0.2215 0.164477 0.12929
0.278889 0.155856 0.12282
0.34641 0.144778 0.115358
0.419715 0.132036 0.106874
0.486229 0.118959 0.0978561
0.548226 0.106981 0.0896315
0.613535 0.0956436 0.0821698
0.680797 0.0854963 0.0763867
0.746929 0.0773327 0.0717174
0.804837 0.0712902 0.0686351
0.853025 0.0675822 0.065919
0.893462 0.0654612 0.0667124
0.926055 0.0649577 0.0681773
0.955642 0.065568 0.0692607
0.981216 0.0671397 0.0711986
0.994568 0.0694591 0.0738842
1 0.0721752 0.0770275
1 0.0753338 0.0806592
1 0.0793011 0.0849012
1 0.0834669 0.0889448
1 0.0881208 0.0932326
1 0.0931106 0.0982376
1 0.0981613 0.103426
1 0.1037 0.108995
0.0484932 0.19736 0.0815747
0.0485542 0.197055 0.0817121
0.0535744 0.19649 0.0842603
0.0729229 0.195117 0.0939956
0.0907454 0.194339 0.103304
0.108248 0.193957 0.112306
0.127123 0.193576 0.120775
0.149157 0.192844 0.127871
0.177615 0.191409 0.132311
0.22005 0.187686 0.130678
0.278462 0.180621 0.12491
0.348074 0.170672 0.118059
0.423667 0.15935 0.110994
0.492927 0.147845 0.103731
0.558206 0.137697 0.0973373
0.627894 0.128252 0.091783
0.701198 0.120058 0.0873732
0.772396 0.114031 0.0851606
0.833844 0.110613 0.0845045
0.886061 0.109224 0.0852369
0.92845 0.109285 0.0867475
0.961257 0.110353 0.0888685
0.98941 0.112428 0.0918593
0.997253 0.115648 0.0953536
1 0.119432 0.0994278
1 0.123919 0.104097
1 0.128847 0.109117
1 0.134188 0.114427
1 0.139986 0.120043
1 0.146395 0.126116
1 0.152895 0.132403
1 0.159884 0.138827
1 0.166918 0.145251
0.0406043 0.218418 0.0695048
0.0408942 0.217945 0.0698711
0.0453651 0.217548 0.0723735
0.0649119 0.217105 0.0827039
0.083299 0.217121 0.092195
0.101183 0.217868 0.100908
0.121279 0.218891 0.109972
0.145022 0.21976 0.118441
0.17464 0.220096 0.12639
0.216709 0.218067 0.129427
0.275731 0.213672 0.126802
0.348104 0.20679 0.121843
0.427192 0.197818 0.116457
0.500206 0.188449 0.111238
0.569268 0.17995 0.106645
0.643778 0.172702 0.103243
0.725689 0.166476 0.10135
0.800458 0.162341 0.100954
0.864256 0.160418 0.101747
0.918807 0.160555 0.103746
0.963394 0.162325 0.10692
0.991272 0.165042 0.110628
0.999664 0.168841 0.115053
1 0.173632 0.119905
1 0.179095 0.125154
1 0.185214 0.130816
1 0.192065 0.136904
1 0.1991 0.143023
1 0.206607 0.149203
1 0.21445 0.155398
1 0.222446 0.161959
1 0.231113 0.168673
1 0.239704 0.17528
0.0226291 0.247913 0.0471809
0.0229801 0.247318 0.0476234
0.0269169 0.24712 0.0498665
0.0472877 0.248249 0.0605631
0.0676432 0.250309 0.0708782
0.0878157 0.25333 0.080766
0.10927 0.256748 0.0904402
0.134844 0.259968 0.100496
0.167208 0.26276 0.111818
0.211246 0.26421 0.121584
0.270359 0.263005 0.125154
0.342458 0.258778 0.123507
0.422309 0.252506 0.119249
0.498039 0.245319 0.114672
0.57084 0.23859 0.111223
0.649912 0.233066 0.108949
0.737194 0.22858 0.108446
0.814588 0.226337 0.10956
0.881376 0.226139 0.111818
0.938293 0.227863 0.115434
0.978531 0.231067 0.119753
1 0.235233 0.124208
1 0.240284 0.129213
1 0.246723 0.134859
1 0.253605 0.140673
1 0.261158 0.146685
1 0.269215 0.152926
1 0.277607 0.159213
1 0.286259 0.165652
1 0.295201 0.172274
1 0.304372 0.178958
1 0.31371 0.185428
1 0.322835 0.191806
0.00424201 0.285664 0.0208286
0.00456245 0.284901 0.0213321
0.00791943 0.285069 0.0235142
0.0292515 0.289021 0.0355535
0.0521859 0.293843 0.0470893
0.0746166 0.299397 0.0581521
0.0986954 0.305715 0.0695964
0.126268 0.312032 0.0815747
0.160357 0.317556 0.0946975
0.205386 0.320958 0.108598
0.264286 0.322393 0.118563
0.335851 0.321096 0.121782
0.415335 0.317525 0.120836
0.491188 0.313024 0.117433
0.565667 0.309056 0.114366
0.646799 0.305364 0.112245
0.737057 0.302724 0.11191
0.81709 0.3019 0.113466
0.885863 0.303227 0.116426
0.944137 0.306127 0.120668
0.981888 0.310719 0.125673
1 0.315953 0.13077
1 0.32224 0.136477
1 0.329335 0.142153
1 0.33695 0.148043
1 0.345022 0.154177
1 0.353689 0.160586
1 0.362554 0.166995
1 0.371649 0.173373
1 0.38085 0.179583
1 0.390143 0.185901
1 0.399634 0.191928
1 0.408804 0.197772
0 0.333501 0.00120546
0 0.332692 0.00148013
0.000946059 0.332982 0.0024567
0.0136873 0.339773 0.0105287
0.0389105 0.347234 0.0230716
0.0633097 0.355306 0.0350195
0.0889906 0.36405 0.047425
0.117861 0.373022 0.0604868
0.153429 0.381033 0.0749828
0.199969 0.386923 0.0913405
0.259495 0.390143 0.106752
0.33051 0.39144 0.115694
0.410147 0.390372 0.118761
0.485817 0.388144 0.118822
0.559533 0.386252 0.117632
0.640406 0.38471 0.116091
0.73109 0.383886 0.115496
0.811994 0.3841 0.116625
0.881971 0.386419 0.119371
0.941299 0.390082 0.123476
0.980468 0.395209 0.128328
1 0.400839 0.133318
1 0.407568 0.138979
1 0.415061 0.144732
1 0.422873 0.150576
1 0.430701 0.156542
1 0.439033 0.162142
1 0.447547 0.168109
1 0.456168 0.174014
1 0.465034 0.179599
1 0.474372 0.185321
1 0.483757 0.190753
1 0.493309 0.195987
0 0.384863 0
0 0.383932 0
1.5259e-05 0.384176 1.5259e-05
0.0053254 0.393225 0.000350958
0.0279698 0.403037 0.00393683
0.0547341 0.413443 0.0140993
0.082002 0.424536 0.0272374
0.1122 0.43566 0.0412757
0.149371 0.445991 0.0572824
0.197024 0.453849 0.0747387
0.258167 0.458625 0.0933852
0.329274 0.461555 0.107912
0.408148 0.462165 0.114885
0.483803 0.46099 0.117494
0.556481 0.460258 0.118624
0.636072 0.459998 0.118898
0.724666 0.460166 0.118883
0.805158 0.461616 0.120058
0.874525 0.463706 0.121965
0.933639 0.467338 0.125368
0.97583 0.472297 0.129763
1 0.477592 0.134325
1 0.484199 0.139391
1 0.491402 0.144594
1 0.499443 0.149905
1 0.507851 0.155291
1 0.516518 0.160571
1 0.525414 0.16582
1 0.534493 0.171054
1 0.543908 0.176318
1 0.553613 0.181323
1 0.563378 0.186236
1 0.572992 0.191104
0 0.440024 0
0 0.438895 0
0 0.439002 0
0.00328069 0.450217 0
0.0231022 0.46183 0.000137331
0.0517433 0.474159 0.00151064
0.0800946 0.486488 0.0117037
0.111528 0.499184 0.0266728
0.14995 0.511879 0.0434272
0.199207 0.521752 0.062089
0.262028 0.528252 0.0825055
0.333806 0.531807 0.100832
0.411261 0.533593 0.111559
0.485573 0.533333 0.115969
0.557931 0.532906 0.118441
0.636011 0.532662 0.120287
0.722347 0.533379 0.121782
0.801053 0.535088 0.123308
0.868971 0.537667 0.125246
0.926452 0.54139 0.128023
0.970611 0.546456 0.13164
1 0.552026 0.135653
1 0.558679 0.140124
1 0.566537 0.144808
1 0.574884 0.149676
1 0.583627 0.154818
1 0.592889 0.15967
1 0.602441 0.164553
1 0.611872 0.16936
1 0.621958 0.173938
1 0.632425 0.178607
1 0.642863 0.183047
1 0.653254 0.187289
0 0.500954 0
0 0.499596 0
0 0.499107 0
0.00328069 0.512322 0
0.0239414 0.526955 0
0.0542153 0.542168 3.0518e-05
0.0847791 0.558099 0.00198367
0.117861 0.57409 0.016022
0.156725 0.588418 0.0330053
0.207111 0.599817 0.0525368
0.271015 0.607324 0.0737011
0.342718 0.611551 0.0938582
0.418601 0.613397 0.108186
0.491066 0.612955 0.114946
0.56144 0.61178 0.118196
0.638376 0.611139 0.120867
0.722438 0.6112 0.123323
0.798962 0.612482 0.125628
0.865324 0.615579 0.127977
0.921645 0.619821 0.130846
0.966934 0.625483 0.134279
1 0.631281 0.137819
1 0.638758 0.142
1 0.646998 0.146273
1 0.656474 0.150729
1 0.665553 0.155398
1 0.675013 0.159945
1 0.684535 0.16437
1 0.694163 0.168704
1 0.703899 0.173037
1 0.71371 0.177203
1 0.723339 0.181216
1 0.732464 0.185031
0 0.570428 0
0 0.568902 0
0 0.568368 0
0.00476081 0.583917 0
0.0319066 0.600931 0
0.0638743 0.618647 0
0.0959945 0.637125 9.15541e-05
0.130068 0.656168 0.00920119
0.16936 0.673274 0.0262608
0.219455 0.686198 0.0454414
0.283482 0.694118 0.0668956
0.354925 0.697673 0.0879835
0.428977 0.698817 0.104753
0.499001 0.697932 0.114366
0.567239 0.695903 0.118868
0.642359 0.69453 0.121798
0.725872 0.694133 0.124849
0.800824 0.694972 0.127459
0.865843 0.697292 0.13022
0.921096 0.701625 0.133425
0.965835 0.706859 0.136919
1 0.712749 0.140398
1 0.7196 0.143999
1 0.727306 0.14786
1 0.735225 0.151934
1 0.74377 0.156222
1 0.752331 0.160357
1 0.760998 0.164416
1 0.76936 0.168353
1 0.778012 0.172152
1 0.78645 0.175814
1 0.794736 0.179385
1 0.802853 0.182895
0 0.642985 0
0 0.641459 0
0.000213626 0.640558 0
0.0154116 0.659815 0
0.047013 0.6795 0
0.0799268 0.699245 0
0.112459 0.71902 0
0.146593 0.737758 0.00708019
0.185901 0.754391 0.0240787
0.235004 0.766415 0.0430152
0.298009 0.773098 0.0641489
0.368582 0.776089 0.0850843
0.441245 0.776242 0.102953
0.509377 0.774838 0.114565
0.576318 0.772717 0.120714
0.650156 0.770535 0.124071
0.732219 0.76907 0.127031
0.806226 0.769451 0.129824
0.869947 0.770871 0.132677
0.923888 0.773968 0.135714
0.967071 0.778653 0.138964
0.998947 0.783444 0.14226
1 0.789319 0.145571
1 0.79585 0.149081
1 0.802594 0.152758
1 0.810056 0.15671
1 0.817517 0.160464
1 0.824491 0.164126
1 0.832197 0.167681
1 0.839689 0.171206
1 0.846937 0.174563
1 0.853681 0.177752
1 0.860395 0.180758
0.00523384 0.720226 0
0.00511177 0.718502 0
0.00500496 0.717128 0
0.0336004 0.736202 0
0.0664836 0.755581 0
0.0995193 0.774762 0
0.132067 0.793713 0
0.16585 0.811399 0.00877394
0.204303 0.827131 0.0256199
0.252674 0.838437 0.0442206
0.314809 0.844541 0.0648661
0.384512 0.846128 0.0855879
0.455756 0.845884 0.103563
0.521828 0.843336 0.115984
0.58793 0.840421 0.123445
0.661112 0.8374 0.127657
0.741192 0.835218 0.130434
0.813779 0.834241 0.13283
0.876173 0.834562 0.135409
0.929122 0.83653 0.138247
0.970184 0.840085 0.141238
0.998169 0.844022 0.144228
1 0.848966 0.147356
1 0.854368 0.150484
1 0.859998 0.153719
1 0.866285 0.157305
1 0.872511 0.160647
1 0.878477 0.163867
1 0.884703 0.167056
1 0.890913 0.170306
1 0.896895 0.173266
1 0.902388 0.176059
1 0.90782 0.178698
0.0246891 0.791836 0
0.024155 0.790188 0
0.0237278 0.788876 0
0.0557717 0.807248 0
0.0888838 0.825116 0
0.121584 0.843061 0
0.153582 0.860899 0.002121
0.187167 0.877913 0.0140383
0.225055 0.89279 0.0307774
0.273106 0.903624 0.0491951
0.333974 0.908492 0.0692149
0.402747 0.909224 0.0894179
0.472175 0.907362 0.10692
0.536538 0.904005 0.119493
0.601709 0.899733 0.127657
0.674708 0.895567 0.132616
0.753323 0.892531 0.135393
0.824094 0.890455 0.137224
0.884886 0.889708 0.139178
0.936385 0.890776 0.141634
0.975479 0.893004 0.14435
0.997696 0.895949 0.146899
1 0.899901 0.149645
1 0.90425 0.152438
1 0.908705 0.155276
1 0.913848 0.158434
1 0.918868 0.161395
1 0.923629 0.164202
1 0.928588 0.166949
1 0.933455 0.169741
1 0.938003 0.172274
1 0.942565 0.174685
1 0.946883 0.17702
0.0482948 0.853681 0
0.0477913 0.852476 0
0.0472725 0.85127 0
0.078996 0.868299 0
0.112245 0.885801 0
0.144503 0.902754 0.00108339
0.176028 0.919585 0.00766003
0.209308 0.935561 0.0220645
0.24686 0.949813 0.0386664
0.294286 0.9579 0.0567025
0.354726 0.960922 0.0762951
0.421683 0.960769 0.0955367
0.489082 0.958862 0.112245
0.552239 0.954635 0.124605
0.616602 0.949508 0.133059
0.689799 0.944656 0.13846
0.767071 0.940337 0.141238
0.83592 0.937072 0.142611
0.895079 0.935515 0.143877
0.945052 0.935058 0.145647
0.982086 0.93666 0.147967
0.99794 0.938674 0.150118
1 0.941588 0.152407
1 0.944701 0.154788
1 0.948302 0.157321
1 0.952163 0.159976
1 0.956191 0.1626
1 0.960159 0.165103
1 0.963806 0.167361
1 0.967498 0.169635
1 0.970886 0.171847
1 0.973938 0.173983
1 0.976883 0.175952
0.0723735 0.907576 0
0.0716411 0.906188 0
0.0712139 0.905333 0
0.102266 0.921202 0
0.135286 0.937682 0.000320439
0.167117 0.95288 0.00396735
0.19826 0.967727 0.0158694
0.231235 0.982223 0.031693
0.268162 0.995163 0.0479286
0.315267 1 0.0655528
0.374945 1 0.0845045
0.440391 1 0.102785
0.505501 1 0.118502
0.567742 0.99675 0.130526
0.63183 0.990723 0.139025
0.705058 0.984802 0.144472
0.781369 0.979553 0.147219
0.8486 0.975677 0.148363
0.905974 0.972793 0.148989
0.954421 0.971267 0.149966
0.989181 0.971435 0.151629
0.998459 0.972808 0.15346
1 0.974685 0.155428
1 0.976822 0.157412
1 0.979522 0.159426
1 0.98233 0.161746
1 0.985458 0.163958
1 0.988434 0.166079
1 0.991531 0.168109
1 0.994492 0.170062
1 0.99588 0.172061
1 0.996506 0.173983
1 0.996796 0.175631
0.0991379 0.959457 0
0.0984207 0.958053 0
0.0979934 0.957214 0
0.127993 0.971939 0
0.160571 0.985443 0.00244144
0.191913 0.99025 0.0139773
0.222416 0.99295 0.0284886
0.254841 0.995926 0.0437934
0.291371 0.99884 0.0593729
0.337804 1 0.0764172
0.396521 1 0.0945602
0.459937 1 0.11191
0.522927 1 0.126513
0.584344 0.99913 0.137789
0.648569 0.997482 0.146075
0.72166 0.995834 0.151415
0.796216 0.994202 0.153597
0.861509 0.992981 0.154162
0.917205 0.992096 0.154406
0.964141 0.991501 0.154879
0.996521 0.99144 0.155886
0.99942 0.991836 0.157244
1 0.992309 0.158801
1 0.993042 0.160449
1 0.993881 0.162127
1 0.994873 0.163943
1 0.995926 0.165789
1 0.997055 0.167651
1 0.998199 0.169451
1 0.999313 0.171115
1 0.999863 0.172778
1 1 0.174426
1 1 0.175982
0.126909 0.98732 0
0.126146 0.986694 0
0.125551 0.986191 0
0.154467 0.992615 0.0028687
0.186404 0.998657 0.0127718
0.216556 1 0.0267491
0.246128 1 0.0412299
0.277852 1 0.0559548
0.313802 1 0.0709544
0.359976 1 0.0872663
0.417304 1 0.104448
0.478965 1 0.12079
0.539422 1 0.134127
0.600565 1 0.144869
0.665125 1 0.15288
0.737804 1 0.157885
0.810254 1 0.159548
0.873533 1 0.159564
0.927779 1 0.159289
0.971481 1 0.159243
1 1 0.15967
1 1 0.160586
1 1 0.161776
1 1 0.163149
1 1 0.164599
1 1 0.166064
1 1 0.16762
1 1 0.169177
1 1 0.170733
1 1 0.172198
1 1 0.173556
1 1 0.174868
1 1 0.176287
0.154437 1 0.0041352
0.153704 1 0.00389105
0.153124 1 0.00369268
0.180728 1 0.0108034
0.211612 1 0.0260166
0.240421 1 0.0402533
0.269032 1 0.0539101
0.299794 1 0.0679026
0.33518 1 0.0822614
0.381415 1 0.0978256
0.437522 1 0.114092
0.496727 1 0.129122
0.555581 1 0.141405
0.616129 1 0.151522
0.68127 1 0.159289
0.753307 1 0.163836
0.823789 1 0.16495
0.885054 1 0.164462
0.93753 1 0.163684
0.977554 1 0.163134
1 1 0.163104
1 1 0.163577
1 1 0.164431
1 1 0.165515
1 1 0.166781
1 1 0.168017
1 1 0.169314
1 1 0.170596
1 1 0.171893
1 1 0.173175
1 1 0.174243
1 1 0.175235
1 1 0.176455
0.181201 1 0.0135805
0.180652 1 0.0132601
0.180117 1 0.0129244
0.206256 1 0.0256809
0.235737 1 0.0399481
0.26334 1 0.0534066
0.291035 1 0.0665751
0.320714 1 0.0796521
0.355596 1 0.0931563
0.401526 1 0.107759
0.455909 1 0.12285
0.512779 1 0.136538
0.570703 1 0.14789
0.631006 1 0.157458
0.6963 1 0.164752
0.76733 1 0.168887
0.836423 1 0.169635
0.895766 1 0.168765
0.946548 1 0.16762
0.983444 1 0.166751
1 1 0.166476
1 1 0.166659
1 1 0.167254
1 1 0.168048
1 1 0.168917
1 1 0.169924
1 1 0.17084
1 1 0.171771
1 1 0.172808
1 1 0.173892
1 1 0.17496
1 1 0.175967
1 1 0.176959
0.206302 1 0.0286107
0.205631 1 0.0281987
0.205081 1 0.0278782
0.229908 1 0.0396124
0.257527 1 0.0529335
0.28394 1 0.0656596
0.310262 1 0.07776
0.339086 1 0.090013
0.3738 1 0.1028
0.419577 1 0.116503
0.472496 1 0.13048
0.527077 1 0.142824
0.584329 1 0.153475
0.644434 1 0.162493
0.709972 1 0.169574
0.78024 1 0.173373
0.847257 1 0.173648
0.905028 1 0.172381
0.954452 1 0.171008
0.988952 1 0.16997
1 1 0.169467
1 1 0.169207
1 1 0.169406
1 1 0.169909
1 1 0.170535
1 1 0.171389
1 1 0.172213
1 1 0.173053
1 1 0.173938
1 1 0.174868
1 1 0.175784
1 1 0.176699
1 1 0.177584
0.229404 1 0.0425879
0.228931 1 0.0422827
0.228443 1 0.0419928
0.251606 1 0.0526436
0.277455 1 0.0648661
0.30248 1 0.0766613
0.32755 1 0.0877089
0.355779 1 0.0991073
0.390646 1 0.111177
