public/textures/LUTs/DUSK.CUBE
TITLE "Generated by Resolve"
LUT_3D_SIZE 5
0.0354467 0.126879 0.105806
0.192966 0.110948 0.135958
0.684123 0.014847 0.068986
0.964477 0 0.045243
1 0 0.047425
0.0484932 0.19736 0.0815747
0.177615 0.191409 0.132311
0.701198 0.120058 0.0873732
1 0.119432 0.0994278
1 0.166918 0.145251
0 0.570428 0
0.16936 0.673274 0.0262608
0.725872 0.694133 0.124849
1 0.735225 0.151934
1 0.802853 0.182895
0.154437 1 0.0041352
0.33518 1 0.0822614
0.823789 1 0.16495
1 1 0.166781
1 1 0.176455
0.307668 1 0.0869154
0.449378 1 0.133516
0.891402 1 0.186374
1 1 0.177905
1 1 0.18024
0.013901 0.131594 0.191913
0.188296 0.109621 0.219257
0.682231 0.0137179 0.142229
0.965652 0 0.117494
1 0 0.121447
0.0192111 0.207828 0.131044
0.171572 0.197009 0.193378
0.71664 0.128298 0.164034
1 0.13312 0.180346
1 0.18558 0.231357
0 0.601267 9.15541e-05
0.189334 0.7066 0.0940719
0.74995 0.720562 0.198642
1 0.758541 0.223545
1 0.820523 0.253574
0.170138 1 0.0621958
0.346609 1 0.144762
0.833021 1 0.229358
1 1 0.228305
1 1 0.236744
0.305715 1 0.146761
0.446082 1 0.195605
0.888884 1 0.24831
1 1 0.235706
1 1 0.236713
0 0.122988 0.757259
0.0504311 0.101549 0.774563
0.637858 0 0.661768
0.945068 0 0.602182
1 0 0.611933
0 0.207813 0.693187
0.0448157 0.197971 0.747036
0.704936 0.112459 0.720806
1 0.121569 0.742687
1 0.178454 0.839109
0 0.677104 0.295583
0.0616465 0.776165 0.433982
0.735943 0.730892 0.704234
1 0.75465 0.740826
1 0.804898 0.789349
0.073106 1 0.365133
0.244312 1 0.481895
0.79266 1 0.695445
1 1 0.70837
1 1 0.717617
0.17557 1 0.471656
0.325231 1 0.544793
0.832181 1 0.711803
1 1 0.710597
1 1 0.705653
0 0.123598 0.999786
0.000289921 0.102708 1
0.598703 0 0.976928
0.916884 0 0.933654
1 0 0.948867
0 0.209522 0.979126
0.00758373 0.206317 1
0.690883 0.118715 1
1 0.130236 1
1 0.189914 1
0 0.736141 0.594049
0.00015259 0.832364 0.711055
0.700999 0.75462 0.996948
1 0.755657 1
1 0.799802 1
0 1 0.572442
0.126497 1 0.666224
0.722255 1 0.867536
1 0.999985 0.977295
1 1 0.980102
0.0665751 1 0.623941
0.218158 1 0.685237
0.772671 1 0.868162
1 1 0.96817
1 1 0.974777
0 0.126192 1
0 0.105516 1
0.588815 0 1
0.914885 0 1
1 0 1
0 0.215564 1
0.00675975 0.218097 1
0.708919 0.134371 1
1 0.15079 1
1 0.213092 1
0 0.779065 0.716442
0 0.871763 0.831449
0.708934 0.779919 1
1 0.773785 1
1 0.810636 1
0 1 0.665782
0.0906691 1 0.753338
0.683177 1 0.952392
0.999802 1 1
1 1 1
0.0236973 1 0.699199
0.173281 1 0.758572
0.730175 1 0.930114
1 1 1
1 1 1
