public/textures/LUTs/DUSK.CUBE
TITLE "Generated by Resolve"
LUT_3D_SIZE 9
0.0354467 0.126879 0.105806
0.0870985 0.122362 0.128878
0.192966 0.110948 0.135958
0.437583 0.0666514 0.10547
0.684123 0.014847 0.068986
0.873594 0 0.0502174
0.964477 0 0.045243
1 0 0.0448768
1 0 0.047425
0.0381323 0.136614 0.10132
0.0849622 0.132097 0.121019
0.184207 0.120684 0.134569
0.422827 0.077821 0.106203
0.669596 0.0255589 0.0698405
0.864759 0.000488289 0.0506447
0.95964 0 0.0455177
1 0 0.0459449
1 0 0.0495766
0.0484932 0.19736 0.0815747
0.0907454 0.194339 0.103304
0.177615 0.191409 0.132311
0.423667 0.15935 0.110994
0.701198 0.120058 0.0873732
0.92845 0.109285 0.0867475
1 0.119432 0.0994278
1 0.139986 0.120043
1 0.166918 0.145251
0 0.333501 0.00120546
0.0389105 0.347234 0.0230716
0.153429 0.381033 0.0749828
0.410147 0.390372 0.118761
0.73109 0.383886 0.115496
0.980468 0.395209 0.128328
1 0.422873 0.150576
1 0.456168 0.174014
1 0.493309 0.195987
0 0.570428 0
0.0319066 0.600931 0
0.16936 0.673274 0.0262608
0.428977 0.698817 0.104753
0.725872 0.694133 0.124849
0.965835 0.706859 0.136919
1 0.735225 0.151934
1 0.76936 0.168353
1 0.802853 0.182895
0.0482948 0.853681 0
0.112245 0.885801 0
0.24686 0.949813 0.0386664
0.489082 0.958862 0.112245
0.767071 0.940337 0.141238
0.982086 0.93666 0.147967
1 0.948302 0.157321
1 0.963806 0.167361
1 0.976883 0.175952
0.154437 1 0.0041352
0.211612 1 0.0260166
0.33518 1 0.0822614
0.555581 1 0.141405
0.823789 1 0.16495
1 1 0.163104
1 1 0.166781
1 1 0.171893
1 1 0.176455
0.250629 1 0.0553902
0.295338 1 0.0755779
0.405951 1 0.118227
0.608057 1 0.162219
0.866621 1 0.180194
1 1 0.173983
1 1 0.173938
1 1 0.176089
1 1 0.178851
0.307668 1 0.0869154
0.34229 1 0.100603
0.449378 1 0.133516
0.641428 1 0.170138
0.891402 1 0.186374
1 1 0.179644
1 1 0.177905
1 1 0.178653
1 1 0.18024
0.0334936 0.127306 0.110307
0.0857099 0.12253 0.133822
0.192386 0.110887 0.140734
0.43621 0.066865 0.109743
0.682445 0.0150607 0.0730449
0.872679 0 0.0540932
0.963806 0 0.049012
1 0 0.0486915
1 0 0.0512245
0.0367895 0.13669 0.104067
0.0836347 0.131975 0.123354
0.18352 0.120333 0.136751
0.421241 0.0778058 0.108064
0.667918 0.0254978 0.0713359
0.863767 0.000503548 0.0518959
0.958938 0 0.0466163
1 0 0.046891
1 0 0.0503853
0.0481575 0.197131 0.0824292
0.0902724 0.193927 0.103487
0.176699 0.191012 0.132387
0.421622 0.158953 0.11107
0.698207 0.119356 0.087129
0.926101 0.108049 0.0861677
1 0.118059 0.0986496
1 0.138384 0.119097
1 0.164935 0.144106
0 0.332372 0.00158694
0.0385748 0.345586 0.0233616
0.152438 0.379141 0.0750744
0.408164 0.388479 0.118791
0.728725 0.381765 0.115419
0.979629 0.392782 0.128099
1 0.420035 0.150301
1 0.453651 0.173831
1 0.490486 0.195911
0 0.568048 0
0.0307622 0.598108 0
0.167651 0.670161 0.0259556
0.426459 0.696071 0.104448
0.723033 0.691463 0.124697
0.964324 0.704311 0.13669
1 0.732403 0.15172
1 0.766629 0.1682
1 0.800381 0.182834
0.0473945 0.851575 0
0.110323 0.882979 0
0.24477 0.947646 0.0378119
0.486442 0.957061 0.111528
0.763943 0.93872 0.140902
0.98114 0.935012 0.147723
1 0.946761 0.157122
1 0.96257 0.167239
1 0.97586 0.175875
0.153277 1 0.00373846
0.209903 1 0.0251011
0.33341 1 0.0814527
0.55317 1 0.140795
0.821134 1 0.164767
1 1 0.162936
1 1 0.166644
1 1 0.171801
1 1 0.176379
0.249836 1 0.0549172
0.294041 1 0.0749065
0.404349 1 0.117662
0.605631 1 0.161776
0.864363 1 0.180148
1 1 0.173922
1 1 0.173846
1 1 0.176028
1 1 0.178805
0.307362 1 0.0867933
0.341421 1 0.100267
0.447807 1 0.13312
0.639353 1 0.169833
0.889372 1 0.186374
1 1 0.17966
1 1 0.17789
1 1 0.178637
1 1 0.180209
0.013901 0.131594 0.191913
0.0728161 0.124666 0.212619
0.188296 0.109621 0.219257
0.436027 0.0649729 0.182116
0.682231 0.0137179 0.142229
0.873411 0 0.122423
0.965652 0 0.117494
1 0 0.117952
1 0 0.121447
0.0130922 0.142321 0.180316
0.0666972 0.134752 0.201617
0.179217 0.119249 0.213901
0.420996 0.0759899 0.179263
0.668009 0.0242161 0.140032
0.865125 0.000381476 0.119783
0.961746 0 0.115114
1 0 0.116213
1 0 0.121157
0.0192111 0.207828 0.131044
0.0649424 0.204547 0.149569
0.171572 0.197009 0.193378
0.430625 0.164065 0.184894
0.71664 0.128298 0.164034
0.947692 0.120287 0.165194
1 0.13312 0.180346
1 0.156344 0.203571
1 0.18558 0.231357
0 0.351751 0.0421302
0.0444953 0.365499 0.074464
0.166003 0.401373 0.139559
0.429679 0.411078 0.194629
0.760037 0.405447 0.191928
0.998276 0.418021 0.207187
1 0.444755 0.229694
1 0.477943 0.253269
1 0.515297 0.275929
0 0.601267 9.15541e-05
0.0497139 0.633082 0.0249485
0.189334 0.7066 0.0940719
0.452049 0.726024 0.176242
0.74995 0.720562 0.198642
0.979828 0.731975 0.209033
1 0.758541 0.223545
1 0.790021 0.238773
1 0.820523 0.253574
0.0683452 0.886381 0.00758373
0.129381 0.915373 0.0390326
0.264378 0.969604 0.104967
0.507866 0.973632 0.178988
0.785672 0.956664 0.210391
0.993378 0.950851 0.215412
1 0.960433 0.223484
1 0.972534 0.23209
1 0.983673 0.240146
0.170138 1 0.0621958
0.224155 1 0.0889143
0.346609 1 0.144762
0.566598 1 0.203235
0.833021 1 0.229358
1 1 0.22623
1 1 0.228305
1 1 0.232425
1 1 0.236744
0.257008 1 0.115297
0.298894 1 0.134569
0.409369 1 0.177752
0.611292 1 0.22208
0.868284 1 0.242039
1 1 0.234272
1 1 0.232914
1 1 0.234516
1 1 0.236881
0.305715 1 0.146761
0.337118 1 0.159503
0.446082 1 0.195605
0.640269 1 0.231464
0.888884 1 0.24831
1 1 0.239078
1 1 0.235706
1 1 0.23566
1 1 0.236713
0 0.126589 0.447776
0.0127718 0.120134 0.45864
0.128115 0.104555 0.467002
0.413581 0.0502785 0.420462
0.671275 0.00151064 0.355764
0.864607 0 0.319326
0.959457 0 0.308415
1 0 0.308507
1 0 0.31577
0 0.137163 0.429068
0.0103151 0.129961 0.438727
0.121386 0.114534 0.448981
0.399924 0.0619364 0.407294
0.658869 0.00993362 0.343587
0.857359 0 0.307134
0.956634 0 0.296666
1 0 0.298466
1 0 0.307301
0 0.212848 0.367422
0.00103761 0.207431 0.388571
0.115999 0.197635 0.429404
0.424186 0.155612 0.422156
0.722942 0.123262 0.386862
0.957061 0.118746 0.382452
1 0.133944 0.40177
1 0.158282 0.435279
1 0.188342 0.477867
0 0.381704 0.169421
0.00163272 0.396429 0.203143
0.112673 0.432822 0.281102
0.430762 0.422263 0.409735
0.776349 0.414038 0.41706
1 0.425818 0.43743
1 0.451102 0.4663
1 0.483421 0.500816
1 0.518318 0.536858
0 0.633204 0.102602
0.0349584 0.665049 0.145571
0.174868 0.734112 0.240467
0.455329 0.741115 0.365515
0.752255 0.731838 0.407767
0.980667 0.740658 0.415305
1 0.764752 0.432609
1 0.792035 0.454948
1 0.81854 0.478477
0.05832 0.912902 0.13547
0.117617 0.94023 0.175357
0.24799 0.984131 0.262882
0.502861 0.980682 0.361181
0.781353 0.958663 0.410773
0.984802 0.950088 0.413489
1 0.956664 0.421515
1 0.96698 0.433906
1 0.976486 0.44686
0.151751 1 0.20441
0.202838 1 0.237949
0.320317 1 0.314031
0.552285 1 0.390066
0.819638 1 0.428779
0.999252 1 0.421973
1 1 0.421286
1 1 0.425727
1 1 0.432578
0.224369 1 0.275196
0.263844 1 0.299153
0.371908 1 0.359838
0.588754 1 0.416358
0.848081 1 0.44506
0.998901 1 0.432166
1 1 0.425193
1 1 0.424811
1 1 0.426932
0.2607 1 0.320211
0.292409 1 0.336309
0.40145 1 0.386999
0.61149 1 0.431434
0.86537 1 0.454459
0.9991 1 0.43827
1 1 0.427878
1 1 0.424186
1 1 0.423896
0 0.122988 0.757259
0 0.116655 0.766018
0.0504311 0.101549 0.774563
0.358984 0.03888 0.737804
0.637858 0 0.661768
0.842969 0 0.616159
0.945068 0 0.602182
0.999634 0 0.602075
1 0 0.611933
0 0.132769 0.739986
0 0.125994 0.747539
0.0439002 0.111131 0.757412
0.343847 0.0504311 0.725689
0.626749 0 0.649302
0.836927 0 0.603586
0.943786 0 0.589624
0.999939 0 0.591653
1 0 0.604456
0 0.207813 0.693187
0 0.203449 0.710384
0.0448157 0.197971 0.747036
0.378164 0.150958 0.758236
0.704936 0.112459 0.720806
0.955581 0.106096 0.717189
1 0.121569 0.742687
1 0.147387 0.786786
1 0.178454 0.839109
0 0.408606 0.464515
0 0.42417 0.508034
0.0084535 0.460517 0.609934
0.377966 0.434028 0.749554
0.7794 0.408423 0.769818
1 0.417456 0.790143
1 0.44181 0.821973
1 0.473793 0.858289
1 0.507881 0.893767
0 0.677104 0.295583
0 0.708568 0.338521
0.0616465 0.776165 0.433982
0.377859 0.770809 0.57171
0.735943 0.730892 0.704234
0.976059 0.733623 0.719158
1 0.75465 0.740826
1 0.780591 0.765957
1 0.804898 0.789349
0.00166323 0.946929 0.293782
0.0363012 0.966628 0.336172
0.169329 0.999939 0.43125
0.450126 0.993255 0.562875
0.761334 0.951324 0.685435
0.961349 0.939116 0.70634
1 0.943648 0.71252
1 0.9523 0.723217
1 0.960922 0.734997
0.073106 1 0.365133
0.124498 1 0.401007
0.244312 1 0.481895
0.497215 1 0.594888
0.79266 1 0.695445
0.972396 1 0.710048
1 1 0.70837
1 1 0.711925
1 1 0.717617
0.140551 1 0.434058
0.181308 1 0.458946
0.294423 1 0.522911
0.531197 1 0.620798
0.816754 1 0.706569
0.984176 1 0.716762
1 1 0.709377
1 1 0.708064
1 1 0.71014
0.17557 1 0.471656
0.209857 1 0.489067
0.325231 1 0.544793
0.551934 1 0.634241
0.832181 1 0.711803
0.992355 1 0.719738
1 1 0.710597
1 1 0.706264
1 1 0.705653
0 0.122759 0.93962
0 0.116243 0.948989
0.0116884 0.101625 0.960647
0.313024 0.0381476 0.943847
0.610391 0 0.879347
0.818372 0 0.839384
0.92517 0 0.828122
0.995178 0 0.830884
1 0 0.841108
0 0.132204 0.928084
0 0.125292 0.937057
0.00805676 0.111025 0.949691
0.295354 0.049836 0.93727
0.598596 0 0.873442
0.81178 0 0.832761
0.924529 0 0.822705
0.9953 0 0.827008
1 0 0.841886
0 0.207706 0.89192
0 0.204471 0.908919
0.0115053 0.20174 0.945724
0.341131 0.156909 0.97203
0.690578 0.113268 0.94995
0.94902 0.106615 0.952148
1 0.122835 0.974166
1 0.149538 0.993774
1 0.181338 1
0 0.418936 0.713176
0 0.434653 0.754849
0.00274662 0.471809 0.844602
0.35111 0.447395 0.96376
0.774289 0.415106 0.988647
1 0.421118 0.999573
1 0.443671 1
1 0.474876 1
1 0.508309 1
0 0.713771 0.491844
0 0.744808 0.533104
0.000961318 0.811032 0.617929
0.296941 0.801419 0.761303
0.705364 0.74258 0.917769
0.980117 0.731243 0.940002
1 0.749981 0.954589
1 0.774807 0.969406
1 0.798459 0.981537
0 0.974594 0.452918
0 0.992859 0.491096
0.0803845 1 0.574639
0.369833 1 0.689784
0.716426 0.965515 0.81297
0.948714 0.935576 0.897047
1 0.937697 0.900267
1 0.944533 0.908263
1 0.95172 0.916335
0.00216678 1 0.501091
0.0380407 1 0.532296
0.162554 1 0.601617
0.427329 1 0.698634
0.755795 1 0.816419
0.958938 1 0.891142
1 1 0.896178
1 1 0.897642
1 1 0.899763
0.0602426 1 0.54844
0.101946 1 0.570153
0.218433 1 0.624994
0.468559 1 0.709529
0.781201 1 0.826337
0.969573 1 0.887846
1 1 0.89453
1 1 0.894575
1 1 0.895308
0.10222 1 0.570336
0.137179 1 0.586206
0.254841 1 0.634653
0.495384 1 0.714733
0.797009 1 0.831083
0.976989 1 0.884047
1 1 0.892241
1 1 0.892042
1 1 0.892195
0 0.123598 0.999786
0 0.117159 1
0.000289921 0.102708 1
0.293233 0.0396582 1
0.598703 0 0.976928
0.808377 0 0.942031
0.916884 0 0.933654
0.99324 0 0.937652
1 0 0.948867
0 0.132784 0.998184
0 0.12604 1
0.000183108 0.112047 1
0.274586 0.0514382 1
0.586404 0 0.975097
0.801831 0 0.939941
0.916762 0 0.93283
0.992355 0 0.938903
1 0 0.954376
0 0.209522 0.979126
0 0.206989 0.992523
0.00758373 0.206317 1
0.330541 0.163394 1
0.690883 0.118715 1
0.952255 0.112902 1
1 0.130236 1
1 0.157641 1
1 0.189914 1
0 0.427909 0.82504
0 0.444175 0.864775
0.00238041 0.482948 0.947524
0.347707 0.460304 1
0.779248 0.42533 1
1 0.429252 1
1 0.452338 1
1 0.483742 1
1 0.516503 1
0 0.736141 0.594049
0 0.76759 0.632258
0.00015259 0.832364 0.711055
0.278218 0.818601 0.860273
0.700999 0.75462 0.996948
0.982055 0.73959 1
1 0.755657 1
1 0.778042 1
1 0.799802 1
0 0.990478 0.536507
0 1 0.572152
0.0470436 1 0.649287
0.335195 1 0.762112
0.681636 0.979492 0.885481
0.940322 0.939834 0.984039
1 0.936568 0.990463
1 0.943008 0.995926
1 0.949752 0.998535
0 1 0.572442
0.00581369 1 0.601556
0.126497 1 0.666224
0.390295 1 0.758984
0.722255 1 0.867536
0.949081 1 0.951598
1 0.999985 0.977295
1 1 0.977661
1 1 0.980102
0.0242618 1 0.609369
0.0651865 1 0.629541
0.181476 1 0.681117
0.43151 1 0.762219
0.753033 1 0.867231
0.95848 1 0.950134
1 1 0.973419
1 1 0.97612
1 1 0.97644
0.0665751 1 0.623941
0.101625 1 0.638926
0.218158 1 0.685237
0.459251 1 0.761746
0.772671 1 0.868162
0.965286 1 0.947082
1 1 0.96817
1 1 0.973938
1 1 0.974777
0 0.124926 1
0 0.118425 1
0 0.104097 1
0.282124 0.0411078 1
0.592432 0 1
0.804639 0 0.998016
0.914611 0 0.995804
0.992493 0 0.997208
1 0 1
0 0.134051 1
0 0.127169 1
0 0.113481 1
0.263325 0.0530404 1
0.579904 0 1
0.79852 0 0.998367
0.914931 0 0.99559
0.992309 0 0.998077
1 0 1
0 0.212314 1
0 0.210468 1
0.0065919 0.211856 1
0.32929 0.170504 1
0.698192 0.125933 1
0.96054 0.121508 1
1 0.139986 1
1 0.168643 1
1 0.201175 1
0 0.438926 0.896406
0 0.456443 0.934585
0.00323491 0.496376 0.997955
0.35079 0.473426 1
0.788159 0.437461 1
1 0.440421 1
1 0.463508 1
1 0.494362 1
1 0.526894 1
0 0.757488 0.662425
0 0.788647 0.698238
0 0.852415 0.776898
0.273854 0.834623 0.928542
0.703609 0.7673 1
0.985138 0.748959 1
1 0.764584 1
1 0.785122 1
1 0.804776 1
0 1 0.594064
0 1 0.628672
0.0321508 1 0.703731
0.317922 1 0.815259
0.666682 0.988968 0.944472
0.93463 0.945632 1
1 0.939086 1
1 0.943404 1
1 0.949325 1
0 1 0.623331
0.000610361 1 0.651148
0.105791 1 0.712703
0.368139 1 0.804318
0.699245 1 0.911849
0.927382 1 0.991043
1 1 1
1 1 1
1 1 1
0.00265507 1 0.653178
0.0424353 1 0.672633
0.158114 1 0.722469
0.407019 1 0.802594
0.72932 1 0.904158
0.945403 1 0.979187
1 1 1
1 1 1
1 1 1
0.0432441 1 0.6636
0.0774395 1 0.678706
0.193652 1 0.723827
0.43418 1 0.798596
0.750256 1 0.899626
0.955291 1 0.977035
1 1 0.999969
1 1 1
1 1 1
0 0.126192 1
0 0.11989 1
0 0.105516 1
0.275166 0.0427863 1
0.588815 0 1
0.803403 0 1
0.914885 0 1
0.99295 0 1
1 0 1
0 0.135393 1
0 0.128679 1
0 0.115023 1
0.256184 0.0548562 1
0.576349 0 1
0.798291 0 1
0.916045 0 1
0.993729 0 1
1 0 1
0 0.215564 1
0 0.214618 1
0.00675975 0.218097 1
0.332204 0.178241 1
0.708919 0.134371 1
0.970718 0.131075 1
1 0.15079 1
1 0.18027 1
1 0.213092 1
0 0.451011 0.952667
0 0.468956 0.984909
0.00408942 0.510277 1
0.356283 0.487877 1
0.798581 0.449775 1
1 0.452476 1
1 0.475792 1
1 0.505455 1
1 0.538293 1
0 0.779065 0.716442
0 0.80911 0.753017
0 0.871763 0.831449
0.273945 0.849531 0.975952
0.708934 0.779919 1
0.988479 0.76022 1
1 0.773785 1
1 0.792767 1
1 0.810636 1
0 1 0.642512
0 1 0.676188
0.0234989 1 0.749752
0.307607 1 0.860594
0.659113 0.994446 0.988037
0.931746 0.951141 1
1 0.94258 1
1 0.945937 1
1 0.950774 1
0 1 0.665782
0.000106813 1 0.692592
0.0906691 1 0.753338
0.35227 1 0.843534
0.683177 1 0.952392
0.91107 1 1
0.999802 1 1
1 1 1
1 1 1
1.5259e-05 1 0.691279
0.0243076 1 0.710307
0.139727 1 0.759335
0.387961 1 0.838437
0.710201 1 0.938735
0.926329 1 0.999496
0.999969 1 1
1 1 1
1 1 1
0.0236973 1 0.699199
0.0572213 1 0.713817
0.173281 1 0.758572
0.41355 1 0.832074
0.730175 1 0.930114
0.940566 1 0.997192
1 1 1
1 1 1
1 1 1
