public/textures/LUTs/ERA.CUBE
TITLE "Generated by Resolve"
LUT_3D_SIZE 33
0 0 0
0.000717174 0 0
0.0019379 1.5259e-05 1.5259e-05
0.00648508 0.000122072 0.000122072
0.0199588 0.000503548 0.000518807
0.0356756 0.000900282 0.0009308
0.0834516 0.00137331 0.00181582
0.13164 0.00184634 0.00271611
0.215488 0.00326543 0.00489815
0.301732 0.00477607 0.007187
0.379248 0.00653086 0.00968948
0.454475 0.00836194 0.0122835
0.518486 0.010605 0.0154421
0.57557 0.0132143 0.0191196
0.624414 0.0182803 0.0234836
0.662623 0.0267948 0.0288853
0.701366 0.0458381 0.0384527
0.738994 0.0819257 0.0546578
0.775464 0.130236 0.100145
0.810956 0.189303 0.171435
0.835752 0.276829 0.268513
0.856947 0.37496 0.375341
0.869398 0.461967 0.445533
0.879408 0.541604 0.50808
0.880018 0.58822 0.541726
0.880552 0.628412 0.571313
0.880949 0.659785 0.595331
0.882322 0.686748 0.61529
0.884184 0.711437 0.633158
0.886717 0.729961 0.647227
0.888914 0.745068 0.658763
0.888914 0.745083 0.658869
0.88893 0.745098 0.658991
0 0.000869764 0
0.000747692 0.000869764 1.5259e-05
0.0019379 0.000885023 1.5259e-05
0.00669871 0.0010071 0.000137331
0.0200656 0.00144961 0.000518807
0.0375067 0.00189212 0.000961318
0.0860456 0.0024567 0.00178531
0.1346 0.0030518 0.00268559
0.222126 0.00453193 0.00500496
0.308507 0.00601205 0.00729381
0.386114 0.00773632 0.00987259
0.461662 0.00953689 0.0124971
0.524453 0.0118257 0.0158083
0.581811 0.0143893 0.0194858
0.62916 0.0204929 0.0240787
0.667796 0.029633 0.0294957
0.706355 0.0522316 0.0404364
0.743694 0.0889143 0.0571603
0.779767 0.140459 0.109346
0.815366 0.200763 0.181888
0.838636 0.292363 0.282963
0.859022 0.3888 0.38645
0.871077 0.47454 0.454292
0.879652 0.54847 0.511971
0.879835 0.594171 0.545098
0.880247 0.632578 0.573587
0.880812 0.663874 0.597498
0.882399 0.690211 0.616846
0.884321 0.714748 0.634714
0.886976 0.732815 0.648493
0.888899 0.745907 0.658564
0.888914 0.745876 0.658671
0.888914 0.745861 0.658778
1.5259e-05 0.00199893 1.5259e-05
0.000747692 0.00202945 1.5259e-05
0.00189212 0.00202945 3.0518e-05
0.00695811 0.0021973 0.00015259
0.019913 0.00271611 0.000534066
0.0370336 0.00328069 0.000946059
0.0832532 0.0040589 0.00161746
0.130266 0.00485237 0.00230411
0.216281 0.00631724 0.00445563
0.304295 0.00781262 0.00669871
0.383917 0.00953689 0.00936904
0.461341 0.0112612 0.0121157
0.525475 0.0135195 0.0155795
0.583825 0.0160678 0.019379
0.63183 0.0232242 0.0241703
0.671611 0.0337072 0.0296941
0.710231 0.0591592 0.041825
0.747555 0.0976272 0.0597543
0.783459 0.153155 0.118029
0.819532 0.216556 0.193744
0.841352 0.309667 0.296452
0.860822 0.404135 0.396201
0.872862 0.488304 0.462379
0.880018 0.557321 0.515831
0.879164 0.601083 0.547982
0.879454 0.637369 0.575021
0.88043 0.669367 0.599222
0.882307 0.69514 0.618097
0.884428 0.719265 0.635767
0.88719 0.737499 0.649729
0.888884 0.748669 0.658335
0.888884 0.748638 0.658442
0.888899 0.748638 0.658564
0.000183108 0.00817884 0.000183108
0.000915541 0.00846876 0.000198367
0.00204471 0.00862135 0.000213626
0.00717174 0.00877394 0.000320439
0.0193027 0.00910964 0.00062562
0.0364843 0.00941482 0.000946059
0.082002 0.00939956 0.00149538
0.127932 0.00939956 0.00204471
0.215106 0.0101778 0.00416571
0.300389 0.0110018 0.00624094
0.37908 0.012253 0.00880446
0.45568 0.0136721 0.011429
0.521309 0.0157168 0.014786
0.580545 0.0181582 0.018555
0.630884 0.0256046 0.0234073
0.671855 0.0376135 0.0290837
0.711681 0.0644388 0.0418402
0.74873 0.104646 0.0610361
0.785306 0.163714 0.12285
0.821729 0.230243 0.201984
0.843107 0.323537 0.305211
0.86215 0.416678 0.403067
0.874205 0.499641 0.468009
0.880232 0.564645 0.518257
0.87834 0.606149 0.549157
0.878676 0.641535 0.575647
0.880034 0.673945 0.599939
0.882139 0.69958 0.618708
0.884443 0.723308 0.636255
0.887327 0.741695 0.65037
0.888869 0.751537 0.657984
0.888869 0.751507 0.658122
0.888884 0.751492 0.658244
0.000564584 0.0209659 0.000564584
0.00131228 0.0212863 0.000579843
0.00239567 0.0214237 0.000610361
0.00724804 0.021149 0.000671397
0.0177005 0.0209354 0.000793469
0.0345617 0.0202487 0.000961318
0.078584 0.0185397 0.00135805
0.124758 0.0167849 0.00180056
0.211872 0.0161135 0.00376898
0.298985 0.0154574 0.00575265
0.378164 0.0161288 0.00831617
0.456611 0.0169528 0.0109865
0.521813 0.0187076 0.014374
0.581338 0.0209659 0.0181582
0.631235 0.0290074 0.0228733
0.672312 0.0425879 0.0285039
0.712169 0.0696727 0.0411841
0.74873 0.111666 0.061738
0.785092 0.171496 0.123018
0.821576 0.240803 0.205661
0.843824 0.334279 0.309255
0.863035 0.427436 0.407736
0.874708 0.507149 0.469978
0.880308 0.569924 0.518593
0.877577 0.6094 0.548486
0.877882 0.644785 0.575036
0.879545 0.677729 0.59968
0.881865 0.70341 0.618647
0.884352 0.727092 0.636286
0.887358 0.74551 0.650477
0.888869 0.754803 0.657679
0.888869 0.754772 0.657832
0.888884 0.754726 0.657984
0.000854505 0.0390021 0.000869764
0.0016022 0.0399329 0.000900282
0.00263981 0.0402228 0.000915541
0.00677501 0.0402533 0.000915541
0.0150454 0.0399176 0.0009308
0.0309606 0.0390326 0.000991836
0.0739605 0.0372168 0.00123598
0.120073 0.0347448 0.00157168
0.207584 0.0333867 0.00328069
0.293904 0.0310826 0.00495918
0.375296 0.0287327 0.00758373
0.455665 0.0261692 0.0102541
0.52192 0.026215 0.0137331
0.583551 0.0269474 0.0176089
0.634363 0.0358587 0.0226139
0.67602 0.051194 0.0284733
0.715312 0.0802777 0.0422827
0.750896 0.123232 0.0640421
0.786221 0.183978 0.12665
0.821958 0.255619 0.212314
0.844343 0.345418 0.312413
0.863691 0.436377 0.410498
0.87422 0.51136 0.469032
0.879774 0.573098 0.517067
0.876692 0.611399 0.546441
0.876921 0.646891 0.573205
0.878965 0.68043 0.598184
0.881468 0.706447 0.617563
0.884123 0.730404 0.635538
0.887297 0.74902 0.649989
0.888869 0.758251 0.657252
0.888884 0.758206 0.65745
0.888884 0.75816 0.657618
0.000854505 0.0734264 0.000900282
0.00161746 0.0746166 0.0009308
0.00267033 0.0748608 0.000946059
0.00543221 0.0744945 0.000961318
0.0101015 0.0740673 0.000961318
0.0240787 0.0743572 0.0010071
0.0658579 0.0747997 0.00112917
0.112474 0.0760357 0.00132753
0.199329 0.0719463 0.00247196
0.285542 0.0675364 0.00360113
0.368597 0.0573129 0.0061799
0.45095 0.0466773 0.00880446
0.519677 0.0415045 0.0124514
0.584833 0.0384833 0.0164645
0.636912 0.0475471 0.021912
0.679667 0.0645762 0.0282902
0.719509 0.0971389 0.0443275
0.755047 0.141817 0.0681926
0.790112 0.207431 0.138186
0.824887 0.282429 0.22884
0.846372 0.366613 0.3243
0.865003 0.450614 0.416495
0.872786 0.51751 0.469505
0.877302 0.574884 0.514672
0.875212 0.613748 0.544625
0.875883 0.649805 0.571786
0.878401 0.683772 0.596872
0.881086 0.710079 0.616617
0.883894 0.734264 0.634958
0.88716 0.75256 0.649317
0.888945 0.762493 0.657221
0.888945 0.762448 0.657435
0.888945 0.762402 0.657649
0.000976577 0.111055 0.000946059
0.00178531 0.112276 0.000976577
0.00288396 0.113939 0.0010071
0.00425727 0.114244 0.0010071
0.00595102 0.114199 0.00102235
0.0177005 0.114641 0.00103761
0.0553902 0.118181 0.00105287
0.0993973 0.12076 0.00117494
0.187579 0.116487 0.00205997
0.274907 0.112856 0.00294499
0.361349 0.0975967 0.00598154
0.447074 0.0823682 0.00901808
0.518441 0.0716259 0.0124666
0.586252 0.0628672 0.016083
0.638865 0.0695048 0.0218662
0.682582 0.0853437 0.0288396
0.722576 0.117754 0.0466621
0.758679 0.162676 0.0723278
0.793149 0.231296 0.148577
0.82768 0.310277 0.245029
0.848615 0.389776 0.337224
0.866682 0.467277 0.423926
0.871855 0.52723 0.472435
0.874769 0.57937 0.514336
0.873732 0.617945 0.544427
0.874983 0.654078 0.571603
0.877897 0.688228 0.596597
0.880781 0.71426 0.616205
0.883726 0.738338 0.634592
0.887037 0.756252 0.648783
0.889006 0.766857 0.657237
0.889006 0.766796 0.657435
0.889021 0.766751 0.657618
0.002121 0.172396 0.00105287
0.00297551 0.174716 0.00108339
0.00404364 0.175952 0.00109865
0.0052491 0.176379 0.00112917
0.00657664 0.175982 0.00112917
0.0138247 0.177325 0.00114443
0.034638 0.17818 0.00114443
0.0679637 0.178622 0.00143435
0.164218 0.182559 0.00309758
0.260044 0.186404 0.00486763
0.354376 0.175357 0.00965896
0.448844 0.164401 0.0144656
0.519478 0.144915 0.016434
0.587228 0.123934 0.0178988
0.638865 0.120363 0.0235904
0.683085 0.124697 0.031281
0.723201 0.149645 0.0499428
0.760052 0.188113 0.0755322
0.794369 0.257145 0.156161
0.828046 0.3355 0.253605
0.85034 0.413367 0.34667
0.868833 0.486519 0.431144
0.871138 0.53904 0.475822
0.872496 0.586099 0.515221
0.872343 0.624674 0.545922
0.874296 0.660197 0.5729
0.877516 0.694102 0.59762
0.880674 0.719844 0.61709
0.883833 0.743511 0.635203
0.887022 0.760403 0.648798
0.889082 0.771374 0.657649
0.889082 0.771344 0.657771
0.889082 0.771298 0.657908
0.00326543 0.233249 0.00114443
0.00433356 0.235157 0.0012665
0.00627146 0.237125 0.0016022
0.00773632 0.23772 0.00178531
0.00918593 0.238071 0.00195315
0.0122225 0.237842 0.00210575
0.0181735 0.23592 0.00216678
0.0423743 0.236332 0.00267033
0.142977 0.2477 0.00518807
0.241474 0.256718 0.00776684
0.344106 0.250797 0.014435
0.446738 0.244877 0.021088
0.518456 0.218769 0.0220493
0.587228 0.189807 0.0223239
0.638666 0.175982 0.0275578
0.683833 0.169146 0.0349737
0.723781 0.186236 0.0538643
0.760708 0.215991 0.0788739
0.794354 0.282673 0.161196
0.827314 0.358312 0.257633
0.85037 0.433219 0.351553
0.868696 0.502281 0.434684
0.869398 0.549447 0.477653
0.870253 0.592569 0.515587
0.871138 0.631037 0.547234
0.873762 0.666835 0.574578
0.877317 0.700648 0.599359
0.880705 0.725795 0.61854
0.884047 0.748898 0.636408
0.887205 0.765301 0.649805
0.889174 0.77557 0.658228
0.889174 0.77557 0.658274
0.889174 0.77554 0.658351
0.0289006 0.2963 0.0103151
0.0308995 0.298909 0.0107576
0.032639 0.30042 0.0110323
0.0341039 0.301137 0.0111849
0.0357366 0.302205 0.0113985
0.0381781 0.302708 0.0115511
0.0413519 0.300587 0.0113375
0.0586709 0.301686 0.0117952
0.126757 0.307561 0.0137179
0.196902 0.313695 0.0162966
0.312322 0.316991 0.0250858
0.426703 0.321004 0.0339361
0.5066 0.30515 0.0374151
0.585092 0.286976 0.0404822
0.638911 0.267933 0.042771
0.6851 0.248066 0.0446937
0.723415 0.248585 0.0605936
0.758007 0.258518 0.0831617
0.790341 0.310506 0.157794
0.822171 0.372137 0.244038
0.843931 0.443259 0.341863
0.861234 0.5084 0.427146
0.864912 0.555673 0.474189
0.867826 0.598642 0.514443
0.869932 0.637507 0.547662
0.873335 0.672923 0.575372
0.877333 0.707103 0.600855
0.880858 0.731533 0.619867
0.884276 0.753841 0.637476
0.887449 0.769757 0.650828
0.889311 0.779141 0.658747
0.889311 0.779171 0.658732
0.889311 0.779171 0.658747
0.054963 0.358923 0.0196384
0.0570077 0.361578 0.0200961
0.0592203 0.364263 0.0205234
0.0604715 0.364569 0.0205844
0.0620737 0.365805 0.0207675
0.0633555 0.365972 0.020737
0.0641642 0.364752 0.0204166
0.0739605 0.364752 0.0205997
0.109453 0.36672 0.0221408
0.154833 0.369558 0.0247349
0.280339 0.383825 0.0358129
0.40647 0.397787 0.0468605
0.495644 0.391653 0.0528878
0.583444 0.383764 0.0586252
0.638956 0.357061 0.0573892
0.686259 0.324163 0.0540169
0.722728 0.308705 0.0673991
0.755276 0.300542 0.087953
0.786328 0.339162 0.154742
0.816373 0.386694 0.229908
0.83711 0.453285 0.33135
0.854047 0.514778 0.419409
0.860548 0.561761 0.470146
0.865492 0.604776 0.513039
0.868864 0.643732 0.547738
0.872953 0.679026 0.575982
0.877348 0.713176 0.602045
0.880995 0.73695 0.620935
0.884504 0.758663 0.638453
0.887709 0.774136 0.651911
0.889464 0.782635 0.659236
0.889464 0.78265 0.659205
0.889464 0.78265 0.659205
0.0884108 0.414878 0.0302281
0.0908827 0.417151 0.0307469
0.0929122 0.418524 0.0310521
0.0948501 0.419745 0.0313268
0.0964523 0.420386 0.0314794
0.0984665 0.4215 0.031693
0.0992752 0.420615 0.0314641
0.105592 0.42002 0.0314946
0.126192 0.420645 0.0322576
0.158053 0.422217 0.0339513
0.257816 0.432563 0.0416114
0.357321 0.441184 0.0489662
0.456367 0.442817 0.0592813
0.556695 0.444862 0.0700389
0.619593 0.430884 0.0739757
0.675486 0.411215 0.076051
0.715007 0.395697 0.0893873
0.748928 0.38143 0.106645
0.776974 0.399161 0.156466
0.804166 0.423346 0.214923
0.827253 0.474739 0.31545
0.846082 0.5243 0.402411
0.855817 0.570184 0.460197
0.863188 0.612161 0.507607
0.868208 0.650904 0.545159
0.872877 0.685527 0.574929
0.877379 0.718669 0.601968
0.881117 0.741604 0.620996
0.884703 0.762615 0.638666
0.887922 0.777798 0.652216
0.88957 0.78558 0.659159
0.88957 0.785611 0.659144
0.88957 0.785595 0.659129
0.124117 0.469093 0.0412146
0.126329 0.470954 0.0416419
0.128985 0.473259 0.0421607
0.131304 0.474998 0.0425422
0.132967 0.475761 0.04271
0.134447 0.476188 0.0427863
0.135683 0.476188 0.0427558
0.138582 0.476097 0.0427405
0.144488 0.476112 0.0427405
0.161303 0.476173 0.0432441
0.232944 0.481529 0.0471809
0.304555 0.485939 0.0509194
0.415473 0.497734 0.066392
0.529473 0.509163 0.0822156
0.600671 0.505394 0.090837
0.664988 0.500496 0.0987106
0.707027 0.483253 0.111269
0.74255 0.463279 0.12549
0.767346 0.458259 0.157092
0.791501 0.459632 0.19826
0.816907 0.495521 0.297856
0.838148 0.533867 0.385489
0.851286 0.578134 0.45034
0.860868 0.619455 0.501854
0.867689 0.658625 0.542962
0.872786 0.692119 0.573846
0.877394 0.723918 0.60177
0.881239 0.746303 0.621088
0.884901 0.766629 0.638865
0.888136 0.781476 0.652522
0.889693 0.788571 0.659052
0.889693 0.788602 0.659052
0.889693 0.788617 0.659022
0.159518 0.515373 0.0541238
0.161975 0.517067 0.0547494
0.164279 0.518425 0.0552529
0.165988 0.519051 0.0554971
0.168505 0.520607 0.0560616
0.169757 0.520592 0.0560922
0.171405 0.520958 0.05626
0.173205 0.52079 0.05626
0.176226 0.520577 0.0562142
0.186984 0.520333 0.0563973
0.231037 0.522591 0.0583047
0.275364 0.525292 0.0605631
0.383062 0.535698 0.0742351
0.492439 0.546242 0.0880903
0.570962 0.549416 0.0938888
0.646677 0.550774 0.0983749
0.697688 0.54107 0.10837
0.743648 0.528283 0.119768
0.769436 0.52137 0.150896
0.794476 0.517494 0.191424
0.818112 0.538705 0.274907
0.837812 0.564691 0.355612
0.850614 0.599008 0.431815
0.860227 0.633936 0.490272
0.867704 0.669474 0.536934
0.872847 0.700069 0.569787
0.877501 0.729305 0.599512
0.881392 0.750988 0.61976
0.885069 0.770321 0.638071
0.888319 0.784756 0.652064
0.889769 0.791211 0.658274
0.889769 0.791241 0.658259
0.889769 0.791257 0.658228
0.194598 0.556664 0.0681315
0.196811 0.558022 0.0686503
0.199145 0.559411 0.0691539
0.201709 0.561044 0.0697642
0.203449 0.561669 0.0699931
0.205371 0.562432 0.0702831
0.206897 0.562692 0.0703593
0.208896 0.563149 0.0704967
0.211276 0.563348 0.0704967
0.216098 0.562661 0.0702831
0.23125 0.563027 0.070573
0.251041 0.563546 0.0714122
0.351537 0.572168 0.0822919
0.453468 0.580865 0.0932631
0.540841 0.58909 0.0948043
0.627543 0.597574 0.0952926
0.688701 0.596338 0.102586
0.745892 0.593881 0.111223
0.772656 0.584543 0.144167
0.798398 0.577569 0.183871
0.819852 0.582864 0.250523
0.837705 0.595666 0.325246
0.849943 0.619562 0.412955
0.859571 0.648432 0.478309
0.867674 0.68043 0.530419
0.872938 0.708217 0.565896
0.877638 0.734813 0.59736
0.881529 0.755474 0.618372
0.885237 0.774029 0.637278
0.888502 0.788113 0.65156
0.88986 0.793896 0.657481
0.88986 0.793896 0.657481
0.88986 0.793912 0.65745
0.228305 0.593347 0.0859693
0.230777 0.594797 0.0869001
0.233127 0.596033 0.0876783
0.235233 0.596963 0.0882734
0.236896 0.597421 0.0885786
0.238956 0.598215 0.089128
0.240513 0.598398 0.0893111
0.242222 0.598489 0.0894484
0.244388 0.598627 0.0896468
0.247501 0.598276 0.0895552
0.2551 0.598581 0.0898909
0.268101 0.598657 0.0903029
0.340414 0.603296 0.0956893
0.413382 0.607935 0.101076
0.504707 0.618494 0.0997482
0.598138 0.629313 0.0978866
0.66598 0.631724 0.101213
0.729961 0.63357 0.105745
0.764965 0.628016 0.133837
0.797818 0.623484 0.167681
0.820508 0.625864 0.220081
0.838941 0.63473 0.290257
0.851728 0.651698 0.384512
0.860868 0.673259 0.45658
0.868132 0.697414 0.517311
0.873167 0.720317 0.556954
0.877806 0.742687 0.592004
0.881697 0.761334 0.614878
0.885374 0.778088 0.635035
0.88867 0.791531 0.650065
0.889921 0.796658 0.655741
0.889921 0.796674 0.655726
0.889921 0.796689 0.65568
0.262043 0.627726 0.107301
0.264515 0.629175 0.108217
0.266621 0.630167 0.108812
0.268727 0.631128 0.109392
0.270878 0.632059 0.110002
0.272786 0.63267 0.110399
0.274708 0.633204 0.110796
0.276555 0.633417 0.110994
0.278523 0.633463 0.111177
0.281132 0.633585 0.111513
0.285206 0.633616 0.111757
0.2934 0.633234 0.111437
0.33196 0.634073 0.111101
0.370962 0.634913 0.11075
0.467781 0.646418 0.106905
0.566308 0.658198 0.102876
0.639445 0.664698 0.102113
0.710735 0.670283 0.102617
0.754971 0.6692 0.124239
0.795041 0.668437 0.150164
0.819654 0.668879 0.189303
0.83946 0.674098 0.25539
0.853269 0.684916 0.353002
0.862058 0.699275 0.432151
0.868437 0.715114 0.50193
0.873365 0.733425 0.546304
0.877974 0.751522 0.585351
0.881865 0.767758 0.610559
0.885527 0.78262 0.632166
0.888838 0.795361 0.648112
0.889982 0.799725 0.65362
0.889982 0.799741 0.65359
0.889982 0.799771 0.653574
0.284932 0.655283 0.13196
0.286976 0.656565 0.133288
0.288838 0.657481 0.134234
0.290593 0.658198 0.134981
0.292363 0.658915 0.135714
0.293889 0.65919 0.136004
0.295567 0.659586 0.1364
0.297658 0.660273 0.137087
0.299397 0.660197 0.136965
0.302022 0.660594 0.137301
0.305272 0.66041 0.137011
0.311803 0.660471 0.136828
0.334798 0.660883 0.136248
0.359045 0.66125 0.135393
0.444434 0.670451 0.129778
0.530388 0.679515 0.123903
0.610254 0.687709 0.1196
0.689143 0.695506 0.116304
0.737102 0.69659 0.126635
0.780789 0.697505 0.143725
0.811658 0.698161 0.178363
0.835569 0.702571 0.237736
0.852415 0.710445 0.322759
0.861891 0.721904 0.402258
0.868498 0.734432 0.480766
0.873426 0.748623 0.530251
0.878111 0.762676 0.57496
0.881987 0.775753 0.603586
0.885634 0.78822 0.627466
0.888991 0.799725 0.645045
0.890043 0.803357 0.650462
0.890043 0.803372 0.650446
0.890043 0.803403 0.650401
0.305287 0.68127 0.161257
0.307225 0.682475 0.16434
0.309102 0.683513 0.16701
0.310796 0.684184 0.168719
0.312581 0.684947 0.170642
0.314168 0.685344 0.171679
0.315785 0.685695 0.17258
0.31754 0.686 0.173358
0.319463 0.686259 0.174014
0.321706 0.686336 0.174243
0.324681 0.686366 0.174304
0.329427 0.686244 0.173877
0.342123 0.686641 0.17406
0.357656 0.686885 0.172824
0.4262 0.693141 0.1664
0.495308 0.69929 0.159533
0.580911 0.708614 0.150454
0.665522 0.717586 0.142107
0.718807 0.720699 0.143542
0.7664 0.723461 0.152743
0.801114 0.724361 0.178027
0.828687 0.727886 0.226413
0.849653 0.733837 0.296117
0.860792 0.742657 0.375235
0.868711 0.752682 0.458183
0.873564 0.76347 0.512703
0.878187 0.774258 0.562264
0.882063 0.784741 0.594614
0.885725 0.794873 0.621241
0.889128 0.804868 0.640894
0.890074 0.807706 0.646265
0.890074 0.807736 0.646235
0.890074 0.807767 0.646204
0.321447 0.702327 0.212772
0.324147 0.704799 0.219333
0.326894 0.70724 0.225803
0.328588 0.708003 0.227756
0.330327 0.708736 0.229603
0.331899 0.709102 0.230472
0.333501 0.709438 0.23122
0.335348 0.70988 0.232212
0.337133 0.709972 0.232319
0.339422 0.710048 0.232303
0.342458 0.710079 0.23212
0.347265 0.710262 0.232059
0.357473 0.710292 0.2309
0.370535 0.710567 0.229282
0.416495 0.71368 0.222278
0.463264 0.716991 0.215335
0.551827 0.726513 0.1991
0.63975 0.735698 0.183612
0.69955 0.740307 0.178576
0.751751 0.744503 0.179141
0.788037 0.74696 0.189914
0.818723 0.750317 0.222705
0.844862 0.754513 0.272969
0.858763 0.761654 0.349966
0.869108 0.769726 0.433799
0.873716 0.778149 0.493156
0.878187 0.786496 0.54725
0.882109 0.794644 0.583871
0.885801 0.802655 0.613504
0.88925 0.810697 0.635798
0.890089 0.812665 0.641215
0.890089 0.812696 0.641184
0.890089 0.812726 0.641154
0.334585 0.723629 0.280476
0.337163 0.726345 0.289479
0.339452 0.728206 0.295201
0.341024 0.728771 0.297154
0.342611 0.729351 0.299489
0.344213 0.729732 0.301076
0.345785 0.729976 0.302037
0.347784 0.730175 0.302785
0.350134 0.730343 0.303319
0.353155 0.73051 0.303716
0.35697 0.730404 0.302907
0.362493 0.730663 0.303319
0.372061 0.730434 0.301076
0.384695 0.730678 0.299245
0.418616 0.732799 0.294041
0.454368 0.735058 0.287831
0.537224 0.743465 0.269734
0.61828 0.751568 0.252354
0.681682 0.757504 0.240879
0.737102 0.762264 0.233387
0.776715 0.765438 0.235142
0.808347 0.768643 0.253346
0.834546 0.771557 0.2822
0.852461 0.777279 0.343465
0.868315 0.783597 0.412268
0.873472 0.791165 0.474296
0.878264 0.798184 0.530282
0.882216 0.804654 0.571221
0.885893 0.811063 0.603693
0.889342 0.817441 0.628992
0.890074 0.81883 0.634226
0.890074 0.818875 0.63418
0.890074 0.818906 0.634134
0.344884 0.745495 0.36556
0.346807 0.746838 0.370611
0.348531 0.747539 0.373266
0.350271 0.748135 0.37557
0.3523 0.748379 0.376425
0.35462 0.748653 0.377401
0.356786 0.748806 0.377859
0.359686 0.748959 0.378027
0.363165 0.749096 0.377951
0.367254 0.749142 0.377356
0.372671 0.749386 0.377218
0.379019 0.749371 0.375784
0.388968 0.749508 0.37409
0.401572 0.749844 0.371847
0.427604 0.751308 0.366903
0.457176 0.753185 0.360967
0.529686 0.760067 0.343084
0.60206 0.766934 0.324681
0.666987 0.77377 0.308995
0.723354 0.779019 0.295888
0.765805 0.782605 0.290761
0.79855 0.785168 0.294591
0.824369 0.787442 0.305867
0.84567 0.791775 0.349004
0.865095 0.796551 0.398566
0.872175 0.803052 0.458564
0.87837 0.809171 0.513802
0.882322 0.814557 0.5579
0.885969 0.819608 0.593042
0.889448 0.824475 0.621485
0.890043 0.825376 0.626413
0.890043 0.825422 0.626352
0.890043 0.825513 0.626245
0.368505 0.759441 0.422232
0.371984 0.760479 0.426627
0.375219 0.761334 0.430137
0.378027 0.761913 0.431891
0.380652 0.762387 0.433112
0.382956 0.762661 0.433341
0.385824 0.763195 0.434562
0.388815 0.763561 0.434852
0.391959 0.763851 0.434669
0.396307 0.764385 0.435004
0.401099 0.764767 0.434501
0.407797 0.765377 0.434073
0.4177 0.76611 0.432776
0.430808 0.767117 0.430793
0.45684 0.769177 0.426078
0.486046 0.771695 0.420935
0.54229 0.776883 0.407492
0.599893 0.782345 0.393973
0.659007 0.788128 0.379431
0.71165 0.793072 0.367773
0.755764 0.796597 0.358511
0.789471 0.799268 0.35697
0.817594 0.801663 0.360189
0.837827 0.804562 0.378103
0.856413 0.807828 0.401129
0.868833 0.813413 0.449973
0.878462 0.818708 0.497978
0.882399 0.823667 0.544274
0.886046 0.827909 0.581582
0.889525 0.831998 0.612772
0.890013 0.832547 0.617243
0.890013 0.832593 0.617182
0.890013 0.832639 0.617136
0.404364 0.772839 0.471778
0.410422 0.774227 0.476188
0.415106 0.775296 0.479408
0.419913 0.776196 0.480766
0.423941 0.776913 0.481498
0.427939 0.7776 0.481971
0.431525 0.778195 0.482124
0.435462 0.778805 0.482109
0.439567 0.779431 0.482033
0.444465 0.780148 0.481804
0.449638 0.780819 0.481239
0.45684 0.78175 0.480644
0.467216 0.783017 0.479774
0.479591 0.784298 0.477852
0.501289 0.786221 0.473594
0.525917 0.78851 0.468894
0.566949 0.792432 0.459953
0.611246 0.79675 0.45034
0.660441 0.801358 0.438239
0.706508 0.805417 0.427115
0.74847 0.808927 0.417914
0.781643 0.811658 0.413794
0.810895 0.813886 0.411475
0.831235 0.816098 0.417823
0.849943 0.818463 0.427741
0.864073 0.822278 0.45742
0.87509 0.826261 0.491112
0.881239 0.830777 0.532403
0.885817 0.834653 0.569406
0.889387 0.838361 0.603616
0.889769 0.838834 0.607187
0.889769 0.838865 0.607126
0.889769 0.838941 0.606989
0.468132 0.787579 0.511818
0.474586 0.789059 0.514611
0.479667 0.790204 0.516289
0.483848 0.791119 0.516915
0.489708 0.792416 0.518441
0.492973 0.793057 0.518257
0.497841 0.794049 0.518929
0.502556 0.794965 0.519188
0.506981 0.795789 0.519127
0.511666 0.796613 0.518715
0.517662 0.797711 0.5187
0.524041 0.798718 0.517922
0.532097 0.799863 0.516823
0.541787 0.801114 0.515328
0.556222 0.802625 0.512795
0.57258 0.804364 0.509834
0.599557 0.807233 0.504768
0.630014 0.810239 0.498131
0.667399 0.813794 0.48986
0.705089 0.817121 0.481193
0.743084 0.820279 0.472618
0.775143 0.822721 0.466148
0.804486 0.824842 0.460533
0.825284 0.826642 0.461753
0.844556 0.828382 0.464332
0.858579 0.830274 0.472908
0.87068 0.832883 0.490867
0.879683 0.836759 0.523384
0.885252 0.840436 0.557794
0.889082 0.844129 0.593942
0.889357 0.844419 0.596536
0.889342 0.844465 0.596384
0.889342 0.84448 0.596307
0.529717 0.80264 0.544091
0.535988 0.804074 0.545663
0.540276 0.805005 0.54612
0.545342 0.806088 0.546868
0.551202 0.80737 0.547936
0.554925 0.808011 0.547799
0.559335 0.808789 0.547906
0.564233 0.809644 0.548074
0.568063 0.810224 0.547677
0.572686 0.810941 0.547311
0.577508 0.811673 0.546929
0.583108 0.812467 0.546365
0.588922 0.813169 0.545205
0.596246 0.814054 0.543984
