public/textures/LUTs/ERA.CUBE
TITLE "Generated by Resolve"
LUT_3D_SIZE 5
0 0 0
0.215488 0.00326543 0.00489815
0.701366 0.0458381 0.0384527
0.880018 0.58822 0.541726
0.88893 0.745098 0.658991
0.002121 0.172396 0.00105287
0.164218 0.182559 0.00309758
0.723201 0.149645 0.0499428
0.872343 0.624674 0.545922
0.889082 0.771298 0.657908
0.228305 0.593347 0.0859693
0.244388 0.598627 0.0896468
0.66598 0.631724 0.101213
0.868132 0.697414 0.517311
0.889921 0.796689 0.65568
0.404364 0.772839 0.471778
0.439567 0.779431 0.482033
0.566949 0.792432 0.459953
0.849943 0.818463 0.427741
0.889769 0.838941 0.606989
0.65008 0.832151 0.602136
0.676143 0.83534 0.600244
0.707469 0.838102 0.592462
0.833844 0.847181 0.565454
0.887434 0.851682 0.573831
0.00236515 0.00105287 0.0921187
0.205341 0.00137331 0.114855
0.681254 0.0276493 0.0767834
0.88043 0.579767 0.558145
0.88986 0.748257 0.678645
0.000885023 0.132616 0.0962997
0.162875 0.153735 0.129
0.737255 0.169741 0.151431
0.877852 0.648539 0.590524
0.88983 0.772305 0.683665
0.228305 0.593332 0.114153
0.245289 0.599954 0.118273
0.670481 0.633265 0.133547
0.870497 0.704326 0.555459
0.890669 0.798886 0.679194
0.397971 0.771771 0.501228
0.434821 0.779248 0.508705
0.573159 0.79881 0.494438
0.852354 0.824552 0.467979
0.8907 0.842771 0.632334
0.651026 0.834562 0.627405
0.677043 0.838392 0.626337
0.709865 0.841947 0.619852
0.836561 0.851011 0.594736
0.888747 0.855894 0.604929
0.0111391 0.00251774 0.449378
0.135164 0.00199893 0.498283
0.685054 0.00378424 0.52929
0.86952 0.511284 0.608927
0.891234 0.744762 0.697978
0.00358587 0.054078 0.457176
0.0489509 0.0339666 0.495415
0.70573 0.0221866 0.551949
0.881865 0.610849 0.636637
0.890532 0.766781 0.700175
0.0181125 0.464454 0.446296
0.0283055 0.471168 0.45687
0.672023 0.659403 0.59794
0.877226 0.701518 0.635996
0.8907 0.788708 0.700114
0.329137 0.734722 0.537667
0.37435 0.746166 0.548577
0.564706 0.804517 0.575509
0.855726 0.836118 0.55555
0.89134 0.845273 0.650904
0.64062 0.833005 0.652369
0.671305 0.840253 0.655894
0.712718 0.846616 0.655253
0.839597 0.856443 0.635248
0.889952 0.860853 0.643214
0.00460822 0.0263981 0.613489
0.0115206 0.0264897 0.618662
0.74049 0.0104829 0.693263
0.855238 0.0287175 0.69131
0.899825 0.699229 0.754421
0.00244144 0.0428016 0.615259
0.00920119 0.041825 0.618936
0.755062 0.0219883 0.696101
0.86508 0.0558633 0.699901
0.898711 0.723598 0.765805
0.0238041 0.454398 0.641733
0.0348669 0.445991 0.659281
0.292317 0.365148 0.702403
0.87538 0.386526 0.746395
0.897231 0.752346 0.775189
0.103975 0.615976 0.594278
0.123415 0.618265 0.598016
0.294499 0.668055 0.638117
0.859846 0.852506 0.766812
0.894804 0.849867 0.766323
0.551781 0.78912 0.708034
0.589746 0.80502 0.721889
0.663935 0.83267 0.743236
0.844785 0.870787 0.758358
0.893645 0.873289 0.757107
0.000900282 0.0270237 0.623148
0.00645457 0.0265354 0.623423
0.365179 0.0456855 0.682979
0.857099 0.0190585 0.706508
0.884642 0.1299 0.717952
0.000854505 0.0425879 0.625422
0.00663767 0.0419928 0.625269
0.155398 0.0486458 0.656031
0.860822 0.0294041 0.706691
0.884062 0.18999 0.723842
0.031754 0.352712 0.684565
0.0395056 0.350271 0.685206
0.0245975 0.200351 0.662409
0.871748 0.12282 0.716793
0.891402 0.481773 0.768277
0.0789197 0.609064 0.608484
0.0874037 0.609735 0.608499
0.116091 0.611887 0.61004
0.842496 0.850233 0.792309
0.895491 0.848264 0.789944
0.451179 0.74023 0.700435
0.498054 0.760983 0.71574
0.594781 0.804181 0.747402
0.844221 0.873732 0.790082
0.894804 0.87657 0.787167
