public/textures/LUTs/ERA.CUBE
TITLE "Generated by Resolve"
LUT_3D_SIZE 9
0 0 0
0.0199588 0.000503548 0.000518807
0.215488 0.00326543 0.00489815
0.518486 0.010605 0.0154421
0.701366 0.0458381 0.0384527
0.835752 0.276829 0.268513
0.880018 0.58822 0.541726
0.884184 0.711437 0.633158
0.88893 0.745098 0.658991
0.000564584 0.0209659 0.000564584
0.0177005 0.0209354 0.000793469
0.211872 0.0161135 0.00376898
0.521813 0.0187076 0.014374
0.712169 0.0696727 0.0411841
0.843824 0.334279 0.309255
0.877577 0.6094 0.548486
0.884352 0.727092 0.636286
0.888884 0.754726 0.657984
0.002121 0.172396 0.00105287
0.00657664 0.175982 0.00112917
0.164218 0.182559 0.00309758
0.519478 0.144915 0.016434
0.723201 0.149645 0.0499428
0.85034 0.413367 0.34667
0.872343 0.624674 0.545922
0.883833 0.743511 0.635203
0.889082 0.771298 0.657908
0.0884108 0.414878 0.0302281
0.0964523 0.420386 0.0314794
0.126192 0.420645 0.0322576
0.456367 0.442817 0.0592813
0.715007 0.395697 0.0893873
0.827253 0.474739 0.31545
0.868208 0.650904 0.545159
0.884703 0.762615 0.638666
0.88957 0.785595 0.659129
0.228305 0.593347 0.0859693
0.236896 0.597421 0.0885786
0.244388 0.598627 0.0896468
0.340414 0.603296 0.0956893
0.66598 0.631724 0.101213
0.820508 0.625864 0.220081
0.868132 0.697414 0.517311
0.885374 0.778088 0.635035
0.889921 0.796689 0.65568
0.321447 0.702327 0.212772
0.330327 0.708736 0.229603
0.337133 0.709972 0.232319
0.357473 0.710292 0.2309
0.551827 0.726513 0.1991
0.788037 0.74696 0.189914
0.869108 0.769726 0.433799
0.885801 0.802655 0.613504
0.890089 0.812726 0.641154
0.404364 0.772839 0.471778
0.423941 0.776913 0.481498
0.439567 0.779431 0.482033
0.467216 0.783017 0.479774
0.566949 0.792432 0.459953
0.74847 0.808927 0.417914
0.849943 0.818463 0.427741
0.885817 0.834653 0.569406
0.889769 0.838941 0.606989
0.629648 0.827222 0.591913
0.648142 0.830335 0.594003
0.66363 0.832441 0.593729
0.678218 0.83415 0.591943
0.70161 0.836591 0.588159
0.757443 0.841199 0.57641
0.832395 0.846693 0.563134
0.879179 0.85037 0.568536
0.887404 0.851621 0.573358
0.65008 0.832151 0.602136
0.665431 0.834287 0.602731
0.676143 0.83534 0.600244
0.687587 0.836362 0.597192
0.707469 0.838102 0.592462
0.760082 0.842115 0.579782
0.833844 0.847181 0.565454
0.880186 0.85066 0.569909
0.887434 0.851682 0.573831
0.000503548 0.000503548 0.0175631
0.0195315 0.000717174 0.0189212
0.21001 0.00265507 0.0182803
0.513573 0.00975052 0.0231022
0.695506 0.0417639 0.0418708
0.83093 0.24715 0.255299
0.880339 0.580575 0.54493
0.884565 0.708858 0.639536
0.889357 0.746609 0.668254
0.000762951 0.0192264 0.0177157
0.0175479 0.0184939 0.0185245
0.226078 0.0131533 0.0173342
0.536278 0.0184176 0.0245212
0.719402 0.0793774 0.0541543
0.84387 0.331151 0.329809
0.879622 0.618112 0.566201
0.885206 0.729824 0.649729
0.889342 0.756085 0.670039
0.0018616 0.170443 0.00663767
0.00621042 0.175845 0.00630198
0.167712 0.181338 0.00849927
0.526131 0.147112 0.0228885
0.728801 0.163714 0.0628672
0.852872 0.422873 0.372015
0.874739 0.637583 0.56759
0.885267 0.749142 0.652491
0.889448 0.771771 0.671229
0.0887312 0.415335 0.0350347
0.0971389 0.421424 0.0362554
0.126741 0.422141 0.0370642
0.460807 0.443976 0.0648356
0.71693 0.397742 0.0997635
0.830945 0.485283 0.339498
0.870039 0.65742 0.561975
0.885313 0.764828 0.651331
0.889937 0.786709 0.670726
0.229847 0.594781 0.0928664
0.238514 0.59913 0.0956588
0.245914 0.600137 0.0966812
0.344335 0.604654 0.102632
0.668605 0.633585 0.107576
0.822614 0.629114 0.233875
0.869322 0.701228 0.535836
0.885969 0.78024 0.647807
0.890333 0.797971 0.667231
0.323842 0.707271 0.23415
0.33077 0.710811 0.242634
0.337743 0.712215 0.24567
0.35848 0.712673 0.244495
0.556466 0.728954 0.209781
0.789853 0.748959 0.199008
0.869993 0.773281 0.452445
0.886519 0.80499 0.627436
0.890578 0.814298 0.652827
0.40473 0.773877 0.489738
0.423346 0.777417 0.494438
0.439994 0.780499 0.49543
0.468315 0.784894 0.493568
0.570993 0.795605 0.475731
0.751431 0.811826 0.434501
0.851102 0.821347 0.446601
0.886488 0.836927 0.584573
0.890242 0.840879 0.619318
0.632151 0.828962 0.605539
0.650629 0.832258 0.607721
0.666087 0.834455 0.607416
0.681086 0.836347 0.605982
0.70396 0.838788 0.602197
0.759258 0.843458 0.591058
0.833555 0.848753 0.578424
0.880385 0.852552 0.583597
0.88806 0.853666 0.588495
0.654063 0.834531 0.616724
0.665507 0.835813 0.615335
0.676768 0.836988 0.613077
0.68835 0.838071 0.610132
0.708553 0.839963 0.605478
0.761547 0.844053 0.593027
0.835233 0.848981 0.579156
0.881437 0.852796 0.584955
0.88809 0.853773 0.589273
0.00236515 0.00105287 0.0921187
0.016968 0.00102235 0.108064
0.205341 0.00137331 0.114855
0.507958 0.00654612 0.0910811
0.681254 0.0276493 0.0767834
0.826596 0.202716 0.271656
0.88043 0.579767 0.558145
0.885466 0.710262 0.650599
0.88986 0.748257 0.678645
0.00138857 0.00920119 0.0852064
0.0109102 0.00775158 0.110567
0.21973 0.00724804 0.128908
0.526406 0.0137331 0.0986648
0.70106 0.0460059 0.0908522
0.83505 0.274052 0.325811
0.881209 0.612833 0.573236
0.885145 0.727977 0.657099
0.889723 0.757855 0.679744
0.000885023 0.132616 0.0962997
0.00520333 0.133059 0.101686
0.162875 0.153735 0.129
0.544869 0.151843 0.125841
0.737255 0.169741 0.151431
0.85095 0.403464 0.407721
0.877852 0.648539 0.590524
0.886061 0.750942 0.666926
0.88983 0.772305 0.683665
0.0738231 0.407294 0.0921492
0.0829023 0.414481 0.093492
0.110842 0.416709 0.0899672
0.460121 0.435889 0.112108
0.720317 0.401617 0.148928
0.839017 0.502586 0.390463
0.872557 0.665171 0.582696
0.886397 0.768475 0.667735
0.890272 0.787015 0.684382
0.228305 0.593332 0.114153
0.237034 0.597742 0.117998
0.245289 0.599954 0.118273
0.344564 0.604944 0.126665
0.670481 0.633265 0.133547
0.825025 0.631785 0.266911
0.870497 0.704326 0.555459
0.886503 0.781659 0.661128
0.890669 0.798886 0.679194
0.32372 0.709926 0.257755
0.330709 0.713695 0.266773
0.337255 0.714656 0.267781
0.358312 0.716396 0.270619
0.55877 0.732204 0.232853
0.79147 0.751446 0.218677
0.870787 0.776577 0.473091
0.887205 0.806867 0.641428
0.891096 0.815702 0.665446
0.397971 0.771771 0.501228
0.417243 0.775525 0.506493
0.434821 0.779248 0.508705
0.468406 0.786084 0.510018
0.573159 0.79881 0.494438
0.753643 0.815244 0.455344
0.852354 0.824552 0.467979
0.88719 0.839246 0.600198
0.8907 0.842771 0.632334
0.629465 0.828855 0.616556
0.649195 0.832944 0.619959
0.667491 0.836088 0.621317
0.68278 0.838254 0.620325
0.706142 0.841031 0.617304
0.761059 0.845838 0.607019
0.834836 0.850813 0.594141
0.881575 0.85478 0.599527
0.888716 0.855787 0.604135
0.651026 0.834562 0.627405
0.663218 0.836423 0.627039
0.677043 0.838392 0.626337
0.689387 0.839841 0.624033
0.709865 0.841947 0.619852
0.763149 0.84622 0.607965
0.836561 0.851011 0.594736
0.882612 0.855024 0.600931
0.888747 0.855894 0.604929
0.00726329 0.00177005 0.290074
0.0144045 0.00164797 0.313237
0.182513 0.00140383 0.346639
0.511833 0.00225834 0.352621
0.681468 0.0139773 0.303761
0.821576 0.15024 0.378027
0.877897 0.566064 0.573938
0.886732 0.711452 0.662882
0.890471 0.748669 0.689052
0.00526436 0.00712596 0.285954
0.0117342 0.0068513 0.311803
0.192523 0.00593576 0.361624
0.526711 0.00715648 0.36791
0.695567 0.0204471 0.328069
0.832166 0.212818 0.419364
0.881346 0.604868 0.590463
0.886015 0.727443 0.667796
0.890181 0.75758 0.688807
0.00123598 0.107561 0.272953
0.00543221 0.102174 0.303838
0.100099 0.0945754 0.358526
0.526833 0.0719005 0.387655
0.720256 0.0644846 0.34789
0.838788 0.321447 0.457679
0.880858 0.642054 0.602945
0.885893 0.746685 0.672816
0.890089 0.771786 0.691402
0.0133974 0.313542 0.287999
0.0177615 0.317998 0.297154
0.0318914 0.319829 0.305562
0.423133 0.420203 0.409674
0.733852 0.422354 0.42417
0.852293 0.502068 0.496132
0.877043 0.670939 0.609888
0.887007 0.76669 0.680018
0.890379 0.784421 0.694438
0.163134 0.580285 0.305806
0.172473 0.586694 0.313558
0.182834 0.590799 0.313329
0.307149 0.611368 0.319768
0.674708 0.644068 0.296345
0.830198 0.639094 0.374456
0.871656 0.703151 0.57554
0.886961 0.780453 0.672557
0.890822 0.796658 0.689891
0.318608 0.722942 0.352895
0.325383 0.726894 0.361563
0.333181 0.729198 0.364263
0.353048 0.730343 0.362966
0.559396 0.743709 0.324865
0.795636 0.760616 0.30042
0.871595 0.779828 0.496086
0.887633 0.807019 0.651469
0.891295 0.815412 0.674372
0.381964 0.764492 0.514702
0.401892 0.768658 0.520287
0.424018 0.773953 0.524651
0.460502 0.783108 0.528679
0.573785 0.802563 0.521202
0.75642 0.819944 0.485283
0.853605 0.828473 0.495872
0.887785 0.841093 0.612787
0.89102 0.844083 0.641657
0.625711 0.828305 0.627604
0.646204 0.833097 0.631724
0.666041 0.837125 0.634272
0.684459 0.840208 0.635065
0.708598 0.843351 0.633051
0.762753 0.848203 0.623377
0.836103 0.852964 0.610651
0.882597 0.857023 0.615946
0.889235 0.857847 0.619867
0.647105 0.834287 0.638163
0.660029 0.836713 0.638575
0.674907 0.839338 0.638804
0.690242 0.841596 0.638254
0.711315 0.844022 0.634897
0.764996 0.848493 0.62385
0.837934 0.853193 0.611368
0.883619 0.857252 0.61735
0.889265 0.857954 0.620722
0.0111391 0.00251774 0.449378
0.0151217 0.00233463 0.465171
0.135164 0.00199893 0.498283
0.507149 0.00161746 0.532204
0.685054 0.00378424 0.52929
0.810147 0.0772106 0.533455
0.86952 0.511284 0.608927
0.88957 0.707988 0.675425
0.891234 0.744762 0.697978
0.00973526 0.00750744 0.447135
0.0139467 0.00732433 0.4654
0.108232 0.00656138 0.502861
0.522576 0.00590524 0.542473
0.695979 0.00935378 0.540261
0.825895 0.112261 0.554238
0.876387 0.554269 0.621607
0.888014 0.722576 0.680262
0.890898 0.752865 0.698085
0.00358587 0.054078 0.457176
0.00758373 0.0434272 0.472419
0.0489509 0.0339666 0.495415
0.500038 0.0197757 0.550805
0.70573 0.0221866 0.551949
0.837629 0.185718 0.577005
0.881865 0.610849 0.636637
0.886976 0.740078 0.684596
0.890532 0.766781 0.700175
0.00166323 0.298146 0.436805
0.00531014 0.300252 0.463676
0.0162356 0.289265 0.488075
0.310246 0.309682 0.56556
0.714778 0.287175 0.601831
0.836072 0.394827 0.6038
0.883345 0.659632 0.645121
0.8869 0.757336 0.687419
0.890425 0.779553 0.70164
0.0181125 0.464454 0.446296
0.023209 0.469596 0.452613
0.0283055 0.471168 0.45687
0.126452 0.496696 0.4813
0.672023 0.659403 0.59794
0.840558 0.654322 0.595117
0.877226 0.701518 0.635996
0.887694 0.773663 0.687984
0.8907 0.788708 0.700114
0.21825 0.68632 0.500114
0.224109 0.688579 0.50396
0.231769 0.690593 0.505928
0.249546 0.693172 0.506493
0.531838 0.75581 0.524285
0.803342 0.785473 0.508629
0.873915 0.786526 0.562142
0.887984 0.804974 0.662516
0.89134 0.812406 0.682261
0.329137 0.734722 0.537667
0.349386 0.739101 0.543206
0.37435 0.746166 0.548577
0.417273 0.759808 0.55668
0.564706 0.804517 0.575509
0.759487 0.829801 0.553674
0.855726 0.836118 0.55555
0.888502 0.843229 0.629358
0.89134 0.845273 0.650904
0.617975 0.825895 0.642008
0.640085 0.832059 0.647471
0.662333 0.83769 0.651621
0.682445 0.841733 0.653437
0.71014 0.845991 0.653559
0.765179 0.851316 0.645563
0.837766 0.856168 0.63418
0.883497 0.859953 0.638758
0.889906 0.860685 0.641886
0.64062 0.833005 0.652369
0.654856 0.836469 0.6542
0.671305 0.840253 0.655894
0.687861 0.843168 0.65626
0.712718 0.846616 0.655253
0.767514 0.851637 0.646311
0.839597 0.856443 0.635248
0.884581 0.860227 0.640589
0.889952 0.860853 0.643214
0.011017 0.00556954 0.55906
0.0129091 0.00848402 0.568261
0.0412451 0.0110628 0.584909
0.491844 0.014023 0.635935
0.70547 0.00444038 0.639353
0.78938 0.0155184 0.637064
0.867781 0.320333 0.670985
0.893477 0.681056 0.706203
0.894209 0.736126 0.717052
0.0102846 0.011368 0.558572
0.0123445 0.0148623 0.568734
0.0257572 0.0182498 0.584772
0.501228 0.0208133 0.642985
0.715816 0.00924697 0.647318
0.798459 0.021973 0.645533
0.867048 0.374365 0.685084
0.894331 0.708049 0.713619
0.893553 0.74284 0.719585
0.00520333 0.0368811 0.562051
0.0077821 0.0375067 0.570504
0.0174716 0.0363317 0.582742
0.386877 0.0379034 0.640986
0.717403 0.0161746 0.653117
0.807141 0.0354772 0.653986
0.871885 0.445197 0.702312
0.892348 0.72755 0.718685
0.89247 0.75552 0.722377
0.0177462 0.247791 0.593484
0.0177615 0.23125 0.600549
0.0188754 0.200076 0.605509
0.134615 0.157656 0.629175
0.700938 0.0904707 0.665858
0.818494 0.116121 0.670146
0.87776 0.527794 0.718242
0.890608 0.74342 0.722225
0.891798 0.767117 0.724361
0.00421149 0.456733 0.53785
0.0087892 0.458228 0.547311
0.0164797 0.457404 0.56231
0.0437018 0.454414 0.582071
0.570626 0.567742 0.703883
0.820111 0.569589 0.725368
0.882689 0.657969 0.72282
0.889632 0.758602 0.722683
0.891371 0.776989 0.7243
0.0633097 0.576699 0.546639
0.0670634 0.578332 0.549798
0.0717174 0.579004 0.551904
0.0824445 0.579309 0.552956
0.396933 0.679545 0.632731
0.805341 0.797223 0.712352
0.876265 0.789273 0.707317
0.88954 0.798337 0.717205
0.891981 0.803235 0.722759
0.179446 0.655192 0.563455
0.203555 0.660273 0.569146
0.234272 0.668055 0.575586
0.283665 0.682231 0.586313
0.477119 0.756909 0.638621
0.761868 0.844724 0.686809
0.859174 0.849577 0.67985
0.890181 0.848463 0.68893
0.892332 0.848585 0.69395
0.586984 0.810208 0.669093
0.612757 0.819699 0.677745
0.639475 0.829007 0.685069
0.665705 0.837324 0.690974
0.702327 0.847211 0.69662
0.767803 0.857435 0.695979
0.840299 0.863157 0.68896
0.884993 0.866056 0.690211
0.891173 0.866484 0.691585
0.614816 0.821408 0.679362
0.630838 0.82678 0.684764
0.650263 0.833021 0.689784
0.671305 0.839261 0.69427
0.704234 0.847822 0.699031
0.770047 0.857877 0.698253
0.842206 0.863584 0.691508
0.886244 0.866423 0.693049
0.891234 0.866773 0.694224
0.00460822 0.0263981 0.613489
0.00541695 0.0266423 0.615946
0.0115206 0.0264897 0.618662
0.150851 0.0295567 0.644816
0.74049 0.0104829 0.693263
0.813489 0.0158389 0.694865
0.855238 0.0287175 0.69131
0.889418 0.539742 0.750347
0.899825 0.699229 0.754421
0.00430304 0.0325933 0.613809
0.00531014 0.032929 0.616449
0.0107729 0.032639 0.618631
0.101839 0.0350652 0.639017
0.751659 0.0159915 0.694911
0.823209 0.0207218 0.696437
0.860227 0.038056 0.695125
0.893812 0.581109 0.75967
0.899535 0.70486 0.760052
0.00244144 0.0428016 0.615259
0.0040589 0.0425727 0.617411
0.00920119 0.041825 0.618936
0.0315099 0.0428016 0.629236
0.755062 0.0219883 0.696101
0.830076 0.0273594 0.697841
0.86508 0.0558633 0.699901
0.895216 0.616632 0.765637
0.898711 0.723598 0.765805
0.000976577 0.111849 0.62916
0.00328069 0.100801 0.629602
0.0081178 0.0861524 0.628443
0.0150149 0.0712444 0.628779
0.701213 0.0340124 0.696254
0.824613 0.0432288 0.700435
0.871336 0.10309 0.707469
0.896117 0.652781 0.771725
0.897932 0.739223 0.770962
0.0238041 0.454398 0.641733
0.028275 0.454368 0.649348
0.0348669 0.445991 0.659281
0.0368048 0.415 0.665782
0.292317 0.365148 0.702403
0.800916 0.305837 0.735637
0.87538 0.386526 0.746395
0.895689 0.698817 0.776776
0.897231 0.752346 0.775189
0.0497292 0.560616 0.576288
0.0535286 0.561502 0.57937
0.0576028 0.560265 0.582635
0.0616465 0.556558 0.585855
0.154177 0.572931 0.608087
0.76788 0.777173 0.780972
0.873396 0.776471 0.780865
0.892134 0.786038 0.775326
0.894102 0.791577 0.773388
0.103975 0.615976 0.594278
0.113283 0.617014 0.596307
0.123415 0.618265 0.598016
0.145998 0.622477 0.602258
0.294499 0.668055 0.638117
0.745754 0.841657 0.767926
0.859846 0.852506 0.766812
0.892897 0.850385 0.764813
0.894804 0.849867 0.766323
0.510277 0.770047 0.69398
0.542626 0.78436 0.705486
0.575296 0.798489 0.716243
0.609674 0.812436 0.726894
0.663142 0.832425 0.741634
0.76054 0.861173 0.759823
0.843015 0.870481 0.756466
0.887526 0.872786 0.754742
0.893538 0.87306 0.754955
0.551781 0.78912 0.708034
0.568353 0.796139 0.714702
0.589746 0.80502 0.721889
0.616068 0.815244 0.729946
0.663935 0.83267 0.743236
0.762707 0.861402 0.761364
0.844785 0.870787 0.758358
0.888838 0.873045 0.756771
0.893645 0.873289 0.757107
0.00102235 0.0268101 0.621469
0.0018616 0.0266575 0.622095
0.00720226 0.026276 0.622919
0.0133669 0.0263676 0.62623
0.474235 0.0380255 0.688807
0.841642 0.018616 0.706065
0.857069 0.018967 0.705791
0.872633 0.0397498 0.707317
0.88864 0.232349 0.732799
0.000991836 0.0330968 0.622049
0.002121 0.03299 0.622705
0.0071107 0.0324559 0.623362
0.0127565 0.0324407 0.626322
0.453101 0.0429999 0.686748
0.843915 0.0228733 0.706676
0.859068 0.023209 0.706477
0.874235 0.0464027 0.708232
0.88455 0.150637 0.719982
0.000915541 0.0422065 0.623438
0.00234989 0.0421454 0.624079
0.00720226 0.041474 0.624567
0.012314 0.0413062 0.627161
0.272068 0.0480812 0.669154
0.845731 0.0289464 0.706874
0.860792 0.0294041 0.706706
0.877882 0.0844739 0.712657
0.884062 0.18999 0.723842
0.000854505 0.0546273 0.626047
0.00265507 0.0545663 0.626703
0.00746166 0.0541085 0.627253
0.0123903 0.0541695 0.629816
0.0514839 0.0572366 0.643183
0.847868 0.0383307 0.707652
0.863096 0.0391852 0.707576
0.880842 0.145785 0.719631
0.882216 0.261143 0.731701
0.0235447 0.396963 0.672068
0.0281529 0.387381 0.675807
0.0347295 0.358709 0.677775
0.0385595 0.300023 0.675883
0.0219272 0.175402 0.657618
0.80444 0.0936599 0.713771
0.871763 0.122499 0.716762
0.880781 0.354437 0.746624
0.891203 0.480537 0.768017
0.044892 0.556588 0.598001
0.0497292 0.560265 0.599435
0.0563363 0.563363 0.600763
0.0608988 0.562814 0.60148
0.0554971 0.54287 0.603189
0.651316 0.714321 0.771099
0.871168 0.740627 0.794995
0.894118 0.755901 0.794461
0.896529 0.763012 0.794614
0.0841688 0.60914 0.606363
0.0879683 0.609689 0.606714
0.0929427 0.609934 0.607248
0.0995956 0.610132 0.608011
0.12845 0.613535 0.611521
0.600427 0.783261 0.7476
0.850904 0.848844 0.792096
0.892851 0.8477 0.790112
0.895491 0.848096 0.789975
0.394278 0.71873 0.683696
0.432975 0.733928 0.695308
0.480995 0.754192 0.710506
0.524605 0.773266 0.724666
0.591638 0.802823 0.74641
0.737133 0.855329 0.784985
0.8421 0.873579 0.790204
0.889036 0.876341 0.787472
0.894804 0.87657 0.787167
0.452201 0.740673 0.700771
0.467247 0.747311 0.705669
0.499031 0.761425 0.71606
0.530755 0.775906 0.72665
0.596429 0.804883 0.747936
0.742824 0.856626 0.785641
0.844541 0.873762 0.790051
0.890272 0.876387 0.787396
0.894804 0.87657 0.787167
0.000900282 0.0270237 0.623148
0.00120546 0.0268711 0.623163
0.00645457 0.0265354 0.623423
0.0122988 0.0263981 0.625803
0.365179 0.0456855 0.682979
0.841856 0.0187381 0.706706
0.857099 0.0190585 0.706508
0.871504 0.0310826 0.706859
0.884642 0.1299 0.717952
0.000885023 0.0332952 0.623774
0.00154116 0.0332189 0.623774
0.00648508 0.0327153 0.623804
0.0119631 0.0326543 0.625834
0.332509 0.0489052 0.679545
0.84387 0.0228885 0.706676
0.859083 0.023209 0.706477
0.874327 0.0472419 0.708324
0.88455 0.150637 0.719982
0.000854505 0.0425879 0.625422
0.00178531 0.0425727 0.625406
0.00663767 0.0419928 0.625269
0.0117037 0.0416876 0.626871
0.155398 0.0486458 0.656031
0.845273 0.0290227 0.706889
0.860822 0.0294041 0.706691
0.877943 0.0854353 0.712764
0.884062 0.18999 0.723842
0.000854505 0.0548409 0.628214
0.00210575 0.0548714 0.628229
0.00691234 0.0545357 0.628138
0.011841 0.054612 0.62977
0.0380255 0.0568399 0.639582
0.846433 0.0386053 0.707698
0.863142 0.0391852 0.707576
0.880842 0.147189 0.719768
0.8822 0.261341 0.731716
0.031754 0.352712 0.684565
0.0345159 0.362081 0.686427
0.0395056 0.350271 0.685206
0.0418708 0.310414 0.680598
0.0245975 0.200351 0.662409
0.783246 0.101015 0.714229
0.871748 0.12282 0.716793
0.88098 0.356573 0.74699
0.891402 0.481773 0.768277
0.0529793 0.570993 0.603326
0.0558633 0.572259 0.603571
0.0606546 0.572091 0.603571
0.063859 0.569085 0.603021
0.0573587 0.549462 0.602335
0.589014 0.699901 0.755535
0.865644 0.74548 0.795254
0.894163 0.756222 0.794461
0.896513 0.763363 0.794614
0.0789197 0.609064 0.608484
0.0823377 0.609628 0.608499
0.0874037 0.609735 0.608499
0.0931716 0.609674 0.608499
0.116091 0.611887 0.61004
0.535531 0.757931 0.726833
0.842496 0.850233 0.792309
0.892866 0.847868 0.790097
0.895491 0.848264 0.789944
0.447898 0.738796 0.699367
0.461891 0.74493 0.703929
0.490593 0.757671 0.713298
0.519936 0.770886 0.722988
0.573159 0.794888 0.740566
0.71107 0.84683 0.778943
0.834043 0.872984 0.790692
0.88603 0.876219 0.787625
0.894804 0.87657 0.787167
0.451179 0.74023 0.700435
0.465675 0.746609 0.70515
0.498054 0.760983 0.71574
0.529747 0.775448 0.726314
0.594781 0.804181 0.747402
0.741466 0.856306 0.785473
0.844221 0.873732 0.790082
0.890379 0.876402 0.787396
0.894804 0.87657 0.787167
