public/textures/LUTs/EVEREST.CUBE
TITLE "Generated by Resolve"
LUT_3D_SIZE 9
0 0.0209049 0
0.00102235 0.0115663 0
0.274006 0 0
0.623102 0 0
0.910887 0 0
1 0 0
1 0 0
1 0 0
1 0 0
0 0.0474708 0
0 0.038529 0
0.258091 0.0157778 0
0.613123 0 0
0.902052 0 0
1 0 0
1 0 0
1 0 0
1 0 0
0 0.203616 0
0 0.198535 0
0.187488 0.184634 0
0.588312 0.14197 0
0.893614 0.101534 0
1 0.0873732 0
1 0.105974 0
1 0.137407 0
1 0.16968 0
0 0.456641 0
0 0.466773 0
0.0296178 0.475761 0
0.52163 0.45153 0
0.848432 0.423804 0
1 0.41796 0
1 0.44126 0
1 0.475059 0
1 0.507301 0
0 0.729397 0
0 0.745861 0
0 0.758129 0
0.46952 0.731228 0
0.805661 0.699916 0
0.999863 0.688838 0
1 0.705821 0
1 0.730739 0
1 0.751842 0
0 0.95903 0
0 0.970581 0
0 0.976257 0
0.47393 0.945083 0
0.803082 0.90309 0
0.997299 0.880247 0
1 0.882765 0
1 0.890578 0
1 0.895552 0
0 1 0
0 1 0
0.0470741 1 0
0.524895 1 0
0.82707 1 0
1 0.981628 0
1 0.970748 0
1 0.968734 0
1 0.966827 0
0 1 0
0 1 0
0.0942855 1 0
0.54316 1 0
0.83563 1 0
1 1 0
1 1 0
1 1 0
1 1 0
0 1 0
0 1 0
0.100557 1 0
0.543679 1 0
0.8336 1 0
1 1 0
1 1 0
1 1 0
1 1 0
0 0.0225376 0.0246128
0 0.0135195 0.0252995
0.247868 0 0.0184482
0.602075 0 0
0.89015 0 0
1 0 0
1 0 0
1 0 0
1 0 0
0 0.0497139 0.0127413
0 0.0407263 0.0128634
0.231785 0.0178531 0.00675975
0.592142 0 0
0.88159 0 0
1 0 0
1 0 0
1 0 0
1 0 0
0 0.207156 0
0 0.202792 0
0.166217 0.190005 0
0.57171 0.148943 0
0.87863 0.110277 0
1 0.0979477 0
1 0.117327 0
1 0.149828 0
1 0.1823 0.0128481
0 0.46685 0
0 0.478416 0
0.0209354 0.488609 0
0.510582 0.464744 0
0.836759 0.437125 0
1 0.430594 0
1 0.453895 0
1 0.487343 0
1 0.51873 0
0 0.742763 0
0 0.759075 0
0 0.770413 0
0.457908 0.743465 0
0.792584 0.711437 0
0.995911 0.699138 0
1 0.71545 0
1 0.738842 0
1 0.758724 0
0 0.96907 0
0 0.979934 0
0 0.984588 0
0.458595 0.954009 0
0.786954 0.910536 0
0.989578 0.88603 0
1 0.886488 0
1 0.892546 0
1 0.896574 0
0 1 0
0 1 0
0.0292515 1 0
0.504112 1 0
0.805814 1 0
0.992752 0.982025 0
1 0.970459 0
1 0.968002 0
1 0.965499 0
0 1 0
0 1 0
0.0654154 1 0
0.519112 1 0
0.812299 1 0
0.993454 1 0
1 1 0
1 1 0
1 1 0
0 1 0
0 1 0
0.0684367 1 0
0.518593 1 0
0.809369 1 0
0.991684 1 0
1 1 0
1 1 0
1 1 0
0 0.0223545 0.336309
0 0.0130159 0.338811
0.205447 0 0.331792
0.568765 0 0.28011
0.857114 0 0.218738
1 0 0.188266
1 0 0.199191
1 0 0.227756
1 0 0.258549
0 0.0496986 0.314168
0 0.0404059 0.316152
0.189715 0.017731 0.30837
0.558984 0 0.256886
0.849317 0 0.195132
1 0 0.166064
1 0 0.181262
1 0 0.215641
1 0 0.253773
0 0.209323 0.184756
0 0.205798 0.195651
0.128374 0.194476 0.206928
0.543236 0.154665 0.180438
0.852491 0.117983 0.151217
1 0.107164 0.158358
1 0.127947 0.21088
1 0.160342 0.278508
1 0.192905 0.34139
0 0.475441 0
0 0.488273 0.000488289
0.00173953 0.499336 0.0150149
0.486992 0.475975 0.0197757
0.813031 0.44802 0.0155337
1 0.441062 0.0226444
1 0.46424 0.049485
1 0.497124 0.106142
1 0.527687 0.166217
0 0.754055 0
0 0.770031 0
0 0.780774 0
0.432197 0.753353 0
0.767544 0.720623 0
0.984253 0.707637 0
1 0.722667 0
1 0.744549 0
1 0.7626 0
0 0.97705 0
0 0.98735 0
0 0.990951 0
0.429145 0.960479 0
0.75845 0.915328 0
0.967208 0.888869 0
1 0.887205 0
1 0.89192 0
1 0.894942 0
0 1 0
0 1 0
0.00109865 1 0
0.46804 1 0
0.772442 1 0
0.968719 0.980072 0
1 0.968124 0
1 0.965179 0
1 0.96231 0
0 1 0
0 1 0
0.0261997 1 0
0.481743 1 0
0.776593 1 0
0.968429 1 0
1 1 0
1 1 0
1 1 0
0 1 0
0 1 0
0.0265049 1 0
0.479377 1 0
0.773342 1 0
0.963363 1 0
1 1 0
1 1 0
1 1 0
0 0.0143435 0.7093
0 0.00476081 0.713008
0.134142 0 0.709636
0.516747 0 0.674449
0.805173 0 0.637049
0.99382 0 0.622522
1 0 0.632547
1 0 0.653101
1 0 0.67628
0 0.0420233 0.687388
0 0.0328527 0.690867
0.117388 0.0102235 0.687968
0.506905 0 0.654673
0.797681 0 0.619486
0.991043 0 0.607248
1 0 0.619974
1 0 0.644282
1 0 0.672084
0 0.204181 0.586099
0 0.201556 0.597787
0.063386 0.191653 0.612604
0.495781 0.153933 0.605188
0.806928 0.118975 0.595209
0.999512 0.109834 0.606149
1 0.131197 0.642206
1 0.163806 0.690669
1 0.195941 0.739513
0 0.478721 0.398093
0 0.491997 0.427726
0 0.504067 0.466575
0.439475 0.480323 0.483848
0.76556 0.452552 0.485969
0.985473 0.444938 0.499229
1 0.467475 0.531609
1 0.499336 0.570565
1 0.528557 0.6065
0 0.760067 0.282063
0 0.775555 0.318303
0 0.785519 0.358312
0.374746 0.757595 0.371572
0.715175 0.723873 0.365515
0.934157 0.709926 0.370459
1 0.7234 0.398001
1 0.743755 0.427588
1 0.75935 0.450645
0 0.980636 0.266728
0 0.990295 0.299214
0 0.99295 0.330831
0.366262 0.961135 0.329137
0.701427 0.914168 0.300175
0.90782 0.885618 0.281834
0.998047 0.882109 0.288853
1 0.885451 0.301625
1 0.887495 0.31043
0 1 0.344778
0 1 0.361883
0 1 0.372198
0.399237 1 0.34934
0.710597 1 0.297139
0.905547 0.972824 0.258045
0.994553 0.960037 0.249897
1 0.956359 0.251347
1 0.953216 0.253071
0 1 0.390814
0 1 0.392996
0 1 0.386282
0.410193 1 0.35169
0.712871 1 0.289204
0.903731 1 0.242542
0.991531 1 0.227985
1 1 0.225818
1 0.998535 0.224414
0 1 0.394736
0 1 0.392569
0 1 0.380392
0.406317 1 0.341146
0.708858 1 0.273487
0.898238 1 0.223209
0.986206 1 0.207401
1 1 0.204608
1 1 0.203342
0 0.00650034 1
0 0 1
0.055787 0 1
0.461936 0 1
0.752697 0 1
0.949065 0 1
1 0 1
1 0 1
1 0 1
0 0.0344396 1
0 0.025452 1
0.0411231 0.00526436 1
0.451987 0 0.999222
0.74583 0 0.996994
0.94696 0 0.996826
1 0 0.997909
1 0 0.999298
1 0 1
0 0.199115 0.989471
0 0.197345 0.991531
0.00421149 0.188998 0.994095
0.446662 0.152972 0.993164
0.761593 0.119524 0.992264
0.982574 0.111879 0.994003
1 0.133654 0.998764
1 0.16672 1
1 0.198688 1
0 0.47921 0.802716
0 0.49366 0.837278
0 0.506889 0.881849
0.394415 0.482567 0.897841
0.722881 0.453346 0.895521
0.946426 0.445945 0.90898
1 0.468452 0.947524
1 0.499336 0.988113
1 0.527794 0.993942
0 0.761746 0.681514
0 0.776654 0.716365
0 0.78674 0.757931
0.323842 0.757595 0.769146
0.671077 0.722896 0.760937
0.88893 0.707515 0.765209
0.995529 0.719905 0.79086
1 0.738659 0.820249
1 0.752178 0.842893
0 0.98056 0.664805
0 0.989563 0.69456
0 0.991272 0.725093
0.308644 0.957214 0.721492
0.652659 0.90808 0.696696
0.856611 0.877287 0.681208
0.955978 0.872419 0.685618
1 0.874693 0.694957
1 0.875776 0.701473
0 1 0.74049
0 1 0.75642
0 1 0.762509
0.336278 1 0.733089
0.657328 0.99762 0.686946
0.850828 0.960922 0.656931
0.942931 0.947555 0.65095
0.996078 0.943465 0.652064
1 0.940063 0.653437
0 1 0.785931
0 1 0.785367
0 1 0.773724
0.344564 1 0.732067
0.657893 1 0.677531
0.847593 1 0.642435
0.936843 0.996323 0.632547
0.990631 0.99028 0.631464
1 0.985962 0.630961
0 1 0.788617
0 1 0.782986
0 1 0.765713
0.339025 1 0.720043
0.653193 1 0.663569
0.84155 1 0.626932
0.930159 1 0.616938
0.98439 1 0.615824
1 1 0.615808
0 0.00285344 1
0 0 1
0.00764477 0 1
0.427726 0 1
0.720409 0 1
0.917296 0 1
1 0 1
1 0 1
1 0 1
0 0.0312505 1
0 0.0220493 1
0.00047303 0.00450141 1
0.417395 0 1
0.713512 0 1
0.915633 0 1
1 0 1
1 0 1
1 0 1
0 0.198459 1
0 0.197574 1
0 0.190875 1
0.418006 0.156191 1
0.735271 0.124376 1
0.958099 0.117769 1
1 0.140475 1
1 0.173373 1
1 0.204654 1
0 0.484642 1
0 0.499763 1
0 0.513313 1
0.366613 0.488746 1
0.697017 0.458732 1
0.920409 0.451698 1
1 0.473487 1
1 0.503853 1
1 0.531212 1
0 0.767788 0.9794
0 0.782406 0.992874
0 0.79205 0.999969
0.292882 0.762127 1
0.643519 0.726299 0.999893
0.859968 0.71017 0.999893
0.972412 0.721019 1
1 0.737789 1
1 0.749691 1
0 0.984146 0.963424
0 0.992279 0.985672
0 0.992935 0.994492
0.270909 0.957458 0.99295
0.620478 0.906447 0.984451
0.82266 0.873732 0.968887
0.920958 0.867475 0.97116
0.981842 0.869001 0.978973
1 0.869398 0.982773
0 1 0.998199
0 1 1
0 1 1
0.291585 1 0.994644
0.621057 0.994415 0.971511
0.814298 0.954147 0.940063
0.905913 0.940459 0.933181
0.962097 0.936019 0.933806
1 0.932418 0.934478
0 1 1
0 1 1
0 1 1
0.297108 1 0.993484
0.620432 1 0.960021
0.810071 1 0.92369
0.899184 0.988983 0.913176
0.953765 0.982712 0.911406
0.999146 0.977905 0.910521
0 1 1
0 1 1
0 1 1
0.290242 1 0.98996
0.615442 1 0.944686
0.803937 1 0.907301
0.892439 1 0.896437
0.947066 1 0.894575
0.994217 1 0.894499
0 0.00447089 1
0 0 1
0.00367742 0 1
0.416648 0 1
0.710094 0 1
0.907408 0 1
0.998291 0 1
1 0 1
1 0 1
0 0.0327306 1
0 0.0237583 1
0 0.00541695 1
0.406195 0 1
0.70341 0 1
0.90634 0 1
0.999512 0 1
1 0 1
1 0 1
0 0.203082 1
0 0.203189 1
0 0.19794 1
0.413031 0.165133 1
0.731579 0.134829 1
0.954711 0.128786 1
1 0.152193 1
1 0.185016 1
1 0.215702 1
0 0.4963 1
0 0.512489 1
0 0.525444 1
0.364508 0.500618 1
0.693217 0.470558 1
0.916106 0.462928 1
1 0.48423 1
1 0.513832 1
1 0.539956 1
0 0.779278 1
0 0.794034 1
0 0.802991 1
0.289616 0.772229 1
0.637446 0.735363 1
0.852796 0.717968 1
0.963851 0.727413 1
1 0.742306 1
1 0.752392 1
0 0.991547 1
0 0.999023 1
0 0.998642 1
0.262226 0.963317 1
0.609995 0.91014 1
0.810544 0.875685 1
0.907713 0.868452 1
0.967803 0.86891 1
1 0.868818 1
0 1 1
0 1 1
0 1 1
0.275532 1 1
0.607156 0.994186 1
0.799771 0.953307 1
0.890852 0.939116 1
0.946838 0.934386 1
0.994614 0.930587 1
0 1 1
0 1 1
0 1 1
0.278248 1 1
0.60531 1 1
0.794522 0.999817 1
0.883436 0.986969 1
0.938079 0.980667 1
0.984878 0.975875 1
0 1 1
0 1 1
0 1 1
0.270146 1 1
0.599771 1 1
0.788388 1 1
0.876799 1 1
0.931517 1 1
0.978668 1 1
0 0.00743114 1
0 0 1
0.00469978 0 1
0.412985 0 1
0.706844 0 1
0.904799 0 1
0.997665 0 1
1 0 1
1 0 1
0 0.0360723 1
0 0.0272984 1
0 0.00654612 1
0.403174 0 1
0.70106 0 1
0.90457 0 1
0.99913 0 1
1 0 1
1 0 1
0 0.209827 1
0 0.210971 1
0 0.207538 1
0.416678 0.176608 1
0.735225 0.147158 1
0.958877 0.141909 1
1 0.16553 1
1 0.197818 1
1 0.22829 1
0 0.509987 1
0 0.526558 1
0 0.540017 1
0.370413 0.514351 1
0.696834 0.484062 1
0.919219 0.476173 1
1 0.496773 1
1 0.525567 1
1 0.550408 1
0 0.792782 1
0 0.807431 1
0 0.815946 1
0.295079 0.783673 1
0.638758 0.745586 1
0.852689 0.727382 1
0.962264 0.735348 1
1 0.748241 1
1 0.75668 1
0 0.999786 1
0 1 1
0 1 1
0.262501 0.970077 1
0.60618 0.914794 1
0.805478 0.879255 1
0.901625 0.871015 1
0.961135 0.870649 1
1 0.870054 1
0 1 1
0 1 1
0 1 1
0.269001 1 1
0.600641 0.994949 1
0.792584 0.954208 1
0.883146 0.939605 1
0.939025 0.934646 1
0.986358 0.930632 1
0 1 1
0 1 1
0 1 1
0.269215 1 1
0.59762 1 1
0.786526 0.999817 1
0.875181 0.986908 1
0.929778 0.980514 1
0.976471 0.975769 1
0 1 1
0 1 1
0 1 1
0.26038 1 1
0.591852 1 1
0.780102 1 1
0.868482 1 1
0.923369 1 1
0.970565 1 1
0 0.0103761 1
0 0.00117494 1
0.00570687 0 1
0.410651 0 1
0.704692 0 1
0.903334 0 1
0.997452 0 1
1 0 1
1 0 1
0 0.0396887 1
0 0.030808 1
0 0.00975052 1
0.401205 0 1
0.699794 0 1
0.904158 0 1
0.999084 0 1
1 0 1
1 0 1
0 0.217121 1
0 0.21915 1
0 0.217258 1
0.421103 0.18761 1
0.740078 0.15964 1
0.96379 0.154726 1
1 0.178103 1
1 0.2103 1
1 0.240406 1
0 0.524086 1
0 0.540948 1
0 0.553841 1
0.37615 0.527596 1
0.701198 0.497276 1
0.92282 0.488792 1
1 0.508721 1
1 0.536263 1
1 0.560113 1
0 0.805982 1
0 0.820371 1
0 0.827985 1
0.301091 0.795254 1
0.640467 0.755673 1
0.853162 0.736324 1
0.960967 0.742443 1
1 0.753491 1
1 0.76051 1
0 1 1
0 1 1
0 1 1
0.263249 0.975769 1
0.603296 0.91931 1
0.801205 0.882506 1
0.896468 0.87335 1
0.955367 0.872511 1
0.99942 0.871366 1
0 1 1
0 1 1
0 1 1
0.263706 1 1
0.595071 0.995773 1
0.78645 0.955261 1
0.876585 0.940291 1
0.932189 0.93518 1
0.97937 0.930922 1
0 1 1
0 1 1
0 1 1
0.261707 1 1
0.591073 1 1
0.779736 0.999893 1
0.868177 0.987045 1
0.922728 0.980636 1
0.969345 0.975906 1
0 1 1
0 1 1
0 1 1
0.252201 1 1
0.585199 1 1
0.773266 1 1
0.861585 1 1
0.916548 1 1
0.963363 1 1
