public/textures/LUTs/EVEREST.CUBE
TITLE "Generated by Resolve"
LUT_3D_SIZE 33
0 0.0209049 0
0 0.0209049 0
0 0.0178378 0
0 0.0148165 0
0.00102235 0.0115663 0
0.0317845 0.00781262 0
0.103349 0.00302129 0
0.185 0.000289921 0
0.274006 0 0
0.367941 0 0
0.45626 0 0
0.540703 0 0
0.623102 0 0
0.699916 0 0
0.773404 0 0
0.844892 0 0
0.910887 0 0
0.970611 0 0
0.996262 0 0
1 0 0
1 0 0
1 0 0
1 0 0
1 0 0
1 0 0
1 0 0
1 0 0
1 0 0
1 0 0
1 0 0
1 0 0
1 0 0
1 0 0
0 0.0209049 0
0 0.0209049 0
0 0.0178531 0
0 0.014847 0
0.0010071 0.0115816 0
0.0313878 0.00782788 0
0.102892 0.0030518 0
0.184741 0.000289921 0
0.273747 0 0
0.367666 0 0
0.45626 0 0
0.540703 0 0
0.623362 0 0
0.70016 0 0
0.773922 0 0
0.845136 0 0
0.910857 0 0
0.970382 0 0
0.996201 0 0
1 0 0
1 0 0
1 0 0
1 0 0
1 0 0
1 0 0
1 0 0
1 0 0
1 0 0
1 0 0
1 0 0
1 0 0
1 0 0
1 0 0
0 0.0209201 0
0 0.0209201 0
0 0.0178988 0
0 0.0148623 0
0.000976577 0.0116121 0
0.0309758 0.0078584 0
0.102663 0.00306706 0
0.184451 0.00030518 0
0.273747 0 0
0.367666 0 0
0.456291 0 0
0.540413 0 0
0.622812 0 0
0.699657 0 0
0.773159 0 0
0.844419 0 0
0.910185 0 0
0.969757 0 0
0.995926 0 0
1 0 0
1 0 0
1 0 0
1 0 0
1 0 0
1 0 0
1 0 0
1 0 0
1 0 0
1 0 0
1 0 0
1 0 0
1 0 0
1 0 0
0 0.0209201 0
0 0.0209201 0
0 0.0179294 0
0 0.0148928 0
0.000976577 0.0116426 0
0.0303807 0.00788891 0
0.101762 0.0031281 0
0.183154 0.000320439 0
0.272068 0 0
0.365942 0 0
0.454688 0 0
0.538766 0 0
0.620981 0 0
0.697902 0 0
0.771466 0 0
0.842741 0 0
0.908598 0 0
0.968292 0 0
0.995483 0 0
1 0 0
1 0 0
1 0 0
1 0 0
1 0 0
1 0 0
1 0 0
1 0 0
1 0 0
1 0 0
1 0 0
1 0 0
1 0 0
1 0 0
0 0.0474708 0
0 0.0475624 0
0 0.0451362 0
0 0.0418708 0
0 0.038529 0
0.0212253 0.0348821 0
0.0872053 0.0302434 0
0.168704 0.0238499 0
0.258091 0.0157778 0
0.353643 0.00556954 0
0.445594 0.00209049 0
0.529915 0 0
0.613123 0 0
0.690364 0 0
0.764157 0 0
0.835767 0 0
0.902052 0 0
0.962234 0 0
0.993698 0 0
1 0 0
1 0 0
1 0 0
1 0 0
1 0 0
1 0 0
1 0 0
1 0 0
1 0 0
1 0 0
1 0 0
1 0 0
1 0 0
1 0 0
0 0.0835279 0
0 0.0835279 0
0 0.0807965 0
0 0.0778668 0
0 0.074464 0
0.0139162 0.0707103 0
0.0706951 0.0660258 0
0.151965 0.0600443 0
0.24329 0.0519722 0
0.341039 0.0415351 0
0.437125 0.0281987 0
0.522011 0.0145266 0
0.60621 0.00425727 0
0.684565 0 0
0.758831 0 0
0.830945 0 0
0.897673 0 0
0.958541 0 0
0.992508 0 0
1 0 0
1 0 0
1 0 0
1 0 0
1 0 0
1 0 0
1 0 0
1 0 0
1 0 0
1 0 0
1 0 0
1 0 0
1 0 0
1 0 0
0 0.119875 0
0 0.119875 0
0 0.117494 0
0 0.114519 0
0 0.111376 0
0.00708019 0.10808 0
0.0539864 0.103777 0
0.135698 0.0980392 0
0.229129 0.0905013 0
0.329137 0.0807507 0
0.430014 0.0679179 0
0.515709 0.0537881 0
0.601129 0.038941 0
0.680476 0.0249332 0
0.755611 0.0130312 0
0.82829 0.00657664 0
0.896208 0.00306706 0
0.958099 0.000640879 0
0.992432 0 0
1 0 0
1 0 0
1 0 0
1 0 0
1 0 0
1 0 0
1 0.000503548 0
1 0.00207523 0
1 0.00433356 0
1 0.00689708 0
1 0.00962844 0
1 0.0123598 0
1 0.0153658 0
1 0.0180667 0
0 0.159335 0
0 0.159335 0
0 0.157351 0
0 0.154742 0
0 0.152209 0
0.000442512 0.149432 0
0.0348363 0.145876 0
0.115984 0.140902 0
0.211917 0.134005 0
0.315038 0.125185 0
0.420188 0.113512 0
0.508965 0.100145 0
0.595972 0.0864271 0
0.676753 0.0734875 0
0.752972 0.0612955 0
0.826734 0.0499733 0
0.895705 0.0403143 0
0.95845 0.0323033 0
0.992737 0.0266423 0
1 0.0229953 0
1 0.0217594 0
1 0.0227359 0
1 0.0252842 0
1 0.0292668 0
1 0.0342107 0
1 0.0399481 0
1 0.0463417 0
1 0.0535744 0
1 0.0611734 0
1 0.0688945 0
1 0.0769055 0
1 0.0849012 0
1 0.0910811 0
0 0.203616 0
0 0.203616 0
0 0.202045 0
0 0.200351 0
0 0.198535 0
0 0.196887 0
0.0191501 0.194095 0
0.0888228 0.190173 0
0.187488 0.184634 0
0.294881 0.176776 0
0.405173 0.166476 0
0.499458 0.154482 0
0.588312 0.14197 0
0.670481 0.130373 0
0.748119 0.119524 0
0.823468 0.109773 0
0.893614 0.101534 0
0.957961 0.094789 0
0.992676 0.0901198 0
1 0.0876326 0
1 0.0873732 0
1 0.0902266 0
1 0.0942702 0
1 0.0996262 0
1 0.105974 0
1 0.113176 0
1 0.120775 0
1 0.128985 0
1 0.137407 0
1 0.146044 0
1 0.154543 0
1 0.163348 0
1 0.16968 0
0 0.254231 0
0 0.254231 0
0 0.253452 0
0 0.252567 0
0 0.251911 0
0 0.251331 0
0.00148013 0.249866 0
0.0538491 0.247089 0
0.153307 0.242741 0
0.266773 0.236179 0
0.383963 0.226932 0
0.485878 0.216556 0
0.576867 0.20557 0
0.661509 0.195575 0
0.740612 0.186328 0
0.817349 0.178134 0
0.889128 0.170962 0
0.954574 0.165866 0
0.991608 0.162371 0
1 0.161318 0
1 0.162509 0
1 0.166033 0
1 0.171008 0
1 0.176928 0
1 0.184466 0
1 0.19234 0
1 0.200626 0
1 0.209354 0
1 0.217563 0
1 0.226795 0
1 0.235584 0
1 0.244297 0
1 0.251209 0
0 0.314336 0
0 0.314336 0
0 0.314458 0
0 0.314778 0
0 0.315831 0
0 0.316457 0
0 0.316457 0
0.0215305 0.315465 0
0.107973 0.312581 0
0.227253 0.307942 0
0.353109 0.299931 0
0.466453 0.290608 0
0.559869 0.281315 0
0.646708 0.272267 0
0.727916 0.264118 0
0.805783 0.256779 0
0.878202 0.250965 0
0.944625 0.246876 0
0.987991 0.243885 0
1 0.243412 0
1 0.245029 0
1 0.248951 0
1 0.255161 0
1 0.261509 0
1 0.269276 0
1 0.277028 0
1 0.285832 0
1 0.294408 0
1 0.303258 0
1 0.312108 0
1 0.32076 0
1 0.329381 0
1 0.336095 0
0 0.383124 0
0 0.383124 0
0 0.384588 0
0 0.386633 0
0 0.389273 0
0 0.391608 0
0 0.393545 0
0.00163272 0.393545 0
0.0639811 0.392508 0
0.182269 0.389075 0
0.31696 0.382071 0
0.440894 0.374044 0
0.5402 0.36492 0
0.629465 0.356725 0
0.712245 0.349142 0
0.7906 0.342748 0
0.863584 0.337057 0
0.93048 0.332769 0
0.982635 0.330526 0
1 0.330037 0
1 0.332082 0
1 0.336187 0
1 0.342107 0
1 0.348791 0
1 0.356542 0
1 0.364538 0
1 0.373175 0
1 0.38175 0
1 0.390661 0
1 0.39968 0
1 0.408362 0
1 0.417365 0
1 0.424063 0
0 0.456641 0
0 0.456641 0
0 0.45919 0
0 0.463066 0
0 0.466773 0
0 0.470848 0
0 0.474159 0
0 0.475853 0
0.0296178 0.475761 0
0.142138 0.473442 0
0.282994 0.467277 0
0.414603 0.459648 0
0.52163 0.45153 0
0.612833 0.443076 0
0.696544 0.435767 0
0.775357 0.429511 0
0.848432 0.423804 0
0.915312 0.419379 0
0.975631 0.416648 0
0.999283 0.415885 0
1 0.41796 0
1 0.421653 0
1 0.426978 0
1 0.433738 0
1 0.44126 0
1 0.449134 0
1 0.457786 0
1 0.466545 0
1 0.475059 0
1 0.484184 0
1 0.492561 0
1 0.500908 0
1 0.507301 0
0 0.523079 0
0 0.523079 0
0 0.526436 0
0 0.531502 0
0 0.536767 0
0 0.541329 0
0 0.54551 0
0 0.547707 0
0.00669871 0.548394 0
0.114122 0.546319 0
0.257282 0.541314 0
0.394736 0.533318 0
0.5084 0.525231 0
0.599863 0.516533 0
0.684535 0.509544 0
0.763592 0.50251 0
0.836393 0.496452 0
0.902724 0.491722 0
0.962737 0.48925 0
0.994171 0.4878 0
1 0.489342 0
1 0.492943 0
1 0.498222 0
1 0.504891 0
1 0.512245 0
1 0.5196 0
1 0.528161 0
1 0.536324 0
1 0.54493 0
1 0.552834 0
1 0.560693 0
1 0.56875 0
1 0.574884 0
0 0.592248 0
0 0.592248 0
0 0.596399 0
0 0.601572 0
0 0.607782 0
0 0.613169 0
0 0.617807 0
0 0.62063 0
0 0.621195 0
0.0910353 0.619211 0
0.234302 0.613611 0
0.376791 0.605646 0
0.496071 0.597192 0
0.587732 0.588602 0
0.67277 0.580667 0
0.751873 0.57348 0
0.824369 0.567102 0
0.890806 0.562432 0
0.950881 0.559136 0
0.989258 0.558083 0
1 0.559243 0
1 0.562905 0
1 0.56791 0
1 0.573968 0
1 0.580926 0
1 0.588327 0
1 0.59588 0
1 0.603738 0
1 0.611261 0
1 0.618997 0
1 0.6262 0
1 0.633295 0
1 0.638849 0
0 0.662242 0
0 0.662242 0
0 0.667048 0
0 0.672663 0
0 0.678416 0
0 0.684474 0
0 0.688899 0
0 0.691661 0
0 0.692256 0
0.0697185 0.689952 0
0.21146 0.68397 0
0.357275 0.675761 0
0.480964 0.666102 0
0.575967 0.65742 0
0.66186 0.649531 0
0.74139 0.642023 0
0.813748 0.635843 0
0.879789 0.630716 0
0.939666 0.62742 0
0.984756 0.626062 0
1 0.626825 0
1 0.629816 0
1 0.634363 0
1 0.639918 0
1 0.646525 0
1 0.653071 0
1 0.660227 0
1 0.667185 0
1 0.674449 0
1 0.681178 0
1 0.687663 0
1 0.693889 0
1 0.698802 0
0 0.729397 0
0 0.729397 0
0 0.734035 0
0 0.739971 0
0 0.745861 0
0 0.751461 0
0 0.755596 0
0 0.757946 0
0 0.758129 0
0.0530861 0.755611 0
0.19408 0.749126 0
0.342321 0.74078 0
0.46952 0.731228 0
0.567483 0.721965 0
0.653788 0.714244 0
0.733532 0.705974 0
0.805661 0.699916 0
0.871382 0.694179 0
0.930907 0.69044 0
0.980972 0.688365 0
0.999863 0.688838 0
1 0.691264 0
1 0.695399 0
1 0.700298 0
1 0.705821 0
1 0.711864 0
1 0.718044 0
1 0.724468 0
1 0.730739 0
1 0.736858 0
1 0.742367 0
1 0.748119 0
1 0.751842 0
0 0.793042 0
0 0.792813 0
0 0.797253 0
0 0.803174 0
0 0.808667 0
0 0.813611 0
0 0.817349 0
0 0.819394 0
0 0.819272 0
0.0431678 0.816556 0
0.183719 0.810407 0
0.333089 0.801587 0
0.462455 0.791943 0
0.561913 0.782589 0
0.648569 0.773709 0
0.728222 0.765637 0
0.800137 0.758373 0
0.865385 0.752346 0
0.924453 0.748028 0
0.97673 0.745342 0
0.998856 0.745129 0
1 0.746685 0
1 0.750134 0
1 0.754513 0
1 0.759487 0
1 0.764584 0
1 0.769894 0
1 0.775296 0
1 0.780865 0
1 0.785687 0
1 0.790402 0
1 0.795026 0
1 0.798032 0
0 0.852384 0
0 0.852369 0
0 0.856245 0
0 0.86186 0
0 0.866911 0
0 0.871916 0
0 0.875578 0
0 0.877501 0
0 0.877195 0
0.0411536 0.874144 0
0.18114 0.867414 0
0.330404 0.858152 0
0.460365 0.847776 0
0.560739 0.837858 0
0.646723 0.828855 0
0.726055 0.819913 0
0.797543 0.812222 0
0.862226 0.805524 0
0.92076 0.800336 0
0.972473 0.797131 0
0.996872 0.79617 0
1 0.797162 0
1 0.799832 0
1 0.803235 0
1 0.807004 0
1 0.811383 0
1 0.816129 0
1 0.820188 0
1 0.824567 0
1 0.82826 0
1 0.831952 0
1 0.834745 0
1 0.83711 0
0 0.907942 0
0 0.907942 0
0 0.911894 0
0 0.917189 0
0 0.922362 0
0 0.926909 0
0 0.930083 0
0 0.931823 0
0 0.93109 0
0.0476387 0.927581 0
0.186892 0.920104 0
0.334997 0.910414 0
0.463844 0.899397 0
0.563424 0.888991 0
0.648753 0.878859 0
0.727474 0.869337 0
0.798321 0.860533 0
0.86247 0.85362 0
0.920333 0.847486 0
0.97142 0.843198 0
0.996307 0.841596 0
1 0.841535 0
1 0.843366 0
1 0.845823 0
1 0.848875 0
1 0.852064 0
1 0.855207 0
1 0.85832 0
1 0.861219 0
1 0.86389 0
1 0.866056 0
1 0.868086 0
1 0.869398 0
0 0.95903 0
0 0.95903 0
0 0.962188 0
0 0.96669 0
0 0.970581 0
0 0.973877 0
0 0.97641 0
0 0.977142 0
0 0.976257 0
0.0632486 0.97322 0
0.20174 0.966659 0
0.347585 0.956878 0
0.47393 0.945083 0
0.570718 0.933806 0
0.655192 0.922942 0
0.733043 0.912718 0
0.803082 0.90309 0
0.866545 0.895003 0
0.923705 0.888197 0
0.974212 0.883116 0
0.997299 0.880247 0
1 0.879408 0
1 0.879973 0
1 0.881041 0
1 0.882765 0
1 0.884749 0
1 0.886656 0
1 0.888685 0
1 0.890578 0
1 0.892271 0
1 0.89369 0
1 0.89485 0
1 0.895552 0
0 0.999161 0
0 0.999146 0
0 0.999893 0
0 1 0
0 1 0
0 1 0
0 1 0
0 1 0
0.000549325 1 0
0.084596 1 0
0.222477 0.999451 0
0.364996 0.992966 0
0.487343 0.982589 0
0.581003 0.972915 0
0.664408 0.962295 0
0.741054 0.950729 0
0.810147 0.940215 0
0.872709 0.931105 0
0.928878 0.923247 0
0.97818 0.916899 0
0.99881 0.912825 0
1 0.910903 0
1 0.909895 0
1 0.909941 0
1 0.910521 0
1 0.911559 0
1 0.912657 0
1 0.913802 0
1 0.91487 0
1 0.915877 0
1 0.916701 0
1 0.917159 0
1 0.917464 0
0 1 0
0 1 0
0 1 0
0 1 0
0 1 0
0 1 0
0 1 0
0 1 0
0.00639353 1 0
0.108492 1 0
0.245228 1 0
0.384054 1 0
0.501549 1 0
0.591806 0.999268 0
0.674098 0.993027 0
0.749004 0.982361 0
0.816938 0.971695 0
0.878706 0.961715 0
0.933837 0.952651 0
0.981033 0.945144 0
0.999619 0.939986 0
1 0.936736 0
1 0.935027 0
1 0.934157 0
1 0.933791 0
1 0.934051 0
1 0.934493 0
1 0.935088 0
1 0.935561 0
1 0.936019 0
1 0.936172 0
1 0.93637 0
1 0.936324 0
0 1 0
0 1 0
0 1 0
0 1 0
0 1 0
0 1 0
0 1 0
0 1 0
0.027512 1 0
0.133333 1 0
0.268452 1 0
0.401953 1 0
0.514717 1 0
0.601862 1 0
0.682155 1 0
0.756039 1 0
0.822766 0.995026 0
0.883253 0.985992 0
0.937575 0.976623 0
0.98291 0.968277 0
1 0.962325 0
1 0.958556 0
1 0.956069 0
1 0.954528 0
1 0.95375 0
1 0.953338 0
1 0.953201 0
1 0.953292 0
1 0.953399 0
1 0.953399 0
1 0.953292 0
1 0.952956 0
1 0.952575 0
0 1 0
0 1 0
0 1 0
0 1 0
0 1 0
0 1 0
0 1 0
0 1 0
0.0470741 1 0
0.155138 1 0
0.287678 1 0
0.416297 1 0
0.524895 1 0
0.609415 1 0
0.688228 1 0
0.761059 1 0
0.82707 1 0
0.886809 1 0
0.940414 0.995346 0
0.983978 0.987854 0
1 0.981628 0
1 0.977111 0
1 0.974029 0
1 0.972015 0
1 0.970748 0
1 0.969955 0
1 0.969314 0
1 0.969039 0
1 0.968734 0
1 0.968414 0
1 0.967987 0
1 0.967361 0
1 0.966827 0
0 1 0
0 1 0
0 1 0
0 1 0
0 1 0
0 1 0
0 1 0
0.000244144 1 0
0.0631876 1 0
0.172824 1 0
0.301991 1 0
0.426612 1 0
0.531594 1 0
0.615213 1 0
0.693111 1 0
0.764858 1 0
0.830335 1 0
0.889784 1 0
0.942855 1 0
0.98497 1 0
1 0.997269 0
1 0.993133 0
1 0.98996 0
1 0.987762 0
1 0.986175 0
1 0.984985 0
1 0.984268 0
1 0.98352 0
1 0.982834 0
1 0.982345 0
1 0.981582 0
1 0.980697 0
1 0.980041 0
0 1 0
0 1 0
0 1 0
0 1 0
0 1 0
0 1 0
0 1 0
0.00450141 1 0
0.0760662 1 0
0.186053 1 0
0.312795 1 0
0.434577 1 0
0.536934 1 0
0.619806 1 0
0.696635 1 0
0.768002 1 0
0.83299 1 0
0.891798 1 0
0.944472 1 0
0.98555 1 0
1 1 0
1 1 0
1 1 0
1 1 0
1 0.999359 0
1 0.998016 0
1 0.996979 0
1 0.996109 0
1 0.995346 0
1 0.994629 0
1 0.993805 0
1 0.992813 0
1 0.99205 0
0 1 0
0 1 0
0 1 0
0 1 0
0 1 0
0 1 0
0 1 0
0.0121309 1 0
0.0868086 1 0
