public/textures/LUTs/EVEREST.CUBE
TITLE "Generated by Resolve"
LUT_3D_SIZE 5
0 0.0209049 0
0.274006 0 0
0.910887 0 0
1 0 0
1 0 0
0 0.203616 0
0.187488 0.184634 0
0.893614 0.101534 0
1 0.105974 0
1 0.16968 0
0 0.729397 0
0 0.758129 0
0.805661 0.699916 0
1 0.705821 0
1 0.751842 0
0 1 0
0.0470741 1 0
0.82707 1 0
1 0.970748 0
1 0.966827 0
0 1 0
0.100557 1 0
0.8336 1 0
1 1 0
1 1 0
0 0.0223545 0.336309
0.205447 0 0.331792
0.857114 0 0.218738
1 0 0.199191
1 0 0.258549
0 0.209323 0.184756
0.128374 0.194476 0.206928
0.852491 0.117983 0.151217
1 0.127947 0.21088
1 0.192905 0.34139
0 0.754055 0
0 0.780774 0
0.767544 0.720623 0
1 0.722667 0
1 0.7626 0
0 1 0
0.00109865 1 0
0.772442 1 0
1 0.968124 0
1 0.96231 0
0 1 0
0.0265049 1 0
0.773342 1 0
1 1 0
1 1 0
0 0.00650034 1
0.055787 0 1
0.752697 0 1
1 0 1
1 0 1
0 0.199115 0.989471
0.00421149 0.188998 0.994095
0.761593 0.119524 0.992264
1 0.133654 0.998764
1 0.198688 1
0 0.761746 0.681514
0 0.78674 0.757931
0.671077 0.722896 0.760937
0.995529 0.719905 0.79086
1 0.752178 0.842893
0 1 0.74049
0 1 0.762509
0.657328 0.99762 0.686946
0.942931 0.947555 0.65095
1 0.940063 0.653437
0 1 0.788617
0 1 0.765713
0.653193 1 0.663569
0.930159 1 0.616938
1 1 0.615808
0 0.00447089 1
0.00367742 0 1
0.710094 0 1
0.998291 0 1
1 0 1
0 0.203082 1
0 0.19794 1
0.731579 0.134829 1
1 0.152193 1
1 0.215702 1
0 0.779278 1
0 0.802991 1
0.637446 0.735363 1
0.963851 0.727413 1
1 0.752392 1
0 1 1
0 1 1
0.607156 0.994186 1
0.890852 0.939116 1
0.994614 0.930587 1
0 1 1
0 1 1
0.599771 1 1
0.876799 1 1
0.978668 1 1
0 0.0103761 1
0.00570687 0 1
0.704692 0 1
0.997452 0 1
1 0 1
0 0.217121 1
0 0.217258 1
0.740078 0.15964 1
1 0.178103 1
1 0.240406 1
0 0.805982 1
0 0.827985 1
0.640467 0.755673 1
0.960967 0.742443 1
1 0.76051 1
0 1 1
0 1 1
0.595071 0.995773 1
0.876585 0.940291 1
0.97937 0.930922 1
0 1 1
0 1 1
0.585199 1 1
0.861585 1 1
0.963363 1 1
