public/textures/LUTs/GHOST.CUBE
TITLE "Generated by Resolve"
LUT_3D_SIZE 5
0 0.0130312 0
0.143008 0 0
0.627359 0 0
1 0 0
1 0 0
0 0.1729 0
0.142336 0.16791 0
0.624262 0.13962 0
1 0.172213 0
1 0.241993 0
0 0.608255 0
0.00732433 0.638117 0
0.679316 0.595056 0
1 0.640467 0
1 0.723812 0
0 1 0
0.0465095 1 0
0.628351 1 0
1 1 0
1 1 0
0.0242466 1 0.174151
0.240696 1 0.164797
0.714809 1 0
1 1 0
1 1 0
0 0.00408942 0.243946
0.144274 0 0.226184
0.64538 0 0.0347906
1 0 0
1 0 0
0 0.193408 0.066804
0.118639 0.175753 0.194598
0.627344 0.14612 0.076173
1 0.184253 0.0229648
1 0.25864 0.0995651
0 0.617517 0
0.024033 0.64683 0.119554
0.661585 0.612818 0.0480201
1 0.675227 0.105531
1 0.756359 0.19704
0 1 0.0881971
0.0682536 1 0.186236
0.604883 1 0.0081178
1 1 0
1 1 0.00671397
0.0302586 1 0.395804
0.236362 1 0.400412
0.67422 1 0.0984665
1 1 0
1 1 0
0 0 0.876936
0.114199 0 0.85861
0.640757 0 0.775738
1 0 0.683085
1 0 0.676738
0 0.1691 0.790707
0.0968948 0.154452 0.838926
0.642039 0.114839 0.780606
1 0.154559 0.713268
1 0.232258 0.793439
0 0.675273 0.27985
0.00173953 0.683101 0.463676
0.572519 0.625635 0.717739
1 0.694789 0.705562
1 0.770214 0.787976
0 1 0.365179
0.0755932 1 0.599252
0.547463 1 0.719356
1 1 0.601419
1 1 0.625803
0.00502022 1 0.666102
0.221607 1 0.803388
0.604425 1 0.795529
1 1 0.570703
1 1 0.574823
0 0 1
0.0846723 0 1
0.626825 0 1
1 0 1
1 0 1
0 0.140856 1
0.0789349 0.139971 1
0.634073 0.105531 1
1 0.145342 1
1 0.223545 1
0 0.71165 0.907378
0 0.704753 1
0.563897 0.621241 1
1 0.674968 1
1 0.745144 1
0 1 0.695323
0 1 0.873274
0.476341 1 1
1 1 1
1 1 1
0 1 0.881727
0.0821698 1 0.980041
0.54464 1 1
0.995789 1 1
1 1 1
0 0 1
0.0843519 0 1
0.628305 0 1
1 0 1
1 0 1
0 0.146517 1
0.091371 0.151629 1
0.646433 0.12372 1
1 0.169619 1
1 0.253895 1
0 0.724178 1
0 0.717983 1
0.586282 0.645914 1
1 0.702235 1
1 0.765545 1
0 1 0.857221
0 1 0.999496
0.440742 1 1
0.99968 1 1
1 1 1
0 1 0.988907
0.0377356 1 1
0.49839 1 1
0.985595 1 1
1 1 1
