public/textures/LUTs/GHOST.CUBE
TITLE "Generated by Resolve"
LUT_3D_SIZE 33
0 0.0130312 0
0 0.0130312 0
0 0.0104067 0
0 0.00662242 0.00547799
0.0104067 0.00317388 0.0136568
0.0370184 0.00222782 0.00936904
0.0677195 0.00129702 0.00196841
0.103029 3.0518e-05 3.0518e-05
0.143008 0 0
0.190219 0 0
0.244694 0 0
0.316411 0 0
0.397635 0 0
0.472648 0 0
0.530724 0 0
0.578073 0 0
0.627359 0 0
0.700923 0 0
0.787671 0 0
0.872236 0 0
0.950362 0 0
0.996628 0 0
1 0 0
1 0 0
1 0 0
1 0 0
1 0 0
1 0 0
1 0 0
1 0 0
1 0 0
1 0 0
1 0 0
0 0.0130312 0
0 0.0130312 0
0 0.0103761 0
0 0.00657664 0.00556954
0.010544 0.0031281 0.0137484
0.0373388 0.00222782 0.00929274
0.0679484 0.00128176 0.00190738
0.103288 1.5259e-05 1.5259e-05
0.143359 0 0
0.1906 0 0
0.244953 0 0
0.316716 0 0
0.39823 0 0
0.473121 0 0
0.530907 0 0
0.578241 0 0
0.627558 0 0
0.701213 0 0
0.787945 0 0
0.872496 0 0
0.950561 0 0
0.996674 0 0
1 0 0
1 0 0
1 0 0
1 0 0
1 0 0
1 0 0
1 0 0
1 0 0
1 0 0
1 0 0
1 0 0
0 0.0268559 0
0 0.0268559 0
0 0.0243534 0
0 0.0208286 0.00167849
0.00825513 0.0178988 0.0113222
0.035172 0.0163882 0.00929274
0.065156 0.015671 0.00207523
0.0999466 0.014023 1.5259e-05
0.139864 0.0119326 0
0.187213 0.00880446 0
0.241291 0.00477607 0
0.313085 0.00117494 0
0.394369 0 0
0.469291 0 0
0.527352 0 0
0.574762 0 0
0.624094 0 0
0.698222 0 0
0.785138 0 0
0.870085 0 0
0.948592 0 0
0.996277 0 0
1 0 0
1 0 0
1 0 0
1 0 0
1 0 0
1 0 0
1 0 0
1 0 0
1 0 0
1 0 0
1 0 0
0 0.0478981 0
0 0.0478981 0
0 0.045304 0
0 0.042237 0.00077821
0.00468452 0.0400397 0.00849927
0.0341192 0.0380102 0.00485237
0.0672007 0.0360876 0.00222782
0.0986038 0.0349584 1.5259e-05
0.137484 0.0327306 0
0.184115 0.0287022 0
0.23801 0.0231174 0
0.310307 0.0167391 0
0.391211 0.00994888 0
0.465705 0.00369268 0
0.523522 0 0
0.570977 0 0
0.62089 0 0
0.696117 0 0
0.783444 0 0
0.869184 0 0
0.94815 0 0
0.996307 0 0
1 0 0
1 0 0
1 0 0
1 0 0
1 0 0
1 0 0
1 0 0
1 0 0
1 0 0
1 0 0
1 0 0
0 0.068925 0
0 0.068925 0
0 0.066743 0
0 0.0644846 0.00123598
0.00103761 0.0628977 0.00582895
0.0290532 0.0617685 0.00114443
0.0686961 0.0576333 0.00047303
0.104906 0.0552377 0
0.140368 0.0541848 0
0.184298 0.0510567 0
0.237964 0.0463569 0
0.309545 0.0399634 0
0.390539 0.0322576 0
0.464347 0.0238956 0
0.521737 0.0163577 0
0.568917 0.010544 0
0.619959 0.00508125 0
0.696574 0.00103761 0
0.784924 0 0
0.870665 0 0
0.9505 0 0
0.996841 0 0
1 0 0
1 0 0
1 0.000122072 0
1 0.0039826 0
1 0.0119326 0
1 0.0209506 0
1 0.0304265 0
1 0.031693 0
1 0.031693 0
1 0.0318456 0
1 0.0318456 0
0 0.0910811 0
0 0.0910811 0
0 0.0895247 0
0 0.0877852 0.000213626
4.57771e-05 0.0868238 0.00276188
0.0234684 0.0862135 0.000289921
0.0643931 0.0827649 0
0.109056 0.0780804 0
0.148592 0.0754559 0
0.189487 0.0738537 0
0.240696 0.0704204 0
0.311238 0.0653544 0
0.391516 0.0584268 0
0.464195 0.0506905 0
0.52079 0.0431983 0
0.568292 0.0364691 0
0.62031 0.0300298 0
0.698833 0.0234379 0
0.787472 0.0179141 0
0.87425 0.0135195 0
0.954574 0.0115816 0
0.997803 0.0125429 0
1 0.0158389 0
1 0.0214237 0
1 0.0288853 0
1 0.0383154 0
1 0.0494392 0
1 0.0621042 0
1 0.0752117 0
1 0.076936 0
1 0.076936 0
1 0.076936 0
1 0.076936 0
0 0.115328 0
0 0.115328 0
0 0.114046 0
0 0.113161 0
0 0.112749 0.000259403
0.0180209 0.112428 3.0518e-05
0.0559548 0.111025 0
0.105379 0.105364 0
0.154269 0.100496 0
0.199329 0.0977035 0
0.248005 0.0960098 0
0.315511 0.0926223 0
0.39408 0.0871138 0
0.464775 0.0805066 0
0.520775 0.0740063 0
0.567926 0.0680095 0
0.621805 0.0624704 0
0.702693 0.0565805 0
0.791531 0.0510872 0
0.879042 0.0473487 0
0.958724 0.0461738 0
0.998611 0.0482032 0
1 0.0533761 0
1 0.0610666 0
1 0.0707256 0
1 0.0823835 0
1 0.0956588 0
1 0.110521 0
1 0.126055 0
1 0.127977 0
1 0.128176 0
1 0.128176 0
1 0.128176 0
0 0.142107 0
0 0.142107 0
0 0.141573 0
0 0.141527 0
0 0.141543 0
0.0110475 0.141695 0
0.0452277 0.141772 0
0.0964065 0.137636 0
0.151751 0.13135 0
0.206744 0.126085 0
0.259709 0.123522 0
0.323507 0.12192 0
0.397833 0.118563 0
0.4663 0.11339 0
0.521096 0.108202 0
0.568124 0.103685 0
0.623285 0.0991379 0
0.705196 0.0942702 0
0.7944 0.0901503 0
0.8822 0.0874037 0
0.962325 0.0874342 0
0.999268 0.0905928 0
1 0.0972457 0
1 0.106737 0
1 0.118242 0
1 0.132448 0
1 0.148241 0
1 0.164904 0
1 0.182483 0
1 0.184527 0
1 0.184527 0
1 0.184527 0
1 0.184527 0
0 0.1729 0
0 0.1729 0
0 0.172717 0
0 0.173358 0
0 0.17377 0
0.00178531 0.174655 0
0.0348058 0.175448 0
0.0825055 0.174151 0
0.142336 0.16791 0
0.205615 0.161196 0
0.26833 0.156115 0
0.336614 0.153979 0
0.406943 0.152728 0
0.471626 0.149844 0
0.523537 0.146151 0
0.56936 0.142779 0
0.624262 0.13962 0
0.705943 0.136385 0
0.794156 0.133471 0
0.88072 0.131579 0
0.960388 0.132845 0
0.998825 0.137972 0
1 0.1467 0
1 0.158419 0
1 0.172213 0
1 0.188434 0
1 0.205341 0
1 0.222232 0
1 0.239948 0
1 0.241993 0
1 0.241993 0
1 0.241993 0
1 0.241993 0
0 0.208133 0
0 0.208133 0
0 0.208667 0
0 0.209812 0
0 0.211521 0
0 0.212634 0
0.0215915 0.213794 0
0.0652171 0.214801 0
0.126574 0.210483 0
0.19559 0.203296 0
0.268208 0.196323 0
0.347616 0.19115 0
0.421149 0.189288 0
0.482292 0.188205 0
0.530968 0.186511 0
0.574212 0.184665 0
0.626459 0.18294 0
0.705425 0.181353 0
0.792065 0.18024 0
0.877668 0.180499 0
0.957137 0.183993 0
0.998184 0.191241 0
1 0.201968 0
1 0.214557 0
1 0.229191 0
1 0.246784 0
1 0.267155 0
1 0.288746 0
1 0.310201 0
1 0.312505 0
1 0.312505 0
1 0.312505 0
1 0.312505 0
0 0.247791 0
0 0.247593 0
0 0.248646 0
0 0.250736 0
0 0.253162 0
0 0.25568 0
0.00608835 0.257877 0
0.0484016 0.259754 0
0.105745 0.258656 0
0.178744 0.252415 0
0.257633 0.244282 0
0.348775 0.235843 0
0.43328 0.230472 0
0.497948 0.228458 0
0.545708 0.227848 0
0.586648 0.227802 0
0.635935 0.228092 0
0.711284 0.228962 0
0.795331 0.230457 0
0.879484 0.233051 0
0.957794 0.23856 0
0.998291 0.247898 0
1 0.261494 0
1 0.278111 0
1 0.297734 0
1 0.319142 0
1 0.341146 0
1 0.363119 0
1 0.384115 0
1 0.386236 0
1 0.386236 0
1 0.386236 0
1 0.386481 0
0 0.301091 0
0 0.301091 0
0 0.303212 0
0 0.30695 0
0 0.31104 0
0 0.314916 0
0.000106813 0.318227 0
0.0269474 0.320912 0
0.0805829 0.322484 0
0.15169 0.318547 0
0.235721 0.310155 0
0.336172 0.299886 0
0.435904 0.290578 0
0.513176 0.28542 0
0.566888 0.283864 0
0.609552 0.284245 0
0.658549 0.285786 0
0.731014 0.289021 0
0.810803 0.292836 0
0.891463 0.298085 0
0.967208 0.306645 0
0.999557 0.318898 0
1 0.334386 0
1 0.352728 0
1 0.373053 0
1 0.394018 0
1 0.414664 0
1 0.433951 0
1 0.45095 0
1 0.452522 0
1 0.452522 0
1 0.45272 0
1 0.45272 0
0 0.368002 0
0 0.367727 0
0 0.370581 0
0 0.375296 0
0 0.380102 0
0 0.38497 0
0 0.389029 0
0.00311284 0.39234 0
0.0534524 0.394812 0
0.11931 0.39469 0
0.204303 0.388724 0
0.312032 0.378653 0
0.423575 0.367315 0
0.514244 0.359777 0
0.57821 0.355978 0
0.628199 0.354849 0
0.683375 0.355306 0
0.759579 0.357763 0
0.838239 0.362188 0
0.91519 0.368856 0
0.98085 0.379049 0
1 0.392203 0
1 0.407279 0
1 0.42446 0
1 0.442023 0
1 0.458289 0
1 0.474174 0
1 0.489204 0
1 0.503105 0
1 0.504295 0
1 0.504295 0
1 0.504448 0
1 0.504448 0
0 0.439475 0
0 0.439216 0
0 0.442695 0
0 0.447303 0
0 0.452506 0
0 0.457725 0
0 0.462272 0
0.00148013 0.465919 0
0.0293126 0.468803 0
0.0935988 0.470298 0
0.174563 0.468086 0
0.2851 0.459388 0
0.403143 0.44799 0
0.502403 0.438544 0
0.573983 0.43299 0
0.630747 0.429969 0
0.694026 0.42797 0
0.779782 0.427024 0
0.864652 0.429007 0
0.942596 0.434241 0
0.995087 0.442786 0
1 0.453849 0
1 0.466041 0
1 0.479393 0
1 0.493156 0
1 0.506493 0
1 0.519814 0
1 0.533654 0
1 0.547066 0
1 0.54815 0
1 0.54815 0
1 0.54815 0
1 0.54815 0
0 0.504143 0
0 0.503929 0
0 0.506844 0
0 0.511223 0
0 0.515831 0
0 0.520317 0
0 0.524514 0
0.00047303 0.52784 0
0.0139162 0.530297 0
0.0783093 0.531762 0
0.156252 0.531456 0
0.264805 0.524498 0
0.386252 0.51313 0
0.489326 0.50309 0
0.564233 0.496498 0
0.624781 0.492088 0
0.693233 0.487984 0
0.786603 0.483894 0
0.87866 0.482704 0
0.960327 0.48484 0
1 0.490883 0
1 0.499458 0
1 0.509575 0
1 0.521645 0
1 0.534951 0
1 0.548638 0
1 0.562951 0
1 0.577737 0
1 0.593454 0
1 0.59469 0
1 0.59469 0
1 0.59469 0
1 0.59469 0
0 0.557687 0
0 0.557504 0
0 0.560388 0
0 0.564111 0
0 0.5682 0
0 0.572259 0
0 0.576425 0
0 0.5794 0
0.00787366 0.581735 0
0.0710918 0.583246 0
0.147158 0.583734 0
0.252522 0.578485 0
0.374792 0.567483 0
0.478691 0.557031 0
0.55462 0.549798 0
0.61706 0.544411 0
0.688914 0.538766 0
0.787366 0.532372 0
0.885145 0.528542 0
0.970184 0.528145 0
1 0.532708 0
1 0.540871 0
1 0.551461 0
1 0.564309 0
1 0.579522 0
1 0.596307 0
1 0.614252 0
1 0.633799 0
1 0.654917 0
1 0.656352 0
1 0.656352 0
1 0.656352 0
1 0.656352 0
0 0.608255 0
0 0.608255 0
0 0.611643 0
0 0.616068 0
0 0.621149 0
0 0.625864 0
0 0.631037 0
0 0.635004 0
0.00732433 0.638117 0
0.0641947 0.640162 0
0.138201 0.641077 0
0.239384 0.637568 0
0.359838 0.627298 0
0.464469 0.616144 0
0.541543 0.608087 0
0.605203 0.601892 0
0.679316 0.595056 0
0.782696 0.58677 0
0.886046 0.581003 0
0.976303 0.579324 0
1 0.583185 0
1 0.592065 0
1 0.604639 0
1 0.620783 0
1 0.640467 0
1 0.661631 0
1 0.682551 0
1 0.702831 0
1 0.722347 0
1 0.723552 0
1 0.723812 0
1 0.723812 0
1 0.723812 0
0 0.669429 0
0 0.669123 0
0 0.674281 0
0 0.681208 0
0 0.688304 0
0 0.695613 0
0 0.702892 0
0 0.708644 0
0.00588998 0.712917 0
0.0521401 0.715297 0
0.123781 0.716808 0
0.219287 0.714778 0
0.33576 0.706035 0
0.441794 0.694499 0
0.520989 0.685573 0
0.586404 0.679011 0
0.662943 0.671733 0
0.771298 0.66183 0
0.88127 0.654582 0
0.977768 0.651179 0
1 0.654566 0
1 0.663691 0
1 0.677073 0
1 0.693767 0
1 0.712627 0
1 0.732265 0
1 0.752071 0
1 0.770672 0
1 0.788525 0
1 0.789487 0
1 0.789487 0
1 0.789487 0
1 0.789487 0
0 0.749462 0
0 0.749462 0
0 0.756146 0
0 0.764202 0
0 0.772717 0
0 0.780087 0
0 0.787289 0
0 0.792355 0
0.0039826 0.795468 0
0.0384375 0.797101 0
0.108843 0.798077 0
0.200153 0.797589 0
0.311009 0.791379 0
0.416312 0.781308 0
0.49691 0.772442 0
0.564248 0.765835 0
0.643656 0.758144 0
0.755856 0.7476 0
0.870863 0.738338 0
0.973022 0.732647 0
1 0.733471 0
1 0.740261 0
1 0.751858 0
1 0.766979 0
1 0.784268 0
1 0.802243 0
1 0.820111 0
1 0.836667 0
1 0.852125 0
1 0.852872 0
1 0.852872 0
1 0.852872 0
1 0.852872 0
0 0.831235 0
0 0.831235 0
0 0.837552 0
0 0.845029 0
0 0.853025 0
0 0.859998 0
0 0.866606 0
0 0.871473 0
0.00256352 0.874281 0
0.0288548 0.876081 0
0.0991836 0.877241 0
0.188479 0.877653 0
0.293477 0.873777 0
0.394202 0.865629 0
0.474052 0.857359 0
0.542519 0.850675 0
0.62565 0.842374 0
0.741329 0.830915 0
0.859098 0.820447 0
0.965347 0.81294 0
1 0.811643 0
1 0.816083 0
1 0.825711 0
1 0.838529 0
1 0.85362 0
1 0.869276 0
1 0.884733 0
1 0.898573 0
1 0.911269 0
1 0.911788 0
1 0.911788 0
1 0.911788 0
1 0.911788 0
0 0.907927 0
0 0.907927 0
0 0.913771 0
0 0.920974 0
0 0.928603 0
0 0.935821 0
0 0.942275 0
0 0.947326 0
0.00230411 0.949935 0
0.0272374 0.952255 0
0.097612 0.953536 0
0.185824 0.95436 0
0.285069 0.951995 0
0.378378 0.945357 0
0.4551 0.938186 0
0.524361 0.931441 0
0.611658 0.922408 0
0.730999 0.909941 0
0.850706 0.898146 0
0.958587 0.88925 0
1 0.885786 0
1 0.887755 0
1 0.89482 0
1 0.904952 0
1 0.917388 0
1 0.93019 0
1 0.942626 0
1 0.953933 0
1 0.963897 0
1 0.964233 0
1 0.964233 0
1 0.964233 0
1 0.964233 0
0 0.970901 0
0 0.970703 0
0 0.974197 0
0 0.978973 0
0 0.983551 0
0 0.988281 0
0 0.992142 0
0 0.995254 0
0.00355535 0.997253 0
0.0345159 0.998581 0
0.106218 0.999374 0
0.193011 0.999939 0
0.285786 0.998871 0
0.370169 0.995514 0
0.442222 0.991318 0
0.512413 0.987015 0
0.604776 0.980972 0
0.727398 0.972747 0
0.847913 0.964691 0
0.955932 0.957671 0
1 0.951843 0
1 0.951385 0
1 0.95555 0
1 0.963027 0
1 0.971191 0
1 0.978256 0
1 0.984787 0
1 0.990906 0
1 0.996231 0
1 0.996368 0
1 0.996368 0
1 0.996368 0
1 0.996368 0
0 1 0
0 1 0
0 1 0
0 1 0
0 1 0
0 1 0
0 1 0
0 1 0
0.00656138 1 0
0.0508431 1 0
0.124315 1 0
0.208743 1 0
0.293736 1 0
0.368734 1 0
0.436042 1 0
0.508095 1 0
0.606302 1 0
0.73019 1 0
0.85037 1 0
0.957458 0.998352 0
1 0.993805 0
1 0.992538 0
1 0.993866 0
1 0.997635 0
1 1 0
1 1 0
1 1 0
1 1 0
1 1 0
1 1 0
1 1 0
1 1 0
1 1 0
0 1 0
0 1 0
0 1 0
0 1 0
0 1 0
0 1 0
0 1 0
0.00112917 1 0
0.0176394 1 0
0.0766155 1 0
0.150698 1 0
0.230137 1 0
0.305623 1 0
0.372 1 0
0.435584 1 0
0.51162 1 0
0.614481 1 0
0.737896 1 0
0.856306 1 0
0.961135 1 0
1 1 0
1 1 0
1 1 0
1 1 0
1 1 0
1 1 0
1 1 0
1 1 0
1 1 0
1 1 0
1 1 0
1 1 0
1 1 0
0 1 0
0 1 0
0 1 0
0 1 0
0 1 0
0 1 0
0.000244144 1 0
0.00720226 1 0
0.0465095 1 0
0.11104 1 0
0.182406 1 0
0.254353 1 0
0.31957 1 0
0.378592 1 0
0.440665 1 0
0.52253 1 0
0.628351 1 0
0.749004 1 0
0.865629 1 0
0.967269 1 0
1 1 0
1 1 0
1 1 0
1 1 0
1 1 0
1 1 0
1 1 0
1 1 0
1 1 0
1 1 0
1 1 0
1 1 0
1 1 0
0 1 0
0 1 0
0 1 0
0 1 0
0 1 0
3.0518e-05 1 0
0.0028687 1 0
0.0310369 1 0
0.0872511 1 0
0.149477 1 0
0.215244 1 0
0.277806 1 0
0.334432 1 0
0.388449 1 0
0.451942 1 0
0.539345 1 0
0.645823 1 0
0.764263 1 0
0.878798 1 0
0.975845 1 0
1 1 0
1 1 0
1 1 0
1 1 0
1 1 0
1 1 0
1 1 0
1 1 0
1 1 0
1 1 0
1 1 0
1 1 0
1 1 0
0 1 0
0 1 0
0 1 0
0 1 0.00201419
1.5259e-05 1 0.00665293
0.00166323 1 0.0103914
0.0239719 1 0.0134127
0.0735943 1 0.0149386
0.12781 1 0.0145266
0.185443 1 0.0115358
0.243122 1 0.00543221
0.296712 1 0
0.34725 1 0
0.399619 1 0
0.467781 1 0
0.559228 1 0
0.663844 1 0
0.780362 1 0
0.89276 1 0
0.985428 1 0
1 1 0
1 1 0
1 1 0
1 1 0
1 1 0
1 1 0
1 1 0
1 1 0
1 1 0
1 1 0
1 1 0
1 1 0
1 1 0
0 1 0.0124514
0 1 0.0123293
0 1 0.0161288
0 1 0.0233158
0.00161746 1 0.0337072
0.0209354 1 0.0426032
0.0656901 1 0.0489204
0.112871 1 0.0521248
0.162692 1 0.0502632
