public/textures/LUTs/GHOST.CUBE
TITLE "Generated by Resolve"
LUT_3D_SIZE 9
0 0.0130312 0
0.0104067 0.00317388 0.0136568
0.143008 0 0
0.397635 0 0
0.627359 0 0
0.950362 0 0
1 0 0
1 0 0
1 0 0
0 0.068925 0
0.00103761 0.0628977 0.00582895
0.140368 0.0541848 0
0.390539 0.0322576 0
0.619959 0.00508125 0
0.9505 0 0
1 0.000122072 0
1 0.0304265 0
1 0.0318456 0
0 0.1729 0
0 0.17377 0
0.142336 0.16791 0
0.406943 0.152728 0
0.624262 0.13962 0
0.960388 0.132845 0
1 0.172213 0
1 0.239948 0
1 0.241993 0
0 0.368002 0
0 0.380102 0
0.0534524 0.394812 0
0.423575 0.367315 0
0.683375 0.355306 0
0.98085 0.379049 0
1 0.442023 0
1 0.503105 0
1 0.504448 0
0 0.608255 0
0 0.621149 0
0.00732433 0.638117 0
0.359838 0.627298 0
0.679316 0.595056 0
1 0.583185 0
1 0.640467 0
1 0.722347 0
1 0.723812 0
0 0.907927 0
0 0.928603 0
0.00230411 0.949935 0
0.285069 0.951995 0
0.611658 0.922408 0
1 0.885786 0
1 0.917388 0
1 0.963897 0
1 0.964233 0
0 1 0
0 1 0
0.0465095 1 0
0.31957 1 0
0.628351 1 0
1 1 0
1 1 0
1 1 0
1 1 0
0 1 0.0480049
0.0189059 1 0.0732738
0.189731 1 0.0805219
0.36759 1 0.00613413
0.693904 1 0
1 1 0
1 1 0
1 1 0
1 1 0
0.0242466 1 0.174151
0.120867 1 0.180392
0.240696 1 0.164797
0.387381 1 0.055024
0.714809 1 0
1 1 0
1 1 0
1 1 0
1 1 0
0 0.0127108 0.0702831
0.00932326 0.00144961 0.0956588
0.149157 0 0.0653697
0.403891 0 0
0.63357 0 0
0.957061 0 0
1 0 0
1 0 0
1 0 0
0 0.0769207 0.0154116
0 0.067277 0.0535439
0.136553 0.0541543 0.0572671
0.394797 0.0305486 0
0.625025 0.00392157 0
0.957015 0 0
1 0.000183108 0
1 0.0324407 0
1 0.0340734 0
0 0.176883 0
0 0.175036 0.041001
0.13402 0.171588 0.0377508
0.396445 0.159197 0.00514229
0.622278 0.14435 0
0.963287 0.137499 0
1 0.178744 0
1 0.247745 0
1 0.249851 0
0 0.371832 0
0 0.38407 0
0.0595407 0.39826 0.00187686
0.420218 0.377234 0
0.673014 0.367803 0
0.975296 0.392004 0
1 0.452369 0
1 0.511147 0.0306096
1 0.512261 0.0322728
0 0.611841 0
0 0.624918 0
0.0122377 0.641917 0
0.357595 0.634684 0
0.675166 0.602167 0
1 0.593362 0
1 0.654261 0
1 0.735225 0.0357824
1 0.73637 0.0369573
0 0.914015 0
0 0.934585 0
0.00386053 0.955291 0
0.286488 0.957214 0
0.606332 0.931899 0
1 0.893507 0
1 0.923919 0
1 0.968597 0
1 0.968902 0
0 1 0
0 1 0.0059205
0.0560922 1 0.0281682
0.321263 1 0.00178531
0.620737 1 0
1 1 0
1 1 0
1 1 0
1 1 0
0 1 0.131258
0.0247349 1 0.158297
0.192935 1 0.171908
0.367269 1 0.0920577
0.682994 1 0
1 1 0
1 1 0
1 1 0
1 1 0
0.026215 1 0.262196
0.120897 1 0.268559
0.239734 1 0.255344
0.385351 1 0.156191
0.700954 1 0
1 1 0
1 1 0
1 1 0
1 1 0
0 0.00408942 0.243946
0.0039826 0 0.249149
0.144274 0 0.226184
0.414557 0 0.141222
0.64538 0 0.0347906
0.967803 0 0
1 0 0
1 0 0
1 0 0
0 0.0773327 0.18526
0 0.062211 0.227268
0.137087 0.0483558 0.219348
0.406729 0.0222934 0.134417
0.637171 0.000610361 0.0407263
0.968536 0 0
1 7.62951e-05 0
1 0.0330053 0
1 0.0345159 0
0 0.193408 0.066804
0 0.189105 0.11223
0.118639 0.175753 0.194598
0.39353 0.162295 0.145495
0.627344 0.14612 0.076173
0.970642 0.140429 0.00776684
1 0.184253 0.0229648
1 0.256703 0.0973526
1 0.25864 0.0995651
0 0.381537 0.00282292
0 0.390524 0.0734875
0.0680705 0.402655 0.155596
0.408286 0.389654 0.123751
0.644419 0.38732 0.111849
0.962493 0.408896 0.0589761
1 0.465019 0.0957046
1 0.521126 0.185702
1 0.522133 0.187594
0 0.617517 0
0 0.630594 0.0493172
0.024033 0.64683 0.119554
0.34609 0.644175 0.0550546
0.661585 0.612818 0.0480201
0.99852 0.609644 0.0556191
1 0.675227 0.105531
1 0.755032 0.19585
1 0.756359 0.19704
0 0.921172 0
0 0.941344 0.0369268
0.00575265 0.959915 0.0920272
0.288914 0.960815 0.053254
0.590448 0.944396 0
1 0.903868 0
1 0.932921 0.0280461
1 0.973617 0.0816663
1 0.973846 0.0820325
0 1 0.0881971
0 1 0.138399
0.0682536 1 0.186236
0.324315 1 0.147784
0.604883 1 0.0081178
1 1 0
1 1 0
1 1 0.00665293
1 1 0.00671397
0 1 0.285756
0.033814 1 0.318379
0.195117 1 0.337865
0.366506 1 0.277638
0.660319 1 0.0704662
1 1 0
1 1 0
1 1 0
1 1 0
0.0302586 1 0.395804
0.120134 1 0.406806
0.236362 1 0.400412
0.381781 1 0.327489
0.67422 1 0.0984665
1 1 0
1 1 0
1 1 0
1 1 0
0 0 0.552056
0 0 0.551476
0.131823 0 0.524559
0.403571 0 0.475807
0.656245 0 0.400305
0.980591 0 0.273136
1 0 0.234012
1 0 0.258595
1 0 0.260334
0 0.0560616 0.527306
0 0.0471351 0.537484
0.125307 0.035111 0.52398
0.401831 0.00762951 0.474464
0.65272 0 0.401343
0.983017 0 0.2869
1 0 0.270481
1 0.0180056 0.316091
1 0.0195468 0.318593
0 0.194644 0.400107
0 0.184588 0.457847
0.109895 0.166293 0.513924
0.401617 0.147692 0.48098
0.649683 0.128023 0.415549
0.985794 0.125307 0.3299
1 0.173098 0.349798
1 0.248722 0.415503
1 0.250874 0.416922
0 0.41059 0.142016
0 0.418082 0.205951
0.0352636 0.422034 0.316472
0.36733 0.398276 0.452369
0.605478 0.399359 0.408423
0.956069 0.411414 0.354269
1 0.463996 0.393698
1 0.519112 0.452705
1 0.520287 0.453651
0 0.636378 0.0763714
0 0.64477 0.169345
0.0348363 0.650828 0.317205
0.328054 0.641352 0.419242
0.620951 0.620401 0.377966
0.953658 0.629129 0.362371
1 0.694987 0.406775
1 0.772091 0.463569
1 0.773022 0.464118
0 0.92604 0.140032
0 0.94461 0.228855
0.00726329 0.959731 0.347463
0.288151 0.957549 0.396536
0.548638 0.948699 0.310857
0.983963 0.9084 0.298878
1 0.936599 0.351034
1 0.975692 0.393942
1 0.975891 0.394171
0 1 0.287358
0 1 0.365606
0.0742962 1 0.45182
0.320348 1 0.467613
0.566995 1 0.363714
0.979461 1 0.26482
1 1 0.287785
1 1 0.313329
1 1 0.313329
0 1 0.457786
0.0361028 1 0.503685
0.189273 1 0.545419
0.358618 1 0.529458
0.61944 1 0.408835
0.989029 1 0.281361
1 1 0.278187
1 1 0.287083
1 1 0.287083
0.0253758 1 0.538491
0.112352 1 0.56492
0.226581 1 0.578546
0.370748 1 0.547127
0.633646 1 0.418189
0.989487 1 0.276951
1 1 0.263416
1 1 0.267872
1 1 0.267887
0 0 0.876936
0 0 0.875212
0.114199 0 0.85861
0.388327 0 0.803143
0.640757 0 0.775738
0.978347 0 0.724575
1 0 0.683085
1 0 0.676188
1 0 0.676738
0 0.0361791 0.859541
0 0.0301671 0.863127
0.107378 0.0192569 0.852781
0.38819 0 0.799619
0.639155 0 0.775128
0.985702 0 0.723659
1 0 0.685802
1 0.0012665 0.698497
1 0.00149538 0.699886
0 0.1691 0.790707
0 0.163073 0.819715
0.0968948 0.154452 0.838926
0.392538 0.137087 0.799466
0.642039 0.114839 0.780606
0.995438 0.104997 0.722164
1 0.154559 0.713268
1 0.230015 0.791547
1 0.232258 0.793439
0 0.42739 0.478401
0 0.43357 0.540398
0.00428779 0.431189 0.661189
0.358694 0.393744 0.779232
0.61529 0.387243 0.759014
0.975052 0.39498 0.685725
1 0.447456 0.72433
1 0.501747 0.819562
1 0.502602 0.821302
0 0.675273 0.27985
0 0.681315 0.350851
0.00173953 0.683101 0.463676
0.299565 0.651713 0.621164
0.572519 0.625635 0.717739
0.919661 0.63328 0.661128
1 0.694789 0.705562
1 0.769116 0.787137
1 0.770214 0.787976
0 0.957137 0.228519
0 0.965362 0.311482
0.00706493 0.968811 0.452873
0.291661 0.954833 0.648096
0.527962 0.939025 0.684184
0.947021 0.907835 0.633173
1 0.936553 0.667018
1 0.97612 0.712535
1 0.976303 0.712718
0 1 0.365179
0 1 0.460594
0.0755932 1 0.599252
0.31873 1 0.732525
0.547463 1 0.719356
0.929732 1 0.584024
1 1 0.601419
1 1 0.625803
1 1 0.625803
0 1 0.559487
0.0243687 1 0.633356
0.184741 1 0.743465
0.354116 1 0.816434
0.592416 1 0.780118
0.939239 1 0.597818
1 1 0.584695
1 1 0.59353
1 1 0.593225
0.00502022 1 0.666102
0.0977188 1 0.727306
0.221607 1 0.803388
0.363195 1 0.84654
0.604425 1 0.795529
0.935988 1 0.596704
1 1 0.570703
1 1 0.574807
1 1 0.574823
0 0 1
0 0 1
0.0942397 0 1
0.375357 0 1
0.631342 0 1
0.967834 0 1
1 0 1
1 0 1
1 0 1
0 0.019028 1
0 0.0151369 1
0.0885939 0.00703441 1
0.377203 0 1
0.630564 0 1
0.976226 0 1
1 0 1
1 0 1
1 0 1
0 0.148486 1
0 0.146715 1
0.0829175 0.143114 1
0.385534 0.12488 1
0.634821 0.106233 1
0.98854 0.0962997 1
1 0.141741 1
1 0.216373 1
1 0.218265 1
0 0.414984 0.940749
0 0.418143 0.9776
0.00613413 0.412497 0.999268
0.351614 0.387533 1
0.609277 0.382116 1
0.974823 0.381445 1
1 0.429191 1
1 0.483314 1
1 0.484123 1
0 0.702251 0.617685
0 0.707866 0.710536
0 0.70518 0.853819
0.245884 0.656062 0.990616
0.56286 0.61915 1
0.93611 0.615946 1
1 0.674311 1
1 0.746319 1
1 0.747036 1
0 0.981247 0.457527
0 0.990478 0.535958
0 0.995544 0.656016
0.216983 0.977661 0.811749
0.495262 0.950622 0.931533
0.877791 0.912398 0.992447
1 0.942855 0.995911
1 0.977447 1
1 0.977707 1
0 1 0.526741
0 1 0.608011
0.00880446 1 0.72224
0.276661 1 0.8551
0.536507 1 0.975006
0.86096 1 0.982605
1 1 0.984131
1 1 0.989105
1 1 0.988952
0 1 0.691386
0 1 0.751019
0.0990311 1 0.840238
0.314672 1 0.924071
0.578012 1 1
0.866209 1 0.987381
1 1 0.977829
1 1 0.979965
1 1 0.97966
0 1 0.773602
0.00541695 1 0.82063
0.144076 1 0.885481
0.329809 1 0.950011
0.588952 1 1
0.866056 1 0.988769
1 1 0.972076
1 1 0.97409
1 1 0.97409
0 0 1
0 0 1
0.0846723 0 1
0.370398 0 1
0.626825 0 1
0.96466 0 1
1 0 1
1 0 1
1 0 1
0 0.0121004 1
0 0.00901808 1
0.0799268 0.00177005 1
0.374105 0 1
0.627436 0 1
0.974121 0 1
1 0 1
1 0 1
1 0 1
0 0.140856 1
0 0.141421 1
0.0789349 0.139971 1
0.384619 0.121843 1
0.634073 0.105531 1
0.987869 0.0987716 1
1 0.145342 1
1 0.221485 1
1 0.223545 1
0 0.405158 1
0 0.409842 1
0.00767529 0.409842 1
0.352911 0.391608 1
0.611948 0.385183 1
0.975265 0.384451 1
1 0.43212 1
1 0.485542 1
1 0.486503 1
0 0.71165 0.907378
0 0.714565 0.984253
0 0.704753 1
0.259068 0.65095 1
0.563897 0.621241 1
0.935805 0.618769 1
1 0.674968 1
1 0.744533 1
1 0.745144 1
0 0.996902 0.668833
0 1 0.743877
0 1 0.859068
0.153429 0.992157 0.995422
0.437934 0.965255 1
0.872007 0.910124 1
1 0.932143 1
1 0.965591 1
1 0.96585 1
0 1 0.695323
0 1 0.769818
0 1 0.873274
0.210315 1 0.986648
0.476341 1 1
0.844816 1 1
1 1 1
1 1 1
1 1 1
0 1 0.826246
0 1 0.878645
0.035874 1 0.957305
0.251209 1 1
0.525383 1 1
0.854475 1 1
0.999908 1 1
1 1 1
1 1 1
0 1 0.881727
0 1 0.922759
0.0821698 1 0.980041
0.268711 1 1
0.54464 1 1
0.854353 1 1
0.995789 1 1
1 1 1
1 1 1
0 0 1
0 0 1
0.0823682 0 1
0.371191 0 1
0.626688 0 1
0.965454 0 1
1 0 1
1 0 1
1 0 1
0 0.0111238 1
0 0.00849927 1
0.0795605 0.00199893 1
0.376684 0 1
0.628824 0 1
0.975952 0 1
1 0 1
1 0 1
1 0 1
0 0.141573 1
0 0.143709 1
0.0830243 0.144259 1
0.389319 0.126894 1
0.638773 0.112566 1
0.991012 0.107836 1
1 0.155947 1
1 0.236011 1
1 0.237415 1
0 0.407675 1
0 0.414969 1
0.0132448 0.41796 1
0.361776 0.402731 1
0.6215 0.395941 1
0.980407 0.395224 1
1 0.442481 1
1 0.494087 1
1 0.494987 1
0 0.717174 1
0 0.71957 1
0 0.708553 1
0.272969 0.658427 1
0.573037 0.631266 1
0.945113 0.629602 1
1 0.687785 1
1 0.754681 1
1 0.75491 1
0 1 0.801129
0 1 0.87187
0 1 0.976028
0.138613 0.998993 1
0.434897 0.970138 1
0.876631 0.915419 1
1 0.935561 1
1 0.965286 1
1 0.965331 1
0 1 0.795422
0 1 0.862135
0 1 0.956863
0.185641 1 1
0.44979 1 1
0.817838 1 1
0.999664 1 1
1 1 1
1 1 1
0 1 0.898268
0 1 0.947112
0.0166018 1 1
0.22536 1 1
0.496178 1 1
0.834424 1 1
0.992401 1 1
1 1 1
1 1 1
0 1 0.941451
0 1 0.981155
0.0555734 1 1
0.242039 1 1
0.515358 1 1
0.843961 1 1
0.986358 1 1
1 1 1
1 1 1
0 0 1
0 0 1
0.0843519 0 1
0.374884 0 1
0.628305 0 1
0.968215 0 1
1 0 1
1 0 1
1 0 1
0 0.0126192 1
0 0.0104982 1
0.0835126 0.00440986 1
0.382269 0 1
0.632547 0 1
0.979614 0 1
1 0 1
1 0.00695811 1
1 0.00802625 1
0 0.146517 1
0 0.14992 1
0.091371 0.151629 1
0.397055 0.135836 1
0.646433 0.12372 1
0.996216 0.120806 1
1 0.169619 1
1 0.252659 1
1 0.253895 1
0 0.416648 1
0 0.425879 1
0.0288701 0.430808 1
0.373739 0.417716 1
0.635493 0.409644 1
0.986908 0.408469 1
1 0.45388 1
1 0.503777 1
1 0.504387 1
0 0.724178 1
0 0.726604 1
0 0.717983 1
0.286534 0.672282 1
0.586282 0.645914 1
0.956985 0.645289 1
1 0.702235 1
1 0.765164 1
1 0.765545 1
0 1 0.885115
0 1 0.94641
0 1 1
0.139223 1 1
0.444144 0.976532 1
0.883787 0.923766 1
1 0.942107 1
1 0.969619 1
1 0.96965 1
0 1 0.857221
0 1 0.921706
0 1 0.999496
0.174823 1 1
0.440742 1 1
0.816556 1 1
0.99968 1 1
1 1 1
1 1 1
0 1 0.951888
0 1 0.996017
0.00984207 1 1
0.209522 1 1
0.481758 1 1
0.818006 1 1
0.98761 1 1
1 1 1
1 1 1
0 1 0.988907
0 1 1
0.0377356 1 1
0.224094 1 1
0.49839 1 1
0.827237 1 1
0.985595 1 1
1 1 1
1 1 1
