public/textures/LUTs/HALFDOME.CUBE
TITLE "Generated by Resolve"
LUT_3D_SIZE 33
0 0 0
0 0 0
0 0 0
0 0 0
0 0 0
0 0 0
0.0558785 0 0
0.161608 0 0
0.260273 0 0
0.342901 0 0
0.417014 0 0
0.484703 0 0
0.548379 0 0
0.608164 0 0
0.666545 0 0
0.723949 0 0
0.775006 0 0
0.800778 0 0
0.823133 0 0
0.845563 0 0
0.868162 0 0
0.891554 0 0
0.914412 0 0
0.93669 0 0
0.958679 0 0
0.980468 0 0
1 0 0
1 0 0
1 0 0
1 0 0
1 0 0
1 0 0
1 0 0
0 0 0
0 0 0
0 0 0
0 0 0
0 0 0
0 0 0
0.049546 0 0
0.157259 0 0
0.257984 0 0
0.342168 0 0
0.417182 0 0
0.485649 0 0
0.550088 0 0
0.610391 0 0
0.669718 0 0
0.727932 0 0
0.779339 0 0
0.803601 0 0
0.827451 0 0
0.85037 0 0
0.872847 0 0
0.895048 0 0
0.917067 0 0
0.938918 0 0
0.960601 0 0
0.982177 0 0
1 0 0
1 0 0
1 0 0
1 0 0
1 0 0
1 0 0
1 0 0
0 0 0
0 0 0
0 0 0
0 0 0
0 0 0
0 0 0
0.0433814 0 0
0.145876 0 0
0.24535 0 0
0.331151 0 0
0.406867 0 0
0.477485 0 0
0.543526 0 0
0.606165 0 0
0.668803 0 0
0.730968 0 0
0.781964 0 0
0.80502 0 0
0.827665 0 0
0.85005 0 0
0.872251 0 0
0.89427 0 0
0.916136 0 0
0.937835 0 0
0.959426 0 0
0.98088 0 0
1 0 0
1 0 0
1 0 0
1 0 0
1 0 0
1 0 0
1 0 0
0 0 0
0 0 0
0 0 0
0 0 0
0 0 0
0 0 0
0.0478065 0 0
0.151598 0 0
0.25069 0 0
0.334768 0 0
0.409537 0 0
0.480659 0 0
0.545068 0 0
0.605554 0 0
0.66453 0 0
0.722255 0 0
0.773877 0 0
0.800214 0 0
0.822599 0 0
0.844907 0 0
0.867109 0 0
0.889158 0 0
0.911147 0 0
0.932998 0 0
0.954711 0 0
0.976318 0 0
0.998291 0 0
1 0 0
1 0 0
1 0 0
1 0 0
1 0 0
1 0 0
0 0 0
0 0 0
0 0 0
0 0 0
0 0 0
0 0 0
0.052903 0 0
0.160266 0 0
0.264164 0 0
0.346929 0 0
0.420554 0 0
0.487037 0 0
0.548501 0 0
0.606806 0 0
0.663722 0 0
0.719066 0 0
0.769146 0 0
0.796948 0 0
0.818402 0 0
0.839841 0 0
0.861265 0 0
0.882689 0 0
0.904097 0 0
0.925505 0 0
0.94696 0 0
0.968353 0 0
0.990219 0 0
1 0 0
1 0 0
1 0 0
1 0 0
1 0 0
1 0 0
0 0.0209201 0
0 0.0219272 0
0 0.0229648 0
0 0.0240635 0
0 0.025452 0
0 0.0263218 0
0.0577707 0.0233616 0
0.163439 0.0204471 0
0.26128 0.0170748 0
0.342535 0.0129549 0
0.414649 0.0089723 0
0.480369 0.00518807 0
0.541329 0.00408942 0
0.598718 0.00468452 0
0.654856 0.00466926 0
0.70956 0.00486763 0
0.761196 0.00575265 0
0.793652 0.00662242 0
0.814878 0.00749218 0
0.835889 0.00836194 0
0.856779 0.00923171 0
0.877577 0.0100862 0
0.898268 0.010956 0
0.918929 0.01178 0
0.93962 0.0125582 0
0.960296 0.0133059 0
0.98146 0.0140078 0
1 0.0146639 0
1 0.0152895 0
1 0.0158999 0
1 0.016495 0
1 0.0170596 0
1 0.0175784 0
0 0.0760357 0
0 0.0817273 0
0 0.0853895 0
0 0.0875257 0
0 0.0882887 0
0 0.0871443 0
0.0385595 0.0842451 0
0.138994 0.0816358 0
0.238483 0.0788586 0
0.324453 0.0754101 0
0.397223 0.0712291 0
0.464591 0.0669108 0
0.525582 0.0624552 0
0.582742 0.0585946 0
0.638605 0.0550393 0
0.693492 0.0516823 0
0.746746 0.0490425 0
0.789929 0.046479 0
0.813764 0.0445106 0
0.834699 0.0433509 0
0.855528 0.0436713 0
0.876234 0.0450904 0
0.896864 0.0468147 0
0.917403 0.0487526 0
0.937865 0.0508888 0
0.958236 0.0531472 0
0.978775 0.0558175 0
0.999237 0.0585641 0
1 0.060441 0
1 0.0622568 0
1 0.063859 0
1 0.0654459 0
1 0.0670024 0
0 0.146975 0
0 0.149264 0
0 0.150988 0
0 0.151965 0
0 0.151919 0
0.00129702 0.149935 0
0.0298314 0.146593 0
0.112245 0.143664 0
0.214466 0.140658 0
0.306783 0.137087 0
0.380423 0.133074 0
0.449378 0.128573 0
0.511391 0.124132 0
0.568399 0.120195 0
0.624369 0.116716 0
0.67921 0.113451 0
0.732433 0.110567 0
0.784253 0.108202 0
0.813428 0.10634 0
0.834287 0.10515 0
0.855055 0.105074 0
0.875715 0.106126 0
0.896284 0.107958 0
0.916777 0.110246 0
0.937179 0.11284 0
0.957504 0.115633 0
0.977981 0.118441 0
0.998413 0.121263 0
1 0.12311 0
1 0.12488 0
1 0.126635 0
1 0.128496 0
1 0.130266 0
0 0.211765 0
0 0.213321 0
0 0.214435 0
0 0.214969 0
0 0.21442 0
0.002533 0.211902 0
0.0308995 0.208255 0
0.0862135 0.205173 0
0.189029 0.202106 0
0.285481 0.198795 0
0.363622 0.194659 0
0.434043 0.190356 0
0.497353 0.186038 0
0.554345 0.182223 0
0.610315 0.17882 0
0.665263 0.175708 0
0.718685 0.173007 0
0.77055 0.170687 0
0.813428 0.168872 0
0.834241 0.167865 0
0.854932 0.167895 0
0.875547 0.169009 0
0.896071 0.170901 0
0.916503 0.173236 0
0.936873 0.175845 0
0.957153 0.178637 0
0.9776 0.18143 0
0.997971 0.184298 0
1 0.186084 0
1 0.187854 0
1 0.189517 0
1 0.191287 0
1 0.192981 0
0 0.276265 0
0 0.27744 0
0 0.278187 0
0 0.278431 0
0 0.27747 0
0.00370794 0.274434 0
0.0319524 0.27071 0
0.0643626 0.267674 0
0.160754 0.264698 0
0.261585 0.261295 0
0.34548 0.25745 0
0.417609 0.253223 0
0.482521 0.248966 0
0.539666 0.245243 0
0.595758 0.241978 0
0.650706 0.238926 0
0.704189 0.236316 0
0.756085 0.234119 0
0.805249 0.232395 0
0.834379 0.231449 0
0.855039 0.231586 0
0.875608 0.23267 0
0.896086 0.234562 0
0.916472 0.236851 0
0.936797 0.239506 0
0.957046 0.242115 0
0.977447 0.244984 0
0.997787 0.247639 0
1 0.249393 0
1 0.250935 0
1 0.252583 0
1 0.254231 0
1 0.255894 0
0 0.34081 0
0 0.341695 0
0 0.342168 0
0 0.342153 0
0 0.340978 0
0.00482185 0.337636 0
0.03299 0.333974 0
0.060029 0.330861 0
0.130175 0.327703 0
0.234836 0.324498 0
0.325292 0.320684 0
0.399664 0.316411 0
0.466987 0.31223 0
0.524376 0.308598 0
0.580468 0.305333 0
0.635508 0.302251 0
0.688991 0.299535 0
0.740887 0.297383 0
0.790768 0.29572 0
0.832227 0.294636 0
0.855253 0.294652 0
0.875776 0.295705 0
0.896223 0.297612 0
0.916579 0.299825 0
0.936858 0.302342 0
0.957061 0.305013 0
0.977203 0.3075 0
0.997742 0.310079 0
1 0.311727 0
1 0.313252 0
1 0.314794 0
1 0.31635 0
1 0.317998 0
0 0.405524 0
0 0.40618 0
0 0.406485 0
0 0.406195 0
0 0.404898 0
0.00590524 0.401129 0
0.0340124 0.397574 0
0.0609751 0.394461 0
0.105684 0.391562 0
0.206195 0.388342 0
0.303624 0.384558 0
0.380606 0.380362 0
0.449744 0.376135 0
0.508568 0.372381 0
0.564599 0.368994 0
0.619593 0.365774 0
0.672999 0.363088 0
0.724849 0.360662 0
0.774716 0.358724 0
0.821515 0.357549 0
0.854627 0.357397 0
0.876051 0.358358 0
0.896452 0.359976 0
0.916777 0.362112 0
0.937026 0.364385 0
0.957198 0.366842 0
0.977325 0.369238 0
0.997818 0.371725 0
1 0.373236 0
1 0.374655 0
1 0.376181 0
1 0.37763 0
1 0.379171 0
0 0.469978 0
0 0.470466 0
0 0.470619 0
0 0.470268 0
0 0.468681 0
0.00695811 0.464805 0
0.0349889 0.461143 0
0.0619059 0.458137 0
0.0889143 0.455161 0
0.176928 0.451881 0
0.279011 0.448051 0
0.362036 0.443763 0
0.432547 0.43946 0
0.49305 0.435508 0
0.548989 0.431891 0
0.603876 0.428672 0
0.657252 0.425772 0
0.709087 0.42327 0
0.75874 0.421088 0
0.806271 0.419776 0
0.850202 0.419379 0
0.876387 0.420111 0
0.896757 0.421485 0
0.917052 0.423362 0
0.93727 0.42562 0
0.957427 0.427939 0
0.977493 0.430213 0
0.997986 0.432547 0
1 0.433936 0
1 0.435309 0
1 0.436698 0
1 0.43798 0
1 0.439384 0
0 0.532143 0
0 0.532586 0
0 0.532586 0
0 0.531975 0
0 0.530449 0
0.00796521 0.526345 0
0.0359503 0.522622 0
0.0628061 0.519554 0
0.0890211 0.516335 0
0.150072 0.512932 0
0.255543 0.508949 0
0.343999 0.504463 0
0.416327 0.499901 0
0.477928 0.495689 0
0.534524 0.491737 0
0.589319 0.48806 0
0.642557 0.484825 0
0.69427 0.482002 0
0.743816 0.479652 0
0.79118 0.478065 0
0.835355 0.47744 0
0.873304 0.477989 0
0.897093 0.479286 0
0.917357 0.481102 0
0.937545 0.48307 0
0.957656 0.485267 0
0.977722 0.487312 0
0.998184 0.489464 0
1 0.490806 0
1 0.492073 0
1 0.493446 0
1 0.494713 0
1 0.495995 0
0 0.594156 0
0 0.594354 0
0 0.594186 0
0 0.59353 0
0 0.591836 0
0.00895705 0.587655 0
0.0368811 0.583856 0
0.0637064 0.580636 0
0.0898756 0.577249 0
0.132418 0.573495 0
0.232898 0.569451 0
0.325689 0.564752 0
0.400641 0.559853 0
0.463737 0.55523 0
0.520882 0.551003 0
0.575479 0.546853 0
0.628656 0.543206 0
0.680247 0.540078 0
0.729702 0.537469 0
0.776913 0.535698 0
0.821012 0.534997 0
0.861692 0.535485 0
0.895659 0.536614 0
0.917708 0.538247 0
0.937865 0.540108 0
0.957961 0.542214 0
0.977996 0.544152 0
0.998428 0.546044 0
1 0.547341 0
1 0.548608 0
1 0.549859 0
1 0.551141 0
1 0.552407 0
0 0.657252 0
0 0.657298 0
0 0.657084 0
0 0.65626 0
0 0.654322 0
0.00993362 0.649775 0
0.0378271 0.645899 0
0.0646067 0.642466 0
0.0907454 0.638849 0
0.122133 0.634852 0
0.209277 0.630488 0
0.306844 0.625711 0
0.384192 0.6206 0
0.448707 0.615976 0
0.507118 0.61149 0
0.561685 0.607263 0
0.614694 0.603494 0
0.666239 0.600122 0
0.715557 0.597284 0
0.762631 0.59527 0
0.806485 0.594446 0
0.847074 0.594766 0
0.885298 0.595743 0
0.916732 0.597269 0
0.938247 0.598917 0
0.958328 0.600763 0
0.978332 0.60264 0
0.998749 0.604364 0
1 0.605524 0
1 0.60676 0
1 0.607919 0
1 0.609171 0
1 0.610437 0
0 0.719921 0
0 0.719905 0
0 0.719448 0
0 0.718593 0
0 0.716518 0
0.0109255 0.711833 0
0.0387884 0.707607 0
0.0655222 0.703868 0
0.0916152 0.700053 0
0.11722 0.695674 0
0.185672 0.691218 0
0.286976 0.686213 0
0.368704 0.681224 0
0.434089 0.676432 0
0.494133 0.671885 0
0.548608 0.667567 0
0.601434 0.663584 0
0.652827 0.659998 0
0.702022 0.657038 0
0.748867 0.654871 0
0.792508 0.653758 0
0.832883 0.653895 0
0.871107 0.654795 0
0.907881 0.656016 0
0.938521 0.657542 0
0.958724 0.659068 0
0.978714 0.660594 0
0.9991 0.662058 0
1 0.663142 0
1 0.66424 0
1 0.665431 0
1 0.666529 0
1 0.667735 0
0 0.782742 0
0 0.782589 0
0 0.782086 0
0 0.781003 0
0 0.778805 0
0.0119173 0.773816 0
0.0397345 0.76939 0
0.066453 0.765408 0
0.0925002 0.761379 0
0.118074 0.756954 0
0.163287 0.752102 0
0.267582 0.74699 0
0.354086 0.741863 0
0.420066 0.73695 0
0.481285 0.732311 0
0.536248 0.727749 0
0.588937 0.723598 0
0.640208 0.719799 0
0.689128 0.716686 0
0.735912 0.714153 0
0.779202 0.712932 0
0.819287 0.712749 0
0.857313 0.713375 0
0.89395 0.714427 0
0.929305 0.715618 0
0.957992 0.716884 0
0.979156 0.718151 0
0.999512 0.719295 0
1 0.720333 0
1 0.721386 0
1 0.722438 0
1 0.723598 0
1 0.724681 0
0 0.830045 0
0 0.829953 0
0 0.829709 0
0 0.829267 0
0 0.828397 0
0.0129244 0.825742 0
0.0407111 0.824155 0
0.0673838 0.822858 0
0.0934157 0.82182 0
0.118944 0.818402 0
0.1523 0.813367 0
0.249622 0.808042 0
0.339635 0.802655 0
0.40705 0.797543 0
0.469123 0.792767 0
0.52488 0.787976 0
0.577386 0.783627 0
0.628367 0.779644 0
0.677119 0.776196 0
0.723766 0.773449 0
0.766827 0.771832 0
0.806607 0.771511 0
0.844373 0.771862 0
0.880858 0.772549 0
0.916304 0.773373 0
0.951141 0.774182 0
0.979034 0.774929 0
0.999985 0.775448 0
1 0.776379 0
1 0.777325 0
1 0.778286 0
1 0.779248 0
1 0.780209 0
0 0.854215 0
0 0.854078 0
0 0.853819 0
0 0.85333 0
0 0.85243 0
0.0139162 0.850828 0
0.0416724 0.850126 0
0.0683146 0.849714 0
0.0943313 0.84947 0
0.119829 0.849317 0
0.151202 0.849256 0
0.237095 0.849241 0
0.328374 0.849287 0
0.397818 0.848081 0
0.460182 0.845014 0
0.516625 0.841978 0
0.568856 0.839231 0
0.619669 0.836164 0
0.668269 0.832441 0
0.714595 0.829374 0
0.757443 0.827405 0
0.796902 0.826642 0
0.834424 0.826429 0
0.870436 0.826535 0
0.905486 0.826688 0
0.940017 0.826871 0
0.973892 0.826902 0
1 0.82678 0
1 0.827573 0
1 0.828443 0
1 0.829328 0
1 0.830137 0
1 0.831037 0
0 0.878233 0
0 0.87808 0
0 0.877791 0
0 0.877272 0
0 0.876356 0
0.0149081 0.874708 0
0.0426337 0.873991 0
0.0692607 0.873549 0
0.0952316 0.873274 0
0.120714 0.873091 0
0.150668 0.873014 0
0.23122 0.872984 0
0.32282 0.872999 0
0.392844 0.87306 0
0.455222 0.873152 0
0.511772 0.873289 0
0.563882 0.873442 0
0.614389 0.873472 0
0.662593 0.873396 0
0.708568 0.873503 0
0.750942 0.873793 0
0.789883 0.87422 0
0.826856 0.874769 0
0.862501 0.875196 0
0.897154 0.87512 0
0.931365 0.874449 0
0.965454 0.873762 0
0.999557 0.87303 0
1 0.873487 0
1 0.87396 0
1 0.874449 0
1 0.874952 0
1 0.875456 0
0 0.902129 0
0 0.901946 0
0 0.901625 0
0 0.901091 0
0 0.900145 0
0.0158694 0.898482 0
0.043595 0.897734 0
0.0701762 0.897261 0
0.0961471 0.896956 0
0.121584 0.896773 0
0.150805 0.896651 0
0.230121 0.896605 0
0.320897 0.896605 0
0.390753 0.896635 0
0.452811 0.896712 0
0.50898 0.896819 0
0.560754 0.896956 0
0.610727 0.897139 0
0.658442 0.897322 0
0.703929 0.897536 0
0.745785 0.897765 0
0.784222 0.898024 0
0.820859 0.898283 0
0.856184 0.898573 0
0.890562 0.898878 0
0.924498 0.899199 0
0.958358 0.899519 0
0.991867 0.89987 0
1 0.900221 0
1 0.900587 0
1 0.900954 0
1 0.901335 0
1 0.901732 0
0 0.925917 0
0 0.925704 0
0 0.925353 0
0 0.924804 0
0 0.923812 0
0.0168612 0.922133 0
0.0445411 0.92137 0
0.071107 0.920882 0
0.0970474 0.920546 0
0.122469 0.920333 0
0.151125 0.920195 0
0.230289 0.920119 0
0.320043 0.920104 0
0.389258 0.920119 0
0.450675 0.920165 0
0.506401 0.920256 0
0.557702 0.920378 0
0.607233 0.920531 0
0.654612 0.920699 0
0.699718 0.920897 0
0.741054 0.921111 0
0.779217 0.92134 0
0.815518 0.921599 0
0.850584 0.921874 0
0.884718 0.922148 0
0.918441 0.922454 0
0.952117 0.922759 0
0.985092 0.923095 0
1 0.92343 0
1 0.923781 0
1 0.924132 0
1 0.924498 0
1 0.92488 0
0 0.949584 0
0 0.94934 0
0 0.948974 0
0 0.948394 0
0 0.947387 0
0.0178225 0.945678 0
0.0454871 0.9449 0
0.0720378 0.944381 0
0.0979477 0.94403 0
0.123354 0.943801 0
0.150515 0.943648 0
0.229236 0.943542 0
0.318029 0.943511 0
0.386862 0.943496 0
0.447868 0.943542 0
0.503288 0.943618 0
0.554391 0.943709 0
0.603616 0.943847 0
0.650568 0.943999 0
0.695369 0.944167 0
0.736278 0.944366 0
0.774273 0.944595 0
0.81033 0.944823 0
0.845151 0.945083 0
0.879118 0.945342 0
0.912734 0.945632 0
0.946273 0.945922 0
0.978805 0.946242 0
0.998474 0.946548 0
1 0.946883 0
1 0.947234 0
1 0.947585 0
1 0.947936 0
0 0.973144 0
0 0.972885 0
0 0.972488 0
0 0.971893 0
0 0.970871 0
0.0187839 0.969146 0
0.0464332 0.968322 0
0.0729534 0.967788 0
0.0988632 0.967422 0
0.124224 0.967178 0
0.148898 0.966995 0
0.225757 0.966888 0
0.314702 0.966827 0
0.383185 0.966796 0
0.444114 0.966812 0
0.499596 0.966873 0
0.550515 0.966949 0
0.599451 0.967071 0
0.646189 0.967208 0
0.690669 0.967361 0
0.731334 0.967544 0
0.76907 0.967742 0
0.804913 0.967971 0
0.839567 0.9682 0
0.873457 0.96846 0
0.90695 0.968719 0
0.940414 0.969009 0
0.972488 0.969299 0
0.992126 0.969604 0
1 0.969924 0
1 0.970245 0
1 0.970581 0
1 0.970932 0
0 0.996841 0
0 0.996567 0
0 0.996155 0
0 0.995529 0
0 0.994476 0
0.0197452 0.992493 0
0.047364 0.991669 0
0.0738842 0.991119 0
0.0997635 0.990738 0
0.125093 0.990448 0
0.149538 0.990265 0
0.21973 0.990127 0
0.309422 0.990051 0
0.378378 0.990005 0
0.439323 0.990005 0
0.49514 0.990051 0
0.545937 0.990112 0
0.594568 0.990219 0
0.641123 0.990326 0
0.685374 0.990478 0
0.725765 0.990646 0
0.763378 0.990829 0
0.799115 0.991028 0
0.8336 0.991257 0
0.867414 0.991485 0
0.900877 0.991745 0
0.934325 0.992004 0
0.965911 0.992294 0
0.985565 0.992584 0
1 0.992889 0
1 0.993194 0
1 0.993515 0
1 0.993851 0
0 1 0
0 1 0
0 1 0
0 1 0
0 1 0
0.0207218 1 0
0.0483101 1 0
0.0747997 1 0
0.100679 1 0
0.125978 1 0
0.150408 1 0
0.218753 1 0
0.308339 1 0
0.377356 1 0
0.43827 1 0
0.494179 1 0
0.544778 1 0
0.593362 1 0
0.639811 1 0
0.684001 1 0
0.724193 1 0
0.761868 1 0
0.797513 1 0
0.832013 1 0
0.865843 1 0
0.899351 1 0
0.93286 1 0
0.964126 1 0
0.983825 1 0
1 1 0
1 1 0
1 1 0
1 1 0
0 1 0
0 1 0
0 1 0
0 1 0
0 1 0
0.0216678 1 0
0.0492561 1 0
0.0757305 1 0
0.101564 1 0
