public/textures/LUTs/HALFDOME.CUBE
TITLE "Generated by Resolve"
LUT_3D_SIZE 5
0 0 0
0.260273 0 0
0.775006 0 0
0.958679 0 0
1 0 0
0 0.211765 0
0.189029 0.202106 0
0.718685 0.173007 0
0.936873 0.175845 0
1 0.192981 0
0 0.719921 0
0.0916152 0.700053 0
0.601434 0.663584 0
0.938521 0.657542 0
1 0.667735 0
0 0.973144 0
0.0988632 0.967422 0
0.550515 0.966949 0
0.873457 0.96846 0
1 0.970932 0
0 1 0
0.10605 1 0
0.555428 1 0
0.872511 1 0
1 1 0
0 0 0.190967
0.230915 0 0.188998
0.755199 0 0.14934
0.942779 0 0.170916
1 0 0.200198
0 0.211261 0.167452
0.184131 0.191959 0.173007
0.743374 0.15024 0.171374
0.949447 0.144778 0.212772
1 0.150576 0.274174
0 0.706767 0.119005
0.0915847 0.686595 0.0910658
0.606195 0.649638 0.0906386
0.938659 0.642725 0.0920577
1 0.651987 0.0943618
0 0.971374 0.122087
0.0982681 0.965484 0.0988937
0.551049 0.964889 0.0972
0.873884 0.966278 0.0975052
1 0.968658 0.0987564
0 1 0.143969
0.105089 1 0.10692
0.554513 1 0.104295
0.871748 1 0.103792
1 1 0.104341
0 0 0.743114
0.0791333 0 0.772198
0.773388 0 0.772305
0.945403 0 0.783368
1 0 0.791623
0 0.212024 0.734768
0.0787518 0.182834 0.762661
0.752834 0.132769 0.773297
0.939162 0.134783 0.777173
1 0.149355 0.781628
0 0.695964 0.666819
0.088777 0.665064 0.688197
0.621973 0.619287 0.650996
0.945403 0.600046 0.703838
1 0.597971 0.7785
0 0.971176 0.753887
0.09897 0.965133 0.673091
0.553033 0.964385 0.549187
0.876295 0.965667 0.505394
1 0.967956 0.500908
0 1 0.777829
0.10547 1 0.687388
0.554833 1 0.556558
0.873655 1 0.512871
1 1 0.507836
0 0 0.916548
0.028687 0 0.946609
0.735576 0 0.977951
0.947875 0 0.967254
1 0 0.974227
0 0.211383 0.908431
0.0460517 0.187289 0.935683
0.689677 0.14963 0.962036
0.940169 0.121935 0.959152
1 0.136172 0.962707
0 0.713375 0.900618
0.064332 0.67808 0.924788
0.588632 0.62681 0.948775
0.940185 0.592889 0.960082
1 0.599039 0.961807
0 0.979553 0.934249
0.0918135 0.970336 0.941741
0.559823 0.966949 0.95198
0.896513 0.962936 0.962722
1 0.9552 0.977066
0 1 0.979919
0.106477 1 0.971908
0.572656 1 0.969345
0.893477 1 0.968917
1 1 0.969436
0 0 1
0.00534066 0 1
0.665934 0 1
0.91368 0 1
1 0 1
0 0.231388 1
0.0272221 0.208927 1
0.639979 0.174166 1
0.897322 0.150973 1
1 0.13904 1
0 0.731762 1
0.0446326 0.699886 1
0.53048 0.65066 1
0.906569 0.618357 1
1 0.600046 1
0 0.995514 1
0.0639658 0.983261 1
0.490394 0.977401 1
0.861738 0.97293 1
1 0.961105 1
0 1 1
0.0948348 1 1
0.555535 1 1
0.890578 1 1
1 1 1
