public/textures/LUTs/HALFDOME.CUBE
TITLE "Generated by Resolve"
LUT_3D_SIZE 9
0 0 0
0 0 0
0.260273 0 0
0.548379 0 0
0.775006 0 0
0.868162 0 0
0.958679 0 0
1 0 0
1 0 0
0 0 0
0 0 0
0.264164 0 0
0.548501 0 0
0.769146 0 0
0.861265 0 0
0.94696 0 0
1 0 0
1 0 0
0 0.211765 0
0 0.21442 0
0.189029 0.202106 0
0.497353 0.186038 0
0.718685 0.173007 0
0.854932 0.167895 0
0.936873 0.175845 0
1 0.186084 0
1 0.192981 0
0 0.469978 0
0 0.468681 0
0.0889143 0.455161 0
0.432547 0.43946 0
0.657252 0.425772 0
0.850202 0.419379 0
0.93727 0.42562 0
1 0.433936 0
1 0.439384 0
0 0.719921 0
0 0.716518 0
0.0916152 0.700053 0
0.368704 0.681224 0
0.601434 0.663584 0
0.792508 0.653758 0
0.938521 0.657542 0
1 0.663142 0
1 0.667735 0
0 0.878233 0
0 0.876356 0
0.0952316 0.873274 0
0.32282 0.872999 0
0.563882 0.873442 0
0.750942 0.873793 0
0.897154 0.87512 0
1 0.873487 0
1 0.875456 0
0 0.973144 0
0 0.970871 0
0.0988632 0.967422 0
0.314702 0.966827 0
0.550515 0.966949 0
0.731334 0.967544 0
0.873457 0.96846 0
0.992126 0.969604 0
1 0.970932 0
0 1 0
0 1 0
0.102464 1 0
0.314275 1 0
0.548272 1 0
0.726848 1 0
0.868009 1 0
0.985031 1 0
1 1 0
0 1 0
0 1 0
0.10605 1 0
0.326299 1 0
0.555428 1 0
0.732235 1 0
0.872511 1 0
0.987518 1 0
1 1 0
0 0 0
0 0 0
0.237263 0 0
0.524224 0 0
0.751156 0 0
0.856428 0 0
0.944274 0 0
1 0 0.00677501
1 0 0.0222171
0 0 0
0 0 0
0.287007 0 0
0.571481 0 0
0.786847 0 0.00634775
0.874159 0 0.0168307
0.959457 0 0.0268101
1 0 0.0368353
1 0 0.0467079
0 0.213184 0
0 0.215122 0
0.192172 0.202258 0
0.49926 0.185855 0
0.720394 0.17258 0
0.855528 0.167285 0
0.937499 0.17499 0
1 0.183383 0
1 0.186801 0
0 0.469963 0
0 0.468345 0
0.0895857 0.454475 0
0.434089 0.438575 0
0.658564 0.42475 0
0.851331 0.418265 0
0.937591 0.424399 0
1 0.43267 0
1 0.438117 0
0 0.719127 0
0 0.715541 0
0.0918441 0.698894 0
0.369985 0.679866 0
0.602396 0.66212 0
0.793362 0.652293 0
0.938872 0.656016 0
1 0.661601 0
1 0.666056 0
0 0.877729 0
0 0.875792 0
0.0953078 0.872663 0
0.323476 0.872343 0
0.564385 0.872755 0
0.7514 0.87248 0
0.897581 0.874098 0
1 0.872511 0
1 0.874449 0
0 0.972503 0
0 0.970184 0
0.0988022 0.966705 0
0.315145 0.966064 0
0.550851 0.966171 0
0.731579 0.966735 0
0.873747 0.96762 0
0.992386 0.968734 0
1 0.970047 0
0 1 0
0 1 0
0.102312 1 0
0.31426 1 0
0.548226 1 0
0.726757 1 0
0.867918 1 0
0.984955 1 0
1 1 0
0 1 0.00318914
0 1 0
0.105806 1 0
0.32604 1 0
0.555154 1 0
0.732067 1 0
0.872297 1 0
0.987381 1 0
1 1 0
0 0 0.190967
0 0 0.231281
0.230915 0 0.188998
0.52752 0 0.16318
0.755199 0 0.14934
0.857404 0 0.155886
0.942779 0 0.170916
1 0 0.186526
1 0 0.200198
0 0 0.1738
0 0 0.223621
0.270832 0 0.218997
0.557244 0 0.195544
0.773922 0 0.178042
0.861982 0 0.170352
0.944869 0 0.178408
1 0 0.200015
1 0 0.232212
0 0.211261 0.167452
0 0.208331 0.188113
0.184131 0.191959 0.173007
0.514107 0.168933 0.168109
0.743374 0.15024 0.171374
0.864958 0.140932 0.184222
0.949447 0.144778 0.212772
1 0.149004 0.244099
1 0.150576 0.274174
0 0.458976 0.155856
0 0.457191 0.152636
0.08925 0.443702 0.119951
0.4365 0.427909 0.0930495
0.662852 0.413886 0.0880293
0.852903 0.406867 0.0890516
0.937514 0.412787 0.0903029
1 0.420127 0.0924544
1 0.422309 0.0978866
0 0.706767 0.119005
0 0.703212 0.11368
0.0915847 0.686595 0.0910658
0.370596 0.667659 0.0904707
0.606195 0.649638 0.0906386
0.797101 0.639582 0.0912032
0.938659 0.642725 0.0920577
1 0.647852 0.0931258
1 0.651987 0.0943618
0 0.876738 0.11017
0 0.874739 0.104601
0.0948806 0.87155 0.0949111
0.317205 0.871199 0.0939803
0.566674 0.86978 0.0938125
0.753277 0.862287 0.0940566
0.898924 0.858152 0.0946212
1 0.856626 0.0953841
1 0.859373 0.0963302
0 0.971374 0.122087
0 0.969009 0.115404
0.0982681 0.965484 0.0988937
0.303563 0.964813 0.0976577
0.551049 0.964889 0.0972
0.731807 0.965408 0.0972
0.873884 0.966278 0.0975052
0.992721 0.967376 0.0980392
1 0.968658 0.0987564
0 1 0.130709
0 1 0.122683
0.101686 1 0.102907
0.299916 1 0.101411
0.547631 1 0.10071
0.726314 1 0.100496
0.867491 1 0.100587
0.984833 1 0.100938
1 1 0.101472
0 1 0.143969
0 1 0.133608
0.105089 1 0.10692
0.311421 1 0.105196
0.554513 1 0.104295
0.731456 1 0.103883
0.871748 1 0.103792
0.987213 1 0.103975
1 1 0.104341
0 0 0.535744
0 0 0.606287
0.153109 0 0.632136
0.540948 0 0.536629
0.766537 0 0.523873
0.859236 0 0.536995
0.94403 0 0.56173
1 0 0.586572
1 0 0.606134
0 0 0.509621
0 0 0.605722
0.196551 0 0.656962
0.571511 0 0.589059
0.777783 0 0.564813
0.86273 0 0.555718
0.945434 0 0.570581
1 0 0.588357
1 0 0.602258
0 0.218067 0.408392
0 0.209476 0.470771
0.124193 0.188174 0.510521
0.512322 0.161257 0.487419
0.733928 0.147875 0.460838
0.856703 0.142519 0.448371
0.938613 0.149554 0.460319
1 0.157733 0.483497
1 0.160052 0.521157
0 0.459342 0.399084
0 0.452201 0.42118
0.0875105 0.433509 0.41442
0.439323 0.414221 0.39353
0.678553 0.393774 0.401129
0.862837 0.381552 0.417334
0.946746 0.382528 0.454582
1 0.384237 0.496468
1 0.384009 0.53782
0 0.692164 0.424063
0 0.688579 0.41825
0.0921035 0.671794 0.380606
0.36669 0.652735 0.338964
0.61088 0.634531 0.313375
0.801572 0.624033 0.298131
0.939147 0.626719 0.296742
1 0.631449 0.298222
1 0.634241 0.305699
0 0.876646 0.406241
0 0.874586 0.398489
0.0952773 0.871366 0.356252
0.306096 0.870436 0.310735
0.569696 0.860929 0.279942
0.755459 0.844083 0.26006
0.900542 0.839033 0.252399
1 0.837171 0.248554
1 0.839796 0.250767
0 0.971145 0.420462
0 0.96875 0.412146
0.0985428 0.965179 0.361425
0.287068 0.964462 0.307683
0.552087 0.964508 0.269368
0.732479 0.965011 0.244572
0.874403 0.96585 0.23357
0.993011 0.966934 0.228061
1 0.968185 0.22977
0 1 0.430488
0 1 0.421332
0.101869 1 0.365408
0.281544 1 0.309438
0.547402 1 0.269429
0.726604 1 0.244114
0.867872 1 0.232837
0.98497 1 0.22742
1 1 0.228931
0 1 0.443946
0 1 0.434195
0.105196 1 0.375952
0.293568 1 0.319142
0.554147 1 0.279118
0.73167 1 0.253742
0.872038 1 0.242176
0.987289 1 0.236515
1 1 0.237613
0 0 0.743114
0 0 0.757549
0.0791333 0 0.772198
0.533303 0 0.77351
0.773388 0 0.772305
0.861036 0 0.778576
0.945403 0 0.783368
1 0 0.787625
1 0 0.791623
0 0 0.738918
0 0 0.75877
0.158114 0 0.77499
0.549508 0 0.785763
0.779385 0 0.778775
0.863691 0 0.781582
0.946273 0 0.784466
1 0 0.78735
1 0 0.790249
0 0.212024 0.734768
0 0.202716 0.749126
0.0787518 0.182834 0.762661
0.475731 0.159991 0.776547
0.752834 0.132769 0.773297
0.857343 0.127626 0.775128
0.939162 0.134783 0.777173
1 0.143603 0.779355
1 0.149355 0.781628
0 0.470741 0.646754
0 0.458091 0.71368
0.0754101 0.435065 0.742702
0.41532 0.410849 0.761975
0.685084 0.384848 0.755123
0.857649 0.377386 0.746792
0.939071 0.382528 0.753857
1 0.389425 0.763546
1 0.392386 0.775601
0 0.695964 0.666819
0 0.686931 0.694469
0.088777 0.665064 0.688197
0.36083 0.640986 0.665568
0.621973 0.619287 0.650996
0.820111 0.602762 0.666865
0.945403 0.600046 0.703838
1 0.599054 0.742031
1 0.597971 0.7785
0 0.876936 0.739528
0 0.874708 0.732403
0.0957961 0.871427 0.679103
0.298589 0.866026 0.619318
0.575189 0.844816 0.574487
0.759762 0.827314 0.547127
0.904097 0.821683 0.537224
1 0.819577 0.531991
1 0.822171 0.53431
0 0.971176 0.753887
0 0.968734 0.742016
0.09897 0.965133 0.673091
0.273274 0.964385 0.599908
0.553033 0.964385 0.549187
0.734554 0.964858 0.518288
0.876295 0.965667 0.505394
0.994308 0.96672 0.499214
1 0.967956 0.500908
0 1 0.763195
0 1 0.749691
0.10222 1 0.67248
0.266621 1 0.597452
0.547631 1 0.545495
0.728313 1 0.515312
0.869429 1 0.503059
0.986175 1 0.497246
1 1 0.49868
0 1 0.777829
0 1 0.76759
0.10547 1 0.687388
0.279088 1 0.609812
0.554833 1 0.556558
0.733379 1 0.525811
0.873655 1 0.512871
0.988556 1 0.506691
1 1 0.507836
0 0 0.830152
0 0 0.844739
0.0439918 0 0.859648
0.46949 0 0.874632
0.765743 0 0.874281
0.862654 0 0.871427
0.946914 0 0.875685
1 0 0.879805
1 0 0.883696
0 0 0.827604
0 0 0.84712
0.122026 0 0.86276
0.50663 0 0.877958
0.766033 0 0.880858
0.864607 0 0.87364
0.94728 0 0.876188
1 0 0.879026
1 0 0.88191
0 0.207797 0.822049
0 0.198856 0.83621
0.0567483 0.180819 0.849546
0.453269 0.1608 0.863325
0.719707 0.136446 0.874128
0.858 0.116976 0.866468
0.939925 0.124208 0.868254
1 0.133028 0.870436
1 0.138857 0.872709
0 0.46746 0.818112
0 0.455039 0.831174
0.0652323 0.433753 0.843565
0.37995 0.411383 0.856565
0.655467 0.388891 0.868666
0.858198 0.36585 0.866789
0.939651 0.370993 0.868055
1 0.377722 0.869764
1 0.382528 0.871611
0 0.709834 0.816159
0 0.697032 0.827298
0.074464 0.67219 0.839109
0.305287 0.6448 0.851575
0.609049 0.618662 0.863157
0.827573 0.595499 0.868345
0.940597 0.597192 0.869154
1 0.600671 0.870527
1 0.604334 0.872053
0 0.883711 0.846098
0 0.880079 0.850645
0.0902876 0.875196 0.854307
0.28368 0.860182 0.859724
0.583429 0.832959 0.86511
0.773907 0.811658 0.870314
0.923217 0.801785 0.877256
1 0.795789 0.885405
1 0.794797 0.893523
0 0.971969 0.878492
0 0.969024 0.878187
0.0995499 0.965286 0.874739
0.27187 0.964492 0.873518
0.563684 0.964446 0.872328
0.746227 0.964889 0.859602
0.887465 0.96495 0.843244
1 0.965454 0.834974
1 0.967391 0.836255
0 1 0.886015
0 1 0.882826
0.102724 1 0.878477
0.263752 1 0.877012
0.55729 1 0.876356
0.739193 1 0.847623
0.879927 1 0.831571
0.996201 1 0.824048
1 1 0.825376
0 1 0.890227
0 1 0.886809
0.105928 1 0.882231
0.276448 1 0.880568
0.564523 1 0.879698
0.744335 1 0.856306
0.884169 1 0.840299
0.998703 1 0.832624
1 1 0.833707
0 0 0.916548
0 0 0.931365
0.028687 0 0.946609
0.431754 0 0.964416
0.735576 0 0.977951
0.853971 0 0.971481
0.947875 0 0.967254
1 0 0.970489
1 0 0.974227
0 0 0.916762
0 0 0.934234
0.0912795 0 0.949477
0.486854 0 0.964416
0.73753 0 0.977203
0.851926 0 0.974578
0.947784 0 0.9673
1 0 0.969345
1 0 0.972122
0 0.211383 0.908431
0 0.203326 0.922469
0.0460517 0.187289 0.935683
0.422461 0.169207 0.949355
0.689677 0.14963 0.962036
0.839857 0.126162 0.968124
0.940169 0.121935 0.959152
1 0.130404 0.96051
1 0.136172 0.962707
0 0.471641 0.904097
0 0.460395 0.917098
0.0552682 0.440787 0.929442
0.339422 0.419913 0.942367
0.637903 0.397604 0.954406
0.836683 0.378927 0.965637
0.939635 0.367971 0.958892
1 0.374273 0.959686
1 0.378988 0.961486
0 0.713375 0.900618
0 0.700862 0.912993
0.064332 0.67808 0.924788
0.259464 0.652491 0.937224
0.588632 0.62681 0.948775
0.798932 0.605905 0.960296
0.940185 0.592889 0.960082
1 0.595407 0.960327
1 0.599039 0.961807
0 0.893568 0.901152
0 0.889158 0.910018
0.0741436 0.882994 0.920394
0.220111 0.870893 0.932448
0.555856 0.840848 0.943648
0.75964 0.814282 0.954787
0.9234 0.798657 0.962737
1 0.794751 0.961929
1 0.797162 0.963165
0 0.979553 0.934249
0 0.975555 0.93843
0.0918135 0.970336 0.941741
0.246143 0.968185 0.946868
0.559823 0.966949 0.95198
0.750957 0.966049 0.957275
0.896513 0.962936 0.962722
1 0.956481 0.969116
1 0.9552 0.977066
0 1 0.969146
0 1 0.969757
0.103243 1 0.967849
0.265873 1 0.966735
0.565499 1 0.966064
0.748592 1 0.965866
0.889326 1 0.966003
1 1 0.966339
1 1 0.966781
0 1 0.979919
0 1 0.976501
0.106477 1 0.971908
0.27834 1 0.97023
0.572656 1 0.969345
0.753567 1 0.968963
0.893477 1 0.968917
1 1 0.9691
1 1 0.969436
0 0 1
0 0 1
0.0132296 0 1
0.409476 0 1
0.694194 0 1
0.827588 0 1
0.938735 0 1
1 0 1
1 0 1
0 0.000717174 1
0 0.00030518 1
0.0599985 0 1
0.460349 0 1
0.715236 0 1
0.824231 0 1
0.935347 0 1
1 0 1
1 0 1
0 0.219577 0.994141
0 0.211566 1
0.0365148 0.196735 1
0.384436 0.180087 1
0.667018 0.161257 1
0.817914 0.145724 1
0.923049 0.131823 1
1 0.131167 1
1 0.13637 1
0 0.480812 0.989425
0 0.469688 1
0.0454719 0.451179 1
0.293645 0.431205 1
0.613855 0.409216 1
0.821363 0.391852 1
0.917617 0.381521 1
1 0.374716 1
1 0.378744 1
0 0.721172 0.985718
0 0.708751 0.998062
0.0543526 0.687633 1
0.213031 0.662974 1
0.562921 0.637415 1
0.778073 0.615961 1
0.917433 0.60737 1
1 0.594888 1
1 0.597726 1
0 0.898695 0.981994
0 0.893568 0.993912
0.0640574 0.887129 1
0.18471 0.877882 1
0.5299 0.848112 1
0.74139 0.820569 1
0.898131 0.806851 1
1 0.793393 1
1 0.79472 1
0 0.989731 0.986206
0 0.985168 0.993561
0.0741741 0.97908 1
0.183368 0.975769 1
0.521431 0.973404 1
0.728374 0.971603 1
0.880171 0.96759 1
1 0.95903 1
1 0.958099 1
0 1 1
0 1 1
0.0933242 1 1
0.2327 1 1
0.552789 1 1
0.744747 1 1
0.889448 1 1
1 1 1
1 1 1
0 1 1
0 1 1
0.106462 1 1
0.280705 1 1
0.576394 1 1
0.757488 1 1
0.897261 1 1
1 1 1
1 1 1
0 0 1
0 0 1
0.00534066 0 1
0.379919 0 1
0.665934 0 1
0.804074 0 1
0.91368 0 1
1 0 1
1 0 1
0 0.00680552 1
0 0.00579843 1
0.0348669 0.00248722 1
0.426734 0.00199893 1
0.690806 0.00221256 1
0.80676 0.0021973 1
0.907622 0 1
1 0 1
1 0 1
0 0.231388 1
0 0.223316 1
0.0272221 0.208927 1
0.339559 0.192844 1
0.639979 0.174166 1
0.807248 0.158831 1
0.897322 0.150973 1
1 0.142473 1
1 0.13904 1
0 0.492699 1
0 0.481773 1
0.0359197 0.46392 1
0.24358 0.444511 1
0.583185 0.422477 1
0.800977 0.404257 1
0.899443 0.397436 1
0.999573 0.389319 1
1 0.381247 1
0 0.731762 1
0 0.719753 1
0.0446326 0.699886 1
0.166476 0.675929 1
0.53048 0.65066 1
0.75256 0.628138 1
0.906569 0.618357 1
0.996185 0.611093 1
1 0.600046 1
0 0.902907 1
0 0.897749 1
0.0542306 0.891279 1
0.155749 0.886183 1
0.498405 0.859342 1
0.718288 0.830747 1
0.879149 0.815366 1
0.998611 0.805875 1
1 0.796857 1
0 0.995514 1
0 0.990036 1
0.0639658 0.983261 1
0.165209 0.979797 1
0.490394 0.977401 1
0.706462 0.97557 1
0.861738 0.97293 1
0.997574 0.966018 1
1 0.961105 1
0 1 1
0 1 1
0.0749676 1 1
0.179843 1 1
0.508461 1 1
0.716915 1 1
0.868406 1 1
0.997543 1 1
1 1 1
0 1 1
0 1 1
0.0948348 1 1
0.238025 1 1
0.555535 1 1
0.746303 1 1
0.890578 1 1
1 1 1
1 1 1
