public/textures/LUTs/JOKER.CUBE
TITLE "Generated by Resolve"
LUT_3D_SIZE 33
0 0 0.0105287
0 0 0.0146792
0 0 0.0186923
0 0 0.0228733
0 0 0.0265049
0 0 0.0305333
0 0 0.0343633
0.0340429 0 0.0338445
0.0866102 0 0.0296635
0.142382 0 0.0249943
0.201266 0 0.019913
0.259709 0 0.0145724
0.316289 0 0.00962844
0.370657 0 0.00408942
0.421653 0 0
0.461112 0 0
0.499046 0 0
0.537041 0 0
0.573953 0 0
0.608789 0 0
0.642847 0 0
0.675578 0 0
0.707668 0 0
0.738979 0 0
0.769528 0 0
0.799313 0 0
0.828351 0 0
0.856825 0 0
0.884901 0 0
0.912795 0 0
0.940642 0 0
0.968658 0 0
0.997269 0 0
0 0.000213626 0.00639353
0 0 0.0122225
0 0 0.0173342
0 0 0.0188754
0 0 0.0225376
0 0 0.0279545
0 0 0.0357519
0.0303502 0 0.0331731
0.0832685 0 0.0292821
0.139376 0 0.0248722
0.198581 0 0.0200046
0.257252 0 0.0148623
0.314061 0 0.00956741
0.368734 0 0.00482185
0.420096 0 0
0.459205 0 0
0.497246 0 0
0.535393 0 0
0.572351 0 0
0.607279 0 0
0.64152 0 0
0.674311 0 0
0.7066 0 0
0.738094 0 0
0.768826 0 0
0.79881 0 0
0.828046 0 0
0.856703 0 0
0.884993 0 0
0.9131 0 0
0.941192 0 0
0.969436 0 0
0.998291 0 0
0 0.0244297 0.002121
0 0.0213321 0.00814832
0 0.0180667 0.0142061
0 0.0142519 0.0200504
0 0.0109102 0.0266117
0 0.00868238 0.0337224
0 0.00730907 0.0360113
0.0284428 0.00657664 0.0330053
0.0813764 0.00503548 0.0292821
0.137514 0.0028687 0.024918
0.196719 0.000183108 0.0201114
0.255253 0 0.0150149
0.312001 0 0.00976577
0.366491 0 0.00445563
0.417517 0 0
0.456519 0 0
0.494652 0 0
0.532876 0 0
0.569833 0 0
0.604807 0 0
0.639155 0 0
0.671977 0 0
0.704341 0 0
0.735988 0 0
0.766873 0 0
0.797009 0 0
0.826429 0 0
0.855299 0 0
0.883787 0 0
0.912093 0 0
0.940368 0 0
0.968872 0 0
0.997925 0 0
0 0.051667 0
0 0.0482795 0.00425727
0 0.0450904 0.0112459
0 0.0412299 0.0189059
0 0.0375982 0.0290837
0 0.0345006 0.0383154
0 0.03299 0.0389563
0.0323491 0.0331731 0.0349126
0.0806287 0.0328985 0.0296483
0.134234 0.0315251 0.0242008
0.192401 0.0292515 0.018967
0.250843 0.0263828 0.0138399
0.307744 0.0232242 0.00869764
0.362402 0.0199741 0.00350958
0.413642 0.0167239 0
0.452766 0.0138857 0
0.491051 0.0111086 0
0.529412 0.00828565 0
0.566491 0.00552377 0
0.601633 0.00288396 0
0.636149 0.000427253 0
0.669139 0 0
0.701778 0 0
0.733623 0 0
0.764736 0 0
0.795087 0 0
0.82472 0 0
0.853773 0 0
0.88246 0 0
0.910918 0 0
0.939376 0 0
0.967971 0 0
0.997635 0 0
0 0.0796216 0
0 0.0762493 0.00215152
0 0.0730449 0.0108034
0 0.0690929 0.0212253
0 0.0658427 0.0318914
0 0.0636454 0.0365911
0 0.0621195 0.036286
0.0364996 0.0609293 0.0353704
0.0902876 0.0593729 0.0326696
0.142931 0.05832 0.0278477
0.196262 0.0573739 0.0209659
0.250248 0.0557259 0.0142824
0.30486 0.0533608 0.00820935
0.358495 0.0506142 0.00254826
0.409491 0.0476997 0
0.448753 0.0450446 0
0.487205 0.0424659 0
0.525734 0.0398413 0
0.562966 0.0372931 0
0.59826 0.0348974 0
0.63299 0.0326696 0
0.666148 0.0306859 0
0.699001 0.0289921 0
0.73106 0.0276341 0
0.762371 0.0266117 0
0.792935 0.0259251 0
0.822751 0.0255741 0
0.852018 0.0254978 0
0.880903 0.0256352 0
0.90956 0.0259556 0
0.938186 0.0263828 0
0.966964 0.0268406 0
0.996796 0.0271763 0
0 0.108019 0
0 0.104646 0.00250248
0 0.101472 0.0126802
0 0.0978256 0.0240635
0 0.0953231 0.0314641
0 0.0936751 0.0330968
0 0.0922866 0.0326238
0.0331731 0.0911879 0.0319066
0.0890669 0.0892958 0.0302129
0.148043 0.0869001 0.0276646
0.207309 0.0845808 0.023743
0.261189 0.082887 0.0185702
0.311879 0.0816358 0.0115816
0.361089 0.0802167 0.00451667
0.408942 0.0784161 0
0.446189 0.0766003 0
0.483879 0.0746014 0
0.522164 0.0724193 0
0.559396 0.0701915 0
0.594873 0.0680552 0
0.629801 0.0660716 0
0.663096 0.0643473 0
0.696162 0.0628977 0
0.72842 0.0617838 0
0.759945 0.0610056 0
0.790707 0.0605783 0
0.820752 0.0604868 0
0.850217 0.0606546 0
0.879271 0.0610513 0
0.908125 0.0616312 0
0.936934 0.0623026 0
0.965866 0.0630198 0
0.99585 0.0635996 0
0 0.136965 0
0 0.133669 0.00485237
0 0.130831 0.0153201
0 0.12781 0.0242008
0 0.125902 0.0285649
0 0.124559 0.0289769
0 0.123308 0.0285191
0.0291752 0.122362 0.0280003
0.085481 0.120607 0.0265507
0.1449 0.118349 0.0243381
0.20679 0.115648 0.0215305
0.266117 0.112718 0.0183413
0.321736 0.110231 0.0146029
0.372015 0.108522 0.0091249
0.41474 0.107591 0.00265507
0.449332 0.107042 0
0.48481 0.106233 0
0.521431 0.105013 0
0.557397 0.103578 0
0.592111 0.102083 0
0.626734 0.100572 0
0.659953 0.0992142 0
0.693141 0.0980545 0
0.725612 0.0972 0
0.757321 0.0966659 0
0.788296 0.0964828 0
0.81854 0.0966354 0
0.848188 0.0970626 0
0.877424 0.0977035 0
0.906432 0.0985122 0
0.935363 0.0993973 0
0.964431 0.100313 0
0.994537 0.101076 0
0 0.16672 0
0 0.163775 0.00657664
0 0.161517 0.015671
0 0.15906 0.0220188
0 0.157595 0.0244602
0 0.156481 0.0242466
0 0.155413 0.0239109
0.0243687 0.15465 0.0235752
0.0810864 0.153079 0.0224002
0.140963 0.151003 0.0204929
0.203296 0.148516 0.0179751
0.263218 0.145769 0.0151369
0.321492 0.142855 0.0126192
0.376196 0.140078 0.00943008
0.420279 0.138155 0.00563058
0.456687 0.137163 0.000961318
0.491753 0.136751 0
0.526299 0.136584 0
0.559686 0.136324 0
0.592538 0.135882 0
0.62594 0.135241 0
0.658167 0.134615 0
0.6907 0.134081 0
0.722835 0.133715 0
0.754452 0.133593 0
0.785458 0.1337 0
0.815839 0.134081 0
0.84564 0.134722 0
0.874998 0.135561 0
0.904128 0.136553 0
0.933181 0.137591 0
0.962325 0.138659 0
0.992493 0.139574 0
0 0.197726 0
0 0.195331 0.0065919
0 0.193622 0.0137942
0 0.191684 0.0179904
0 0.190524 0.0191501
0 0.189654 0.0193637
0 0.1888 0.0186923
0.018616 0.188266 0.0185702
0.0757763 0.186923 0.0176547
0.136126 0.185077 0.0160525
0.198917 0.182803 0.0138399
0.259251 0.180285 0.0112917
0.317891 0.1776 0.00865187
0.373281 0.174929 0.00627146
0.419089 0.172549 0.00378424
0.458686 0.170642 0.0012665
0.49688 0.169299 0
0.533227 0.168551 0
0.566278 0.16849 0
0.597833 0.168826 0
0.629114 0.169314 0
0.659648 0.169741 0
0.690761 0.170123 0
0.721859 0.170489 0
0.752667 0.170977 0
0.783078 0.171618 0
0.813062 0.172427 0
0.842618 0.173373 0
0.871916 0.174456 0
0.901015 0.175616 0
0.930114 0.176806 0
0.959319 0.177996 0
0.989532 0.178988 0
0 0.230289 0
0 0.228473 0.00428779
0 0.227298 0.00987259
0 0.225788 0.0124056
0 0.224887 0.0131685
0 0.224262 0.0134585
0 0.223636 0.0134279
0.0119631 0.223346 0.0130312
0.0695659 0.222248 0.0123598
0.130373 0.22063 0.0110475
0.193637 0.218585 0.0091249
0.254444 0.216281 0.0068513
0.313466 0.213855 0.00451667
0.369192 0.211414 0.00234989
0.415152 0.209277 0.000122072
0.455512 0.207401 0
0.495903 0.205539 0
0.534813 0.203983 0
0.57023 0.203098 0
0.603677 0.202838 0
0.634989 0.203281 0
0.665049 0.204242 0
0.694621 0.205478 0
0.72398 0.206806 0
0.753262 0.208148 0
0.782483 0.209491 0
0.811566 0.210864 0
0.840391 0.212299 0
0.869078 0.213779 0
0.897749 0.215244 0
0.926497 0.216678 0
0.955489 0.218021 0
0.985565 0.21912 0
0 0.264332 0
0 0.26305 0.000366217
0 0.262333 0.00459297
0 0.261173 0.00598154
0 0.260487 0.00665293
0 0.26006 0.00703441
0 0.259632 0.00717174
0.00450141 0.259525 0.00749218
0.0624857 0.258656 0.00703441
0.123735 0.257252 0.00550851
0.187533 0.255421 0.00387579
0.248844 0.253361 0.00189212
0.308293 0.251179 0.00015259
0.36437 0.248997 0
0.410605 0.247105 0
0.451194 0.245472 0
0.491814 0.243809 0
0.531563 0.242176 0
0.568902 0.240696 0
0.604654 0.239673 0
0.637858 0.239307 0
0.66981 0.239582 0
0.700038 0.240589 0
0.728985 0.242115 0
0.757122 0.243977 0
0.784817 0.245991 0
0.812375 0.248035 0
0.839933 0.250034 0
0.867597 0.251926 0
0.895491 0.253697 0
0.923568 0.255375 0
0.951949 0.256931 0
0.981521 0.258183 0
0 0.298833 0
0 0.298009 0
0 0.297658 0
0 0.296757 0
0 0.296254 0
0 0.296025 0.000381476
0 0.295766 0.000686656
0 0.295842 0.00120546
0.0549325 0.295201 0.0010071
0.116594 0.293996 0.000198367
0.180926 0.292393 0
0.242771 0.290547 0
0.302617 0.288563 0
0.35906 0.286595 0
0.405676 0.284886 0
0.446418 0.283421 0
0.487205 0.281941 0
0.527092 0.280446 0
0.56463 0.279072 0
0.601328 0.277821 0
0.636255 0.276814 0
0.670146 0.276356 0
0.70222 0.27657 0
0.732738 0.277394 0
0.761624 0.278874 0
0.789212 0.280873 0
0.815961 0.283162 0
0.842283 0.285603 0
0.868635 0.287984 0
0.895216 0.290242 0
0.922164 0.292317 0
0.94963 0.294163 0
0.978485 0.295613 0
0 0.333822 0
0 0.333394 0
0 0.333379 0
0 0.332692 0
0 0.332372 0
0 0.332341 0
0 0.332265 0
0 0.332525 0
0.047364 0.332097 0
0.109407 0.331075 0
0.174166 0.329641 0
0.236484 0.327932 0
0.296712 0.326101 0
0.353475 0.324269 0
0.400458 0.322698 0
0.441352 0.321355 0
0.482246 0.319966 0
0.522255 0.318593 0
0.559899 0.317296 0
0.596658 0.316106 0
0.631785 0.315099 0
0.666606 0.31429 0
0.700328 0.313848 0
0.732433 0.313985 0
0.762905 0.314733 0
0.791913 0.316014 0
0.819425 0.317876 0
0.845899 0.320104 0
0.871748 0.322576 0
0.897414 0.325124 0
0.923278 0.327642 0
0.94963 0.329976 0
0.977844 0.331991 0
0 0.369574 0
0 0.369497 0
0 0.369772 0
0 0.369329 0
0 0.369207 0
0 0.36936 0
0 0.369467 0
0 0.369863 0
0.0400549 0.369604 0
0.102388 0.368734 0
0.167514 0.367407 0
0.230213 0.365835 0
0.290745 0.364096 0
0.347768 0.362371 0
0.395117 0.360861 0
0.436103 0.359609 0
0.477089 0.358267 0
0.517205 0.356924 0
0.554879 0.355673 0
0.591684 0.354513 0
0.62681 0.353506 0
0.661646 0.352697 0
0.695613 0.352132 0
0.728695 0.351827 0
0.76054 0.351919 0
0.790875 0.352544 0
0.819806 0.353735 0
0.847684 0.355352 0
0.87451 0.357443 0
0.900633 0.359884 0
0.926421 0.362524 0
0.952728 0.365103 0
0.979629 0.367437 0
0 0.406226 0
0 0.406378 0
0 0.406806 0
0 0.406561 0
0 0.406546 0
0 0.406806 0
0 0.406989 0
0 0.407446 0
0.033341 0.407279 0
0.0959029 0.4065 0
0.161273 0.405234 0
0.224277 0.403723 0
0.285023 0.402045 0
0.342245 0.400351 0
0.389883 0.398901 0
0.430915 0.397665 0
0.471946 0.396353 0
0.512078 0.395026 0
0.549813 0.393759 0
0.586572 0.392569 0
0.621683 0.391546 0
0.656489 0.390692 0
0.69041 0.390051 0
0.723491 0.389731 0
0.755764 0.38967 0
0.787152 0.389914 0
0.817456 0.39057 0
0.846616 0.391669 0
0.874846 0.393149 0
0.902419 0.394949 0
0.92929 0.39707 0
0.956237 0.39939 0
0.983703 0.401755 0
0 0.442893 0
0 0.443305 0
0 0.443946 0
0 0.44387 0
0 0.443992 0
0 0.444404 0
0 0.444724 0
0 0.445304 0
0.0273747 0.445258 0
0.0900587 0.444556 0
0.155596 0.443351 0
0.218799 0.441871 0
0.279667 0.440208 0
0.33698 0.438514 0
0.384787 0.437064 0
0.425834 0.435798 0
0.466865 0.434455 0
0.507042 0.433066 0
0.544747 0.431754 0
0.581476 0.430533 0
0.616602 0.42948 0
0.651423 0.428672 0
0.685389 0.428138 0
0.718532 0.427893 0
0.750851 0.427909 0
0.78233 0.428214 0
0.813107 0.428748 0
0.843336 0.42948 0
0.872801 0.430533 0
0.901549 0.431861 0
0.929763 0.433478 0
0.958419 0.435126 0
0.986557 0.437201 0
0 0.48098 0
0 0.48159 0
0 0.482383 0
0 0.482444 0
0 0.482673 0
0 0.483177 0
0 0.483574 0
0 0.484184 0
0.0211185 0.48423 0
0.0838941 0.483574 0
0.149508 0.482368 0
0.212879 0.480873 0
0.273793 0.479194 0
0.331197 0.47747 0
0.379248 0.475959 0
0.420264 0.474632 0
0.461295 0.473243 0
0.501549 0.471885 0
0.53933 0.470603 0
0.576135 0.469459 0
0.611322 0.468482 0
0.646204 0.467735 0
0.680201 0.467262 0
0.713375 0.467048 0
0.745708 0.467124 0
0.777203 0.467491 0
0.808026 0.46804 0
0.838361 0.468772 0
0.86836 0.469596 0
0.898146 0.470512 0
0.927504 0.471595 0
0.957687 0.472755 0
0.986557 0.47425 0
0 0.519738 0
0 0.520439 0
0 0.521294 0
0 0.521385 0
0 0.52163 0
0 0.522133 0
0 0.52253 0
0 0.52314 0
0.0145571 0.523186 0
0.0773022 0.522499 0
0.142916 0.521263 0
0.206394 0.519707 0
0.267384 0.517968 0
0.32491 0.516228 0
0.373434 0.514733 0
0.414527 0.513481 0
0.455665 0.512184 0
0.49604 0.510872 0
0.533944 0.509667 0
0.570779 0.508553 0
0.606012 0.507622 0
0.640909 0.506905 0
0.674922 0.506432 0
0.70811 0.506233 0
0.740429 0.506294 0
0.771939 0.5066 0
0.802747 0.507118 0
0.833082 0.507774 0
0.863111 0.508507 0
0.893019 0.50927 0
0.923003 0.509987 0
0.954192 0.510582 0
0.984131 0.511482 0
0 0.557931 0
0 0.558602 0
0 0.559426 0
0 0.559503 0
0 0.559686 0
0 0.560113 0
0 0.560433 0
0 0.560922 0
0.00787366 0.560922 0
0.070573 0.560174 0
0.136263 0.558938 0
0.2 0.557427 0
0.261204 0.555764 0
0.318975 0.554086 0
0.367926 0.552621 0
0.409094 0.551446 0
0.450309 0.550179 0
0.490776 0.548898 0
0.52874 0.547723 0
0.565606 0.546624 0
0.600855 0.545708 0
0.635737 0.544976 0
0.669764 0.544488 0
0.702953 0.544244 0
0.735256 0.544259 0
0.766735 0.544503 0
0.797528 0.54493 0
0.827832 0.545495 0
0.857816 0.54612 0
0.887678 0.546761 0
0.917662 0.547341 0
0.94902 0.547723 0
0.979614 0.548196 0
0 0.594995 0
0 0.595621 0
0 0.596353 0
0 0.596368 0
0 0.596445 0
0 0.59675 0
0 0.596994 0
0 0.597436 0
0.00167849 0.597482 0
0.0644999 0.59678 0
0.130373 0.595575 0
0.194385 0.594095 0
0.255726 0.592477 0
0.313649 0.590829 0
0.362875 0.589395 0
0.404105 0.58822 0
0.44535 0.586984 0
0.485863 0.585718 0
0.523873 0.584527 0
0.560723 0.583429 0
0.595987 0.582498 0
0.630854 0.581735 0
0.664851 0.581186 0
0.697978 0.58088 0
0.730266 0.580804 0
0.7617 0.580941 0
0.792447 0.581231 0
0.82269 0.581628 0
0.852644 0.582071 0
0.88246 0.582483 0
0.912367 0.582849 0
0.943694 0.582986 0
0.974227 0.5832 0
0 0.629374 0
0 0.629709 0
0 0.630137 0
0 0.629938 0
0 0.629847 0
0 0.63003 0
0 0.630167 0
0 0.630472 0
0 0.630442 0
0.0599069 0.629709 0
0.125856 0.628489 0
0.18996 0.627008 0
0.251408 0.625391 0
0.309407 0.623743 0
0.358724 0.622324 0
0.399939 0.621149 0
0.441215 0.619898 0
0.481727 0.618631 0
0.519753 0.617426 0
0.556558 0.616297 0
0.591806 0.615305 0
0.626627 0.614466 0
0.660578 0.61384 0
0.693675 0.613413 0
0.725902 0.613199 0
0.757259 0.613169 0
0.78793 0.613306 0
0.818097 0.613519 0
0.847974 0.613794 0
0.877714 0.614069 0
0.907515 0.614282 0
0.938262 0.614298 0
0.969146 0.614359 0
0 0.66125 0
0 0.661677 0
0 0.662196 0
0 0.662089 0
0 0.662089 0
0 0.662333 0
0 0.662516 0
0 0.662882 0
0 0.662882 0
0.0565042 0.662165 0
0.122515 0.660945 0
0.186618 0.65948 0
0.248051 0.657847 0
0.306004 0.656199 0
0.355154 0.654765 0
0.396384 0.653544 0
0.437613 0.652262 0
0.478126 0.65095 0
0.516075 0.649699 0
0.55285 0.648524 0
0.588006 0.647471 0
0.622751 0.646571 0
0.656641 0.645869 0
0.689647 0.645365 0
0.721798 0.645045 0
0.753048 0.644938 0
0.783627 0.644968 0
0.813687 0.64509 0
0.843427 0.645243 0
0.873045 0.64538 0
0.902724 0.645457 0
0.933364 0.645335 0
0.964111 0.645258 0
0 0.693278 0
0 0.693767 0
0 0.694331 0
0 0.69424 0
0 0.694286 0
0 0.69456 0
0 0.694774 0
0 0.695186 0
0 0.69514 0
0.0545205 0.694408 0
0.120516 0.693172 0
0.184451 0.691676 0
0.245731 0.690028 0
0.303532 0.688334 0
0.352285 0.68687 0
0.393484 0.685603 0
0.434669 0.68426 0
0.475059 0.682872 0
0.512932 0.681544 0
0.549615 0.680293 0
0.58468 0.679164 0
0.619348 0.678157 0
0.653117 0.677363 0
0.68603 0.676738 0
0.718044 0.676326 0
0.749203 0.676081 0
0.779644 0.675975 0
0.809567 0.675959 0
0.839185 0.675975 0
0.86865 0.67599 0
0.898207 0.675914 0
0.92871 0.675654 0
0.959335 0.675425 0
0 0.725124 0
0 0.725643 0
0 0.726223 0
0 0.726131 0
0 0.726223 0
0 0.726513 0
0 0.726726 0
0 0.727169 0
0 0.727062 0
0.0538643 0.726284 0
0.119738 0.725002 0
0.183352 0.723461 0
0.24445 0.721752 0
0.301961 0.720012 0
0.350103 0.718486 0
0.391211 0.717159 0
0.432303 0.715709 0
0.472541 0.714244 0
0.510262 0.712825 0
0.546883 0.711467 0
0.581765 0.710231 0
0.616327 0.709102 0
0.649973 0.708186 0
0.682734 0.707439 0
0.714626 0.706874 0
0.745632 0.706493 0
0.775937 0.706249 0
0.805753 0.706096 0
0.835233 0.705959 0
0.864591 0.705821 0
0.893996 0.705623 0
0.924392 0.705211 0
0.954894 0.704845 0
0 0.756725 0
0 0.757244 0
0 0.757809 0
0 0.757702 0
0 0.757824 0
0 0.758114 0
0 0.758312 0
0 0.75874 0
0 0.758556 0
0.0543679 0.757717 0
0.120073 0.756359 0
0.183246 0.754757 0
0.244022 0.752972 0
0.301152 0.751156 0
0.34844 0.749554 0
0.389456 0.748119 0
0.430442 0.746578 0
0.470481 0.744991 0
0.508019 0.74345 0
0.544488 0.741955 0
0.579187 0.740581 0
0.613626 0.739315 0
0.64715 0.738247 0
0.679759 0.737377 0
0.711513 0.73666 0
0.742397 0.736156 0
0.772564 0.735759 0
0.802228 0.735485 0
0.831586 0.73521 0
0.860807 0.734936 0
0.890089 0.734585 0
0.920348 0.734035 0
0.950698 0.733532 0
0 0.787991 0
0 0.788495 0
0 0.789014 0
0 0.788891 0
0 0.789014 0
0 0.789273 0
0 0.789456 0
0 0.789868 0
0 0.789548 0
0.0558328 0.788617 0
0.121279 0.787167 0
0.183917 0.785473 0
0.244266 0.783597 0
0.300969 0.781674 0
0.34728 0.77998 0
0.388128 0.778408 0
0.428962 0.776745 0
0.468727 0.775021 0
0.506065 0.773342 0
0.542412 0.771695 0
0.576913 0.770184 0
0.611231 0.768795 0
0.644602 0.76759 0
0.677089 0.766552 0
0.708705 0.765728 0
0.739437 0.765072 0
0.769467 0.764538 0
0.799023 0.764111 0
0.828229 0.763699 0
0.857328 0.763287 0
0.886488 0.762798 0
0.916609 0.762112 0
0.946838 0.761456 0
0 0.818891 0
0 0.819379 0
0 0.819806 0
0 0.819669 0
0 0.81976 0
0 0.819989 0
0 0.820111 0
0 0.820462 0
0 0.820005 0
0.0578927 0.818952 0
0.122988 0.817395 0
0.185031 0.815579 0
0.244907 0.813581 0
0.301076 0.811521 0
0.346303 0.80972 0
0.387015 0.808011 0
0.427665 0.806195 0
0.467185 0.804334 0
0.504311 0.802518 0
0.54052 0.800748 0
0.574853 0.799084 0
0.609018 0.797559 0
0.642267 0.796201 0
0.674617 0.795041 0
0.706096 0.794064 0
0.73669 0.793271 0
0.766583 0.792615 0
0.796002 0.792035 0
0.825071 0.791501 0
0.854017 0.790936 0
0.883085 0.790311 0
0.913054 0.789502 0
0.943191 0.788724 0
0 0.849454 0
0 0.849867 0
0 0.850202 0
0 0.850019 0
0 0.850065 0
0 0.850217 0
0 0.850263 0
0 0.850523 0
0 0.849897 0
