public/textures/LUTs/JOKER.CUBE
TITLE "Generated by Resolve"
LUT_3D_SIZE 9
0 0 0.0105287
0 0 0.0265049
0.0866102 0 0.0296635
0.316289 0 0.00962844
0.499046 0 0
0.642847 0 0
0.769528 0 0
0.884901 0 0
0.997269 0 0
0 0.0796216 0
0 0.0658427 0.0318914
0.0902876 0.0593729 0.0326696
0.30486 0.0533608 0.00820935
0.487205 0.0424659 0
0.63299 0.0326696 0
0.762371 0.0266117 0
0.880903 0.0256352 0
0.996796 0.0271763 0
0 0.197726 0
0 0.190524 0.0191501
0.0757763 0.186923 0.0176547
0.317891 0.1776 0.00865187
0.49688 0.169299 0
0.629114 0.169314 0
0.752667 0.170977 0
0.871916 0.174456 0
0.989532 0.178988 0
0 0.333822 0
0 0.332372 0
0.047364 0.332097 0
0.296712 0.326101 0
0.482246 0.319966 0
0.631785 0.315099 0
0.762905 0.314733 0
0.871748 0.322576 0
0.977844 0.331991 0
0 0.48098 0
0 0.482673 0
0.0211185 0.48423 0
0.273793 0.479194 0
0.461295 0.473243 0
0.611322 0.468482 0
0.745708 0.467124 0
0.86836 0.469596 0
0.986557 0.47425 0
0 0.629374 0
0 0.629847 0
0 0.630442 0
0.251408 0.625391 0
0.441215 0.619898 0
0.591806 0.615305 0
0.725902 0.613199 0
0.847974 0.613794 0
0.969146 0.614359 0
0 0.756725 0
0 0.757824 0
0 0.758556 0
0.244022 0.752972 0
0.430442 0.746578 0
0.579187 0.740581 0
0.711513 0.73666 0
0.831586 0.73521 0
0.950698 0.733532 0
0 0.879637 0
0 0.879927 0
0 0.879255 0
0.245686 0.871717 0
0.424903 0.863279 0
0.570535 0.855055 0
0.700679 0.848951 0
0.818738 0.845396 0
0.936187 0.841886 0
0 0.998016 0
0 0.996414 0
0 0.993545 0
0.23772 0.983825 0
0.41323 0.973404 0
0.557107 0.963485 0
0.686046 0.9561 0
0.803281 0.951736 0
0.920439 0.947784 0
0 0 0.0964828
0 0 0.121843
0.0988174 0 0.141772
0.337316 0 0.129564
0.518959 0 0.115587
0.664073 0 0.0999924
0.790036 0 0.0824292
0.904067 0 0.0662394
1 0 0.0518502
0 0.0868544 0.0750439
0 0.0735943 0.101137
0.0847334 0.061677 0.121157
0.317113 0.0512245 0.103548
0.496742 0.0402991 0.0844587
0.64155 0.0310369 0.0671397
0.770245 0.0256809 0.0530861
0.888426 0.0253452 0.0430762
1 0.0273442 0.0349126
0 0.207492 0.0509957
0 0.195819 0.0882582
0.0761578 0.188617 0.114443
0.316625 0.180209 0.104936
0.482338 0.178058 0.0821851
0.628641 0.173342 0.0669718
0.760479 0.171695 0.0556954
0.881285 0.174624 0.0480812
0.999619 0.179187 0.0417334
0 0.340581 0.0474403
0 0.335363 0.0855421
0.0495766 0.33492 0.0919966
0.298939 0.329046 0.0877546
0.483452 0.323125 0.0813611
0.630442 0.319326 0.0737621
0.749416 0.324437 0.055436
0.862364 0.330877 0.0410925
0.978698 0.33611 0.0327916
0 0.485405 0.0490883
0 0.486198 0.0650187
0.0239567 0.487694 0.0697032
0.276234 0.482475 0.0668345
0.462562 0.476555 0.061738
0.61236 0.471901 0.0568551
0.746853 0.470588 0.0541695
0.866606 0.474342 0.0515755
0.974777 0.483406 0.0381476
0 0.632319 0.036347
0 0.632639 0.0442817
0 0.633249 0.0487373
0.254078 0.628092 0.0465095
0.442695 0.622553 0.0424353
0.592889 0.617884 0.0382391
0.726986 0.615625 0.035874
0.84892 0.616098 0.0357519
0.969848 0.616464 0.0351568
0 0.759731 0.0274205
0 0.760678 0.0339055
0 0.761288 0.0380255
0.246128 0.755474 0.0352789
0.431418 0.748867 0.0305486
0.579751 0.742611 0.0253605
0.712001 0.73843 0.0216373
0.831891 0.736736 0.0199588
0.950774 0.734844 0.0177005
0 0.882277 0.0268711
0 0.882322 0.0315709
0.000808728 0.881376 0.0339971
0.246464 0.873549 0.0293431
0.424979 0.864836 0.0227817
0.570352 0.856352 0.0157778
0.700465 0.850004 0.0103304
0.818418 0.846281 0.00708019
0.93576 0.842664 0.00355535
0 0.999924 0.0221103
0 0.998047 0.0244907
0 0.994919 0.0247196
0.237293 0.98497 0.0180362
0.412558 0.97438 0.00984207
0.556435 0.964324 0.00157168
0.685466 0.956847 0
0.802792 0.952453 0
0.919982 0.948531 0
0 0 0.1991
0 0 0.224231
0.090074 0 0.254322
0.331746 0 0.243259
0.515679 0 0.232227
0.66302 0 0.222187
0.792523 0 0.213458
0.91075 0 0.207584
1 0 0.202976
0 0.0936751 0.176318
0 0.0803998 0.203494
0.0673075 0.0662089 0.234592
0.329152 0.0451514 0.23473
0.511299 0.0317235 0.224521
0.658824 0.0205844 0.21416
0.789883 0.0146029 0.203861
0.908339 0.0150149 0.191562
1 0.0180209 0.178164
0 0.215503 0.147433
0 0.204807 0.176318
0.0664225 0.19408 0.208438
0.312779 0.182437 0.212238
0.492653 0.175799 0.196139
0.639139 0.170886 0.181827
0.771115 0.169635 0.170626
0.891844 0.172839 0.163043
1 0.17734 0.156512
0 0.351217 0.114473
0 0.343862 0.152621
0.049485 0.337026 0.202289
0.299428 0.33077 0.202441
0.482094 0.325567 0.194934
0.617212 0.327504 0.172702
0.748592 0.327688 0.160052
0.869352 0.330877 0.151644
0.987823 0.335409 0.144472
0 0.494041 0.11458
0 0.490013 0.163882
0.0243229 0.490013 0.182925
0.276677 0.484459 0.181201
0.462654 0.478553 0.176669
0.612345 0.474006 0.171786
0.744823 0.473686 0.166812
0.853178 0.482887 0.149157
0.964019 0.490944 0.133928
0 0.636469 0.126421
0 0.634745 0.15407
0.000534066 0.635096 0.162203
0.254719 0.62977 0.160784
0.442847 0.624094 0.157275
0.592874 0.619303 0.153292
0.726909 0.616907 0.150805
0.848707 0.617212 0.150378
0.966476 0.618524 0.14638
0 0.762554 0.130449
0 0.762615 0.145464
0 0.762997 0.151354
0.246159 0.756909 0.149096
0.430991 0.749981 0.144732
0.579156 0.743435 0.139712
0.711284 0.73901 0.135973
0.831006 0.737072 0.134112
0.949615 0.734966 0.131579
0 0.884184 0.135271
0 0.883711 0.143267
0 0.882445 0.146715
0.245258 0.874281 0.142351
0.423667 0.865248 0.136095
0.569009 0.856458 0.129244
0.699077 0.849867 0.123888
0.816999 0.845991 0.120668
0.934218 0.842268 0.117144
0 1 0.131411
0 0.998672 0.135668
0 0.995285 0.136629
0.234897 0.985092 0.130266
0.410544 0.974273 0.122393
0.554635 0.96405 0.114412
0.683803 0.956466 0.108461
0.801205 0.952041 0.105104
0.918441 0.948165 0.101854
0 0 0.316991
0 0 0.342718
0.048127 0 0.377447
0.32372 0 0.373205
0.510002 0 0.362829
0.658076 0 0.353872
0.788098 0 0.347951
0.907088 0 0.345464
1 0 0.343236
0 0.0998245 0.293828
0 0.0864271 0.321965
0.0375219 0.0723278 0.353552
0.322286 0.0432898 0.364569
0.506554 0.0300755 0.356252
0.655497 0.0187076 0.349691
0.788495 0.0117647 0.346075
0.910369 0.0102693 0.344274
1 0.0107424 0.342763
0 0.222705 0.263767
0 0.212177 0.293675
0.0383459 0.201633 0.327291
0.31519 0.179019 0.352316
0.499992 0.169833 0.347021
0.650385 0.162554 0.342
0.785504 0.159701 0.337896
0.908095 0.162097 0.333242
1 0.166873 0.322515
0 0.359411 0.226596
0 0.352758 0.259083
0.0308995 0.345968 0.294621
0.295277 0.331991 0.32871
0.477745 0.327474 0.317876
0.624186 0.324956 0.303029
0.756115 0.324956 0.290394
0.876387 0.328603 0.28072
0.995392 0.33341 0.271992
0 0.505241 0.196841
0 0.50045 0.234974
0.0199588 0.493904 0.286763
0.274144 0.48484 0.311635
0.461067 0.478782 0.308141
0.609674 0.474861 0.3019
0.731319 0.480156 0.280598
0.851179 0.484611 0.270176
0.970123 0.489235 0.261646
0 0.646235 0.19234
0 0.63975 0.24622
0 0.635981 0.287816
0.252338 0.630106 0.291295
0.441215 0.62414 0.288502
0.591318 0.619165 0.284794
0.725277 0.616632 0.281941
0.844999 0.617533 0.278569
0.950744 0.623529 0.258274
0 0.768582 0.215686
0 0.764614 0.259312
0 0.763378 0.279515
0.243214 0.756909 0.278874
0.428672 0.749584 0.275013
0.576974 0.742687 0.270359
0.70901 0.737972 0.266606
0.828534 0.735805 0.264378
0.946899 0.733532 0.261357
0 0.887053 0.237934
0 0.884062 0.265629
0 0.882094 0.274266
0.241093 0.873579 0.270909
0.420447 0.864134 0.265126
0.566064 0.855009 0.258793
0.696178 0.848157 0.253712
0.814008 0.844144 0.250507
0.931136 0.84036 0.246906
0 1 0.244968
0 0.998016 0.259907
0 0.994217 0.263447
0.229664 0.98378 0.257969
0.406683 0.972686 0.250721
0.551247 0.96228 0.243473
0.680629 0.954574 0.23801
0.798154 0.950118 0.234913
0.915434 0.946303 0.231846
0 0 0.449546
0 0 0.477302
0.00633249 0 0.512093
0.314702 0 0.52137
0.503807 0 0.509651
0.652659 0 0.499565
0.783078 0 0.493233
0.902434 0 0.491463
1 0 0.491386
0 0.106081 0.426749
0 0.092668 0.457145
0.00456245 0.0784161 0.490867
0.314565 0.0405585 0.514763
0.501244 0.0277562 0.505791
0.651057 0.0168154 0.498863
0.784405 0.0102235 0.495995
0.906798 0.00874342 0.497856
1 0.00898756 0.501091
0 0.229999 0.395773
0 0.219684 0.428443
0.00679026 0.209201 0.465415
0.302296 0.179858 0.504921
0.49572 0.168902 0.499306
0.646708 0.161761 0.495903
0.782757 0.158419 0.496086
0.907012 0.159487 0.499779
1 0.161669 0.501717
0 0.367361 0.356222
0 0.360937 0.391226
0.00102235 0.354208 0.43064
0.26453 0.34049 0.469856
0.480247 0.323827 0.483299
0.631754 0.318029 0.481147
0.767956 0.315236 0.48011
0.891768 0.316777 0.480308
1 0.319997 0.476524
0 0.51426 0.320745
0 0.509834 0.356481
0 0.504219 0.395666
0.259449 0.490776 0.43299
0.458396 0.47837 0.459632
0.605142 0.476081 0.444587
0.737087 0.476829 0.430564
0.857359 0.48101 0.419913
0.97615 0.485634 0.409781
0 0.656626 0.293202
0 0.651026 0.330678
0 0.64445 0.375906
0.248096 0.630777 0.43299
0.438315 0.623499 0.440436
0.588952 0.618204 0.437583
0.721782 0.61593 0.433112
0.831296 0.62121 0.41001
0.947188 0.623117 0.396963
0 0.780255 0.289769
0 0.773938 0.336843
0 0.766476 0.397375
0.238392 0.756313 0.428962
0.42501 0.748425 0.426566
0.573907 0.7411 0.422202
0.705898 0.73608 0.41854
0.825238 0.733684 0.416281
0.941497 0.731991 0.4103
0 0.896468 0.311391
0 0.888716 0.36669
0 0.882033 0.413153
0.235111 0.872145 0.422217
0.4159 0.862257 0.416617
0.562158 0.85275 0.41001
0.692409 0.84564 0.404852
0.810239 0.841474 0.401785
0.927275 0.837644 0.398108
0 1 0.33695
0 0.999084 0.382513
0 0.992676 0.410163
0.22269 0.98172 0.408957
0.401541 0.970367 0.401404
0.546975 0.959747 0.393652
0.676631 0.951919 0.388128
0.794354 0.947433 0.385443
0.911574 0.94406 0.383139
0 0.00265507 0.583413
0 0 0.613169
0 0 0.647715
0.305089 0 0.672312
0.497627 0 0.66273
0.64715 0 0.654612
0.778134 0 0.649134
0.897887 0 0.646922
1 0 0.645899
0 0.111879 0.560967
0 0.0984817 0.592081
0 0.0839246 0.626261
0.298466 0.0404822 0.664225
0.496101 0.025452 0.655833
0.646754 0.0149386 0.649912
0.780484 0.00872816 0.646799
0.903273 0.00762951 0.646998
1 0.00823987 0.648295
0 0.236927 0.53051
0 0.226719 0.563653
0 0.216022 0.600717
0.259037 0.191394 0.645579
0.491707 0.167971 0.646952
0.643198 0.161135 0.643244
0.779477 0.157961 0.642069
0.903883 0.159091 0.643687
1 0.160937 0.645762
0 0.375067 0.492393
0 0.368627 0.527291
0 0.361654 0.566552
0.235447 0.348348 0.60679
0.476539 0.3234 0.630426
0.628275 0.317617 0.627283
0.764691 0.314641 0.626352
0.889311 0.315679 0.628199
1 0.317571 0.630259
0 0.522927 0.455772
0 0.518227 0.490639
0 0.512184 0.529335
0.230167 0.499031 0.568399
0.431235 0.486458 0.596689
0.607263 0.472511 0.606531
0.743999 0.47013 0.605997
0.868482 0.471489 0.606699
0.991501 0.473503 0.605783
0 0.665263 0.424292
0 0.659525 0.459251
0 0.653132 0.497856
0.225345 0.640192 0.536141
0.426825 0.627939 0.562829
0.58645 0.617197 0.585763
0.717083 0.616129 0.573983
0.835737 0.617487 0.563882
0.952789 0.618769 0.553811
0 0.789685 0.407507
0 0.783764 0.442954
0 0.776761 0.482551
0.227893 0.761913 0.527199
0.420768 0.747967 0.566949
0.570382 0.739513 0.569589
0.702647 0.734051 0.566293
0.820859 0.731868 0.56199
0.926589 0.734401 0.542641
0 0.906722 0.403693
0 0.898955 0.442435
0 0.889433 0.491173
0.228565 0.872511 0.547936
0.410819 0.860487 0.56083
0.55787 0.850523 0.556207
0.688502 0.843061 0.551965
0.806409 0.838743 0.548852
0.922881 0.834913 0.544839
0 1 0.407019
0 1 0.453529
0 0.995377 0.510918
0.215579 0.980117 0.547158
0.395987 0.968124 0.546212
0.542382 0.957275 0.540322
0.67248 0.949264 0.535851
0.790494 0.944732 0.533288
0.907774 0.94136 0.530663
0 0.00663767 0.68661
0 0 0.715572
0 0 0.748333
0.288502 0 0.78262
0.492683 0 0.771771
0.642832 0 0.763378
0.774395 0 0.757778
0.894575 0 0.755505
1 0 0.754528
0 0.116594 0.664851
0 0.103365 0.695293
0 0.0888838 0.72842
0.269581 0.0466316 0.773251
0.49218 0.0245212 0.766217
0.64358 0.014435 0.760128
0.777752 0.00860609 0.75697
0.900923 0.00790417 0.757153
1 0.00881972 0.758404
0 0.242679 0.63505
0 0.232792 0.668101
0 0.222171 0.704051
0.227573 0.201328 0.747585
0.488823 0.168322 0.758267
0.640772 0.161746 0.754376
0.777279 0.158724 0.752956
0.901823 0.159915 0.754314
1 0.161791 0.756146
0 0.381537 0.59707
0 0.375265 0.632761
0 0.368048 0.670878
0.213626 0.355383 0.710689
0.461265 0.327962 0.742367
0.625834 0.318242 0.738613
0.762463 0.315373 0.737362
0.887205 0.316518 0.738994
1 0.318456 0.741146
0 0.530129 0.559411
0 0.525338 0.595468
0 0.518944 0.633692
0.208194 0.506264 0.672618
0.410513 0.493706 0.700572
0.605005 0.473365 0.718166
0.741756 0.470985 0.717144
0.8663 0.472068 0.718685
0.989792 0.47335 0.720439
0 0.672114 0.526101
0 0.666377 0.56231
0 0.6598 0.601022
0.203403 0.647135 0.638773
0.405921 0.63473 0.6654
0.566171 0.623728 0.687816
0.719371 0.613535 0.695827
0.842329 0.612146 0.696193
0.963897 0.610742 0.695445
0 0.796597 0.507286
0 0.790555 0.542962
0 0.783429 0.58085
0.206561 0.769238 0.616556
0.405219 0.755199 0.640833
0.563104 0.742321 0.660517
0.700282 0.732982 0.67744
0.816831 0.731609 0.667475
0.931731 0.73019 0.657298
0 0.913436 0.498604
0 0.905776 0.532998
0 0.896834 0.569894
0.213062 0.88011 0.607019
0.404593 0.86331 0.640497
0.554147 0.849531 0.664652
0.685298 0.84155 0.662287
0.80351 0.837003 0.65951
0.918975 0.833555 0.654337
0 1 0.488197
0 1 0.52369
0 1 0.565698
0.206912 0.983764 0.617426
0.391608 0.967559 0.648402
0.538445 0.955901 0.650187
0.669062 0.947723 0.646143
0.787579 0.943099 0.643931
0.904936 0.939696 0.641398
0 0.0112154 0.777539
0 0 0.806561
0 0 0.838758
0.265568 0 0.880934
0.488914 0 0.870405
0.639582 0 0.862013
0.77171 0 0.856413
0.892302 0 0.854215
1 0 0.853315
0 0.121813 0.75639
0 0.108766 0.786831
0 0.0944839 0.819928
0.238193 0.0559548 0.867857
0.489464 0.024918 0.86569
0.641459 0.015259 0.859663
0.776089 0.00982681 0.85655
0.899596 0.00943008 0.856733
1 0.010605 0.857954
0 0.24892 0.727581
0 0.239384 0.760464
0 0.229053 0.796521
0.20441 0.210452 0.839414
0.484108 0.170947 0.859007
0.639323 0.163638 0.854582
0.776089 0.160708 0.85301
0.900725 0.161898 0.85417
1 0.163745 0.855772
0 0.388464 0.690776
0 0.382376 0.725948
0 0.375158 0.763989
0.195651 0.362844 0.803998
0.434821 0.337835 0.839078
0.624399 0.320027 0.838926
0.761257 0.317266 0.837507
0.886122 0.318471 0.838941
1 0.320455 0.84094
0 0.537743 0.653483
0 0.532845 0.688685
0 0.526162 0.726421
0.190173 0.51397 0.765972
0.392874 0.501472 0.793988
0.596536 0.477516 0.819165
0.740551 0.472892 0.81738
0.865034 0.473884 0.818601
0.988312 0.475044 0.82005
0 0.679164 0.620005
0 0.673426 0.655283
0 0.666529 0.69308
0.185122 0.654185 0.731609
0.388022 0.641642 0.758618
0.548669 0.630426 0.781064
0.717739 0.61442 0.795834
0.840452 0.612863 0.795712
0.961791 0.611139 0.795636
0 0.803616 0.600015
0 0.797421 0.634485
0 0.790036 0.671183
0.187472 0.775921 0.70692
0.386694 0.761654 0.731197
0.544839 0.748516 0.750881
0.68452 0.737926 0.769131
0.818341 0.729412 0.775174
0.937697 0.725643 0.773495
0 0.919966 0.589014
0 0.912077 0.621622
0 0.902968 0.656397
0.19353 0.886564 0.689464
0.387594 0.870314 0.711498
0.543252 0.855268 0.72929
0.681071 0.842985 0.747784
0.801556 0.83624 0.758892
0.914992 0.834028 0.747829
0 1 0.57438
0 1 0.605554
0 1 0.639445
0.190127 0.991852 0.674022
0.38262 0.973465 0.70251
0.535027 0.957229 0.733623
0.666224 0.947387 0.744411
0.785809 0.942931 0.743282
0.903059 0.939025 0.740856
0 0.0159915 0.866911
0 0.00115969 0.896071
0 0 0.927993
0.236545 0 0.975708
0.485359 0 0.96791
0.636576 0 0.95967
0.769268 0 0.954269
0.890257 0 0.952285
1 0 0.951644
0 0.127214 0.846204
0 0.114366 0.876844
0 0.100328 0.910094
0.207889 0.0657359 0.958862
0.485557 0.0260929 0.964233
0.639567 0.0163729 0.958144
0.774655 0.0112764 0.9552
0.898482 0.0111391 0.955535
1 0.0125582 0.956878
0 0.255375 0.818082
0 0.246159 0.851316
0 0.236149 0.887572
0.183581 0.219181 0.930037
0.471138 0.176638 0.958358
0.638071 0.165743 0.954009
0.775051 0.162829 0.952407
0.899763 0.163989 0.953948
1 0.165805 0.955505
0 0.39556 0.78204
0 0.389624 0.817456
0 0.382437 0.855558
0.178256 0.370428 0.896178
0.407675 0.348409 0.931441
0.622812 0.322103 0.938857
0.760235 0.319295 0.937346
0.885222 0.320546 0.938766
1 0.32256 0.940734
0 0.545464 0.744564
0 0.540398 0.779919
0 0.533669 0.817761
0.172824 0.521798 0.858122
0.375616 0.509361 0.88629
0.572961 0.4869 0.915984
0.739498 0.474922 0.917189
0.863951 0.475746 0.918227
0.986969 0.476738 0.919509
0 0.68629 0.710628
0 0.680491 0.746181
0 0.673381 0.784039
0.167636 0.661234 0.823117
0.370565 0.648554 0.85037
0.53167 0.63714 0.872786
0.709575 0.617319 0.895232
0.838758 0.613581 0.894865
0.959762 0.611688 0.894545
0 0.810651 0.689708
0 0.804257 0.724239
0 0.79646 0.760723
0.168826 0.782467 0.796994
0.368414 0.767956 0.821683
0.527047 0.754513 0.841764
0.666255 0.743618 0.860166
0.816037 0.729412 0.872969
0.934585 0.725582 0.871046
0 0.926452 0.676966
0 0.918303 0.709407
0 0.908919 0.744213
0.173739 0.892546 0.77734
0.368795 0.876112 0.798962
0.525032 0.860914 0.816663
0.662699 0.848676 0.832883
0.788083 0.839841 0.849638
0.916762 0.831449 0.854017
0 1 0.660029
0 1 0.69099
0 1 0.723888
0.170245 0.998337 0.755673
0.364935 0.979934 0.776776
0.520912 0.964202 0.794217
0.658457 0.951858 0.81117
0.783078 0.943358 0.835004
0.90135 0.938521 0.838804
