public/textures/LUTs/JOKER.CUBE
TITLE "Generated by Resolve"
LUT_3D_SIZE 5
0 0 0.0105287
0.0866102 0 0.0296635
0.499046 0 0
0.769528 0 0
0.997269 0 0
0 0.197726 0
0.0757763 0.186923 0.0176547
0.49688 0.169299 0
0.752667 0.170977 0
0.989532 0.178988 0
0 0.48098 0
0.0211185 0.48423 0
0.461295 0.473243 0
0.745708 0.467124 0
0.986557 0.47425 0
0 0.756725 0
0 0.758556 0
0.430442 0.746578 0
0.711513 0.73666 0
0.950698 0.733532 0
0 0.998016 0
0 0.993545 0
0.41323 0.973404 0
0.686046 0.9561 0
0.920439 0.947784 0
0 0 0.1991
0.090074 0 0.254322
0.515679 0 0.232227
0.792523 0 0.213458
1 0 0.202976
0 0.215503 0.147433
0.0664225 0.19408 0.208438
0.492653 0.175799 0.196139
0.771115 0.169635 0.170626
1 0.17734 0.156512
0 0.494041 0.11458
0.0243229 0.490013 0.182925
0.462654 0.478553 0.176669
0.744823 0.473686 0.166812
0.964019 0.490944 0.133928
0 0.762554 0.130449
0 0.762997 0.151354
0.430991 0.749981 0.144732
0.711284 0.73901 0.135973
0.949615 0.734966 0.131579
0 1 0.131411
0 0.995285 0.136629
0.410544 0.974273 0.122393
0.683803 0.956466 0.108461
0.918441 0.948165 0.101854
0 0 0.449546
0.00633249 0 0.512093
0.503807 0 0.509651
0.783078 0 0.493233
1 0 0.491386
0 0.229999 0.395773
0.00679026 0.209201 0.465415
0.49572 0.168902 0.499306
0.782757 0.158419 0.496086
1 0.161669 0.501717
0 0.51426 0.320745
0 0.504219 0.395666
0.458396 0.47837 0.459632
0.737087 0.476829 0.430564
0.97615 0.485634 0.409781
0 0.780255 0.289769
0 0.766476 0.397375
0.42501 0.748425 0.426566
0.705898 0.73608 0.41854
0.941497 0.731991 0.4103
0 1 0.33695
0 0.992676 0.410163
0.401541 0.970367 0.401404
0.676631 0.951919 0.388128
0.911574 0.94406 0.383139
0 0.00663767 0.68661
0 0 0.748333
0.492683 0 0.771771
0.774395 0 0.757778
1 0 0.754528
0 0.242679 0.63505
0 0.222171 0.704051
0.488823 0.168322 0.758267
0.777279 0.158724 0.752956
1 0.161791 0.756146
0 0.530129 0.559411
0 0.518944 0.633692
0.410513 0.493706 0.700572
0.741756 0.470985 0.717144
0.989792 0.47335 0.720439
0 0.796597 0.507286
0 0.783429 0.58085
0.405219 0.755199 0.640833
0.700282 0.732982 0.67744
0.931731 0.73019 0.657298
0 1 0.488197
0 1 0.565698
0.391608 0.967559 0.648402
0.669062 0.947723 0.646143
0.904936 0.939696 0.641398
0 0.0159915 0.866911
0 0 0.927993
0.485359 0 0.96791
0.769268 0 0.954269
1 0 0.951644
0 0.255375 0.818082
0 0.236149 0.887572
0.471138 0.176638 0.958358
0.775051 0.162829 0.952407
1 0.165805 0.955505
0 0.545464 0.744564
0 0.533669 0.817761
0.375616 0.509361 0.88629
0.739498 0.474922 0.917189
0.986969 0.476738 0.919509
0 0.810651 0.689708
0 0.79646 0.760723
0.368414 0.767956 0.821683
0.666255 0.743618 0.860166
0.934585 0.725582 0.871046
0 1 0.660029
0 1 0.723888
0.364935 0.979934 0.776776
0.658457 0.951858 0.81117
0.90135 0.938521 0.838804
