public/textures/LUTs/LOS_ANGELES.CUBE
TITLE "Generated by Resolve"
LUT_3D_SIZE 9
0.00515755 0.0129549 0.00877394
0.0415808 0.0139925 0.00975052
0.231098 0.0239261 0.0162509
0.531228 0.0545968 0.0407111
0.757382 0.104295 0.0938277
0.914321 0.178027 0.220356
0.965133 0.493843 0.532799
0.977172 0.69398 0.713497
0.988586 0.792203 0.805386
0.00628672 0.0490272 0.0112764
0.0422065 0.050248 0.0117494
0.256565 0.0477302 0.0151827
0.566857 0.0755016 0.0435645
0.78056 0.126345 0.103487
0.927611 0.235554 0.264332
0.966598 0.541543 0.562188
0.978592 0.725155 0.731762
0.989868 0.812085 0.81503
0.00480659 0.227512 0.0202487
0.0155032 0.228519 0.0200809
0.189517 0.223148 0.0144808
0.600046 0.19292 0.0343633
0.811917 0.205203 0.110063
0.943053 0.347234 0.321584
0.968078 0.610544 0.603418
0.979965 0.763821 0.754238
0.99025 0.83447 0.823499
0.00228885 0.489632 0.0505379
0.0120241 0.492241 0.0512856
0.0504616 0.491707 0.0506142
0.472496 0.533562 0.0145724
0.799924 0.500175 0.0759136
0.941588 0.536278 0.338949
0.969482 0.688136 0.638117
0.98146 0.803265 0.775906
0.99025 0.855329 0.829648
0.00390631 0.67451 0.10277
0.0145571 0.67657 0.104005
0.0296941 0.677485 0.104494
0.232349 0.711635 0.075639
0.69778 0.748592 0.0377203
0.89691 0.734035 0.204303
0.969726 0.759594 0.624247
0.982483 0.831205 0.78056
0.99025 0.869978 0.828717
0.01561 0.77557 0.197269
0.0278477 0.779416 0.205463
0.0429847 0.781521 0.20734
0.0974136 0.789273 0.204639
0.564233 0.856321 0.103532
0.824262 0.860807 0.147372
0.963149 0.846922 0.538003
0.982376 0.860777 0.764141
0.99025 0.884993 0.822461
0.0741894 0.866453 0.487282
0.0893873 0.869734 0.492164
0.105821 0.872435 0.493233
0.146288 0.878294 0.494469
0.476417 0.922179 0.446677
0.779873 0.937072 0.409552
0.927962 0.92958 0.506203
0.980728 0.91809 0.710918
0.99025 0.917113 0.805783
0.284855 0.951034 0.681224
0.318563 0.95433 0.681941
0.352987 0.957153 0.68101
0.433722 0.96112 0.676814
0.580789 0.969131 0.661524
0.760204 0.975662 0.642817
0.901122 0.97438 0.642237
0.970062 0.969909 0.68687
0.99025 0.962081 0.779507
0.628153 0.983703 0.756054
0.65066 0.985092 0.756191
0.671366 0.986419 0.75555
0.695735 0.987594 0.754482
0.728267 0.98822 0.751873
0.792782 0.988296 0.748531
0.885222 0.988296 0.744366
0.954208 0.988296 0.747738
0.990066 0.988357 0.761822
0.00572213 0.0131991 0.0269322
0.0395972 0.0142672 0.0307622
0.22565 0.0226596 0.0383917
0.524025 0.0514687 0.0537728
0.752544 0.0980087 0.10248
0.912535 0.165209 0.223346
0.964462 0.47982 0.537316
0.976593 0.686412 0.721126
0.988037 0.78851 0.814725
0.00691234 0.0481575 0.0328679
0.0424659 0.0489204 0.0349432
0.239139 0.0454261 0.0382086
0.547631 0.0705882 0.056672
0.770581 0.117235 0.110872
0.924987 0.211292 0.259785
0.965759 0.525612 0.566262
0.977722 0.715251 0.737942
0.98909 0.807202 0.823026
0.00480659 0.226566 0.0305943
0.0150607 0.228046 0.0303807
0.189487 0.222049 0.0258335
0.587549 0.194018 0.0469673
0.803357 0.200961 0.117617
0.940459 0.325704 0.317449
0.967132 0.5953 0.606897
0.97911 0.756954 0.762493
0.99025 0.834684 0.835828
0.00228885 0.490135 0.0615702
0.0119326 0.492821 0.0621653
0.0496376 0.492378 0.0619669
0.472953 0.535363 0.024918
0.804166 0.498512 0.0899672
0.938064 0.53373 0.341466
0.968734 0.679057 0.64358
0.980636 0.79704 0.783719
0.99025 0.855497 0.84184
0.00392157 0.675608 0.114992
0.0143435 0.677928 0.116045
0.0296635 0.678889 0.116915
0.230335 0.712459 0.0885939
0.698299 0.750179 0.048188
0.902007 0.734081 0.232639
0.969665 0.758785 0.638956
0.981842 0.827604 0.78941
0.99025 0.870024 0.841077
0.0163577 0.777661 0.217166
0.0277562 0.780118 0.220584
0.0430152 0.782376 0.22269
0.0970169 0.789761 0.220935
0.564355 0.857694 0.116625
0.825742 0.86186 0.163272
0.964569 0.846799 0.563439
0.982376 0.860685 0.779004
0.99025 0.885298 0.834867
0.0758984 0.868055 0.505379
0.0901961 0.871077 0.509148
0.106874 0.873884 0.510857
0.147646 0.879652 0.511864
0.476829 0.922728 0.468315
0.781079 0.937316 0.434806
0.929183 0.929946 0.526818
0.980941 0.918105 0.728801
0.99025 0.916991 0.818936
0.287816 0.951324 0.693049
0.322484 0.954665 0.693858
0.357244 0.957473 0.693187
0.436225 0.961273 0.689296
0.582406 0.969253 0.677668
0.761028 0.975753 0.660121
0.90135 0.974533 0.659525
0.970047 0.969985 0.703059
0.99025 0.962158 0.792462
0.626123 0.983658 0.767315
0.652537 0.985306 0.768765
0.673304 0.986572 0.768307
0.696574 0.98761 0.767208
0.728649 0.98822 0.764996
0.792828 0.988296 0.762325
0.885283 0.988296 0.75938
0.95436 0.988296 0.762341
0.990066 0.988357 0.775402
0.0108644 0.0164034 0.190295
0.0415656 0.016083 0.194675
0.225437 0.0180056 0.190524
0.536187 0.0280461 0.153826
0.763104 0.0666056 0.16524
0.917098 0.156054 0.276432
0.964279 0.473228 0.561028
0.976394 0.683085 0.735912
0.987778 0.786587 0.826886
0.0099031 0.0315251 0.198169
0.0373388 0.0299687 0.20206
0.23537 0.0307622 0.195972
0.553796 0.0433967 0.157321
0.77705 0.0854505 0.172595
0.926772 0.190997 0.301778
0.965179 0.511772 0.580575
0.977172 0.708049 0.747753
0.988556 0.803967 0.833005
0.00633249 0.205188 0.177356
0.0162814 0.206287 0.180316
0.18645 0.196872 0.174182
0.575463 0.167422 0.145068
0.805508 0.16286 0.177157
0.937469 0.294835 0.350729
0.966293 0.578363 0.616007
0.978302 0.749569 0.771435
0.989593 0.830793 0.844572
0.00222782 0.485039 0.123003
0.0118257 0.488869 0.125551
0.0461128 0.48983 0.123384
0.474159 0.529442 0.0794995
0.805402 0.491402 0.139559
0.93698 0.523003 0.366155
0.967803 0.665507 0.649134
0.979736 0.78941 0.791119
0.99025 0.855024 0.853834
0.00381476 0.674571 0.147143
0.0141146 0.676661 0.148501
0.0289769 0.679133 0.148714
0.22266 0.711833 0.121401
0.698177 0.750942 0.0760662
0.907973 0.73225 0.288792
0.969085 0.75581 0.647425
0.981109 0.822736 0.797177
0.99025 0.869383 0.853132
0.0162203 0.77789 0.247562
0.0275273 0.780484 0.251377
0.0426032 0.783215 0.253559
0.0955215 0.790646 0.255329
0.562158 0.859205 0.146136
0.830198 0.86273 0.204044
0.966018 0.846311 0.594461
0.98204 0.859739 0.789776
0.99025 0.885084 0.846983
0.0760967 0.869291 0.527169
0.0899214 0.872129 0.531289
0.108263 0.875837 0.536461
0.149325 0.881651 0.538003
0.476158 0.923323 0.499748
0.783047 0.937484 0.469474
0.930449 0.93022 0.55285
0.981216 0.917754 0.747784
0.99025 0.916884 0.831556
0.286732 0.950957 0.706111
0.32018 0.95433 0.707317
0.349004 0.956802 0.705806
0.439918 0.961563 0.704479
0.584024 0.969421 0.696452
0.761669 0.975875 0.680385
0.901854 0.974746 0.679728
0.970062 0.970291 0.72108
0.99025 0.962325 0.805798
0.627863 0.983856 0.781201
0.651453 0.985321 0.781979
0.676173 0.986801 0.782803
0.697627 0.987579 0.781155
0.729747 0.988205 0.779126
0.793042 0.988296 0.776318
0.885542 0.988296 0.774151
0.954559 0.988296 0.777371
0.990066 0.988357 0.789517
0.0255436 0.0231022 0.4448
0.0433967 0.023209 0.45008
0.216846 0.00775158 0.465385
0.547021 0.0068513 0.439246
0.776684 0.0377356 0.414862
0.918853 0.118898 0.444984
0.96408 0.445808 0.610391
0.976394 0.673884 0.754253
0.987762 0.782177 0.839307
0.0229801 0.0344854 0.454627
0.0410468 0.0343175 0.45919
0.223667 0.0181125 0.47425
0.56347 0.0172122 0.447059
0.789746 0.0514534 0.424781
0.926543 0.146029 0.463127
0.965042 0.485374 0.624063
0.97705 0.697978 0.763424
0.988373 0.799069 0.843839
0.0104982 0.135409 0.467033
0.0226749 0.134157 0.471366
0.169879 0.112413 0.484672
0.57763 0.0835279 0.456504
0.814069 0.102434 0.431876
0.933059 0.228565 0.493065
0.96585 0.550057 0.646983
0.977783 0.736187 0.780499
0.989059 0.824323 0.852934
0.00274662 0.46566 0.46865
0.0125429 0.469078 0.474235
0.0418402 0.466606 0.4757
0.493675 0.487266 0.463233
0.82002 0.451072 0.436408
0.933608 0.481697 0.513298
0.966888 0.637446 0.669779
0.978882 0.775494 0.797192
0.990143 0.850599 0.863188
0.00326543 0.674708 0.3897
0.0135195 0.677195 0.395041
0.0274815 0.679591 0.395926
0.194888 0.70779 0.389136
0.714672 0.748165 0.33022
0.916152 0.724666 0.465446
0.968277 0.745892 0.665675
0.980163 0.811078 0.80058
0.99025 0.864927 0.862547
0.0148928 0.781201 0.396826
0.0261997 0.78352 0.402777
0.0416571 0.786801 0.405768
0.0923781 0.793439 0.408362
0.565332 0.860258 0.344045
0.844755 0.862837 0.386267
0.966506 0.844892 0.634974
0.981353 0.855741 0.793545
0.99025 0.881682 0.855787
0.0756085 0.871107 0.575708
0.0895857 0.874037 0.580453
0.107347 0.87744 0.584573
0.151751 0.883238 0.589853
0.472221 0.924193 0.567361
0.786053 0.937407 0.541039
0.932631 0.930297 0.600931
0.981506 0.917082 0.764446
0.99025 0.91632 0.839979
0.286595 0.950134 0.723293
0.311803 0.953307 0.724208
0.356039 0.957458 0.725948
0.443915 0.961868 0.724437
0.585901 0.969604 0.719326
0.76199 0.975906 0.707256
0.902129 0.974899 0.707118
0.970138 0.970565 0.742199
0.99025 0.962371 0.816464
0.626383 0.983917 0.795651
0.649226 0.98529 0.796231
0.673304 0.986618 0.797009
0.699092 0.987579 0.797009
0.731075 0.98819 0.795193
0.793851 0.988296 0.792462
0.886015 0.988296 0.79086
0.954696 0.988296 0.794064
0.990082 0.988373 0.805478
0.0361334 0.0328069 0.633585
0.0495155 0.0329595 0.637171
0.174456 0.0244144 0.648173
0.545159 0.00393683 0.64744
0.764782 0.0126955 0.639155
0.909209 0.065919 0.632029
0.963546 0.356924 0.693034
0.976364 0.644816 0.778408
0.987762 0.770581 0.849088
0.0344091 0.0437018 0.64094
0.0483253 0.0436713 0.644297
0.185245 0.0317388 0.656931
0.56022 0.013077 0.654002
0.777462 0.0243992 0.645808
0.915831 0.0828717 0.641367
0.964843 0.398993 0.704738
0.97705 0.67158 0.78674
0.988373 0.788159 0.853361
0.0209964 0.0847334 0.652354
0.0335241 0.0842298 0.655192
0.13724 0.0712444 0.666056
0.557336 0.0384985 0.66421
0.793942 0.0520485 0.656352
0.923186 0.128344 0.658335
0.965835 0.473701 0.721004
0.977722 0.712291 0.800336
0.988968 0.814023 0.86128
0.00952163 0.402564 0.692088
0.0203403 0.40325 0.695354
0.0484016 0.395026 0.697307
0.469612 0.366506 0.72018
0.805982 0.338033 0.697841
0.923354 0.37499 0.696635
0.966552 0.581888 0.737682
0.978454 0.75404 0.81178
0.989685 0.839628 0.868742
0.00675975 0.670527 0.702419
0.0176547 0.672602 0.706035
0.0311742 0.673747 0.709377
0.176196 0.687068 0.723812
0.729107 0.718898 0.70106
0.906126 0.700526 0.697795
0.967025 0.720775 0.739666
0.97937 0.792142 0.81323
0.99025 0.856336 0.869505
0.0152743 0.788907 0.66099
0.0273136 0.790845 0.665339
0.0431373 0.793774 0.668666
0.0903182 0.798962 0.673961
0.562905 0.852659 0.66392
0.858091 0.855299 0.657786
0.963241 0.839216 0.723003
0.98056 0.848341 0.805402
0.99025 0.875395 0.862287
0.0745403 0.873213 0.681956
0.0880903 0.8757 0.686351
0.105852 0.879072 0.689906
0.148043 0.885283 0.693492
0.477455 0.922789 0.690349
0.789425 0.935378 0.671641
0.933333 0.928542 0.69575
0.981521 0.916106 0.787182
0.99025 0.915068 0.846616
0.282918 0.948821 0.754498
0.301213 0.951949 0.755611
0.342626 0.955901 0.757153
0.432013 0.961257 0.756237
0.585412 0.969451 0.753002
0.762295 0.97583 0.74873
0.902083 0.97438 0.749966
0.970047 0.970489 0.773953
0.99025 0.962539 0.826993
0.623362 0.983825 0.812467
0.64683 0.98526 0.813169
0.669169 0.986389 0.813443
0.696513 0.987503 0.81384
0.73254 0.988205 0.813977
0.795209 0.988296 0.811688
0.886351 0.988296 0.810605
0.955032 0.988296 0.813947
0.990082 0.988373 0.824262
0.038056 0.035462 0.746075
0.0494087 0.035523 0.748821
0.127062 0.0300145 0.759319
0.540825 0.0039826 0.761929
0.767758 0.00787366 0.759686
0.884642 0.0250858 0.755138
0.96228 0.18674 0.772992
0.976364 0.588251 0.823133
0.987762 0.751949 0.863966
0.0366674 0.0461738 0.752316
0.0485389 0.0460822 0.754894
0.132662 0.0395056 0.7673
0.556954 0.0129854 0.767468
0.778744 0.018555 0.76614
0.892943 0.0381323 0.761959
0.964355 0.213001 0.784375
0.97705 0.620325 0.829389
0.988373 0.770962 0.867475
0.0251621 0.0717784 0.761791
0.0366827 0.0717784 0.764187
0.0991226 0.0688487 0.770474
0.54229 0.0308537 0.777432
0.78703 0.0380407 0.775723
0.903822 0.0625467 0.77319
0.965835 0.302144 0.810651
0.977722 0.670207 0.84033
0.988968 0.798779 0.874434
0.0116274 0.294621 0.790921
0.0224002 0.293355 0.793469
0.0479286 0.27921 0.794217
0.421912 0.219318 0.818921
0.789258 0.162448 0.800916
0.90544 0.183474 0.799512
0.966476 0.461509 0.826352
0.978424 0.718425 0.84976
0.989639 0.825925 0.881117
0.0103456 0.638758 0.836652
0.0212863 0.64097 0.839689
0.0355077 0.639963 0.842741
0.143908 0.638941 0.852888
0.703792 0.659449 0.84596
0.891783 0.648402 0.839734
0.965026 0.676799 0.836851
0.979034 0.766247 0.850736
0.99025 0.844862 0.882368
0.0139315 0.780148 0.8271
0.0246891 0.781888 0.830427
0.0384375 0.783856 0.832822
0.0769818 0.787121 0.834424
0.548119 0.833799 0.829587
0.854856 0.839261 0.82504
0.955764 0.826932 0.827619
0.979873 0.83595 0.846647
0.99025 0.866575 0.878523
0.0628672 0.870008 0.802152
0.0762341 0.872282 0.804074
0.0930037 0.874998 0.805936
0.133806 0.880766 0.80737
0.424018 0.916335 0.8047
0.787259 0.930236 0.799512
0.930632 0.923751 0.805341
0.980941 0.912978 0.835248
0.99025 0.9122 0.867369
0.27422 0.946319 0.809567
0.293553 0.94934 0.811078
0.320806 0.95314 0.812345
0.402777 0.959701 0.812543
0.576074 0.968536 0.809079
0.760311 0.975143 0.807233
0.901091 0.972869 0.810224
0.969772 0.969238 0.822507
0.99025 0.961883 0.853071
0.619516 0.983627 0.837552
0.641093 0.984909 0.838163
0.6636 0.98613 0.838773
0.691737 0.987411 0.839521
0.729809 0.98822 0.840177
0.79588 0.988281 0.839979
0.886625 0.988296 0.839704
0.955001 0.988296 0.843244
0.990066 0.988357 0.85156
0.0298314 0.0358282 0.834531
0.0395666 0.0359503 0.836286
0.0750134 0.0359045 0.84062
0.501808 0.00296025 0.852461
0.793118 0.00674449 0.848508
0.893355 0.00816358 0.844236
0.955413 0.0469215 0.838407
0.976394 0.43679 0.881682
0.987762 0.713848 0.90016
0.0285496 0.0464027 0.839185
0.0387274 0.0463569 0.840955
0.0758679 0.0464332 0.845304
0.522301 0.011902 0.857053
0.804944 0.0146639 0.852399
0.900206 0.0164492 0.84799
0.958022 0.0565957 0.842252
0.97705 0.481682 0.889342
0.988357 0.735393 0.902434
0.0210269 0.0636454 0.846525
0.0315099 0.0635691 0.848417
0.0624552 0.0629129 0.851469
0.501595 0.0302129 0.863493
0.81149 0.0261997 0.857984
0.905318 0.030045 0.853788
0.961074 0.0838941 0.853269
0.977722 0.554925 0.901503
0.988968 0.767483 0.907195
0.0117037 0.169253 0.857404
0.0223087 0.167956 0.859113
0.0383612 0.157885 0.859892
0.319463 0.0970169 0.874998
0.771695 0.0729229 0.863798
0.896132 0.075761 0.860441
0.962081 0.17409 0.87512
0.978424 0.631846 0.913085
0.989639 0.79913 0.912612
0.00965896 0.578729 0.913375
0.0209354 0.580865 0.915404
0.0348669 0.573419 0.916197
0.0991531 0.543481 0.917174
0.65658 0.525551 0.924727
0.882322 0.505943 0.919341
0.957244 0.555795 0.92015
0.979034 0.709072 0.916671
0.99025 0.821897 0.91516
0.0110628 0.759411 0.920485
0.0227207 0.76109 0.922057
0.0365454 0.761959 0.923812
0.0677806 0.762188 0.925139
0.475013 0.799817 0.922408
0.841367 0.807279 0.918654
0.946807 0.801266 0.916762
0.979583 0.812879 0.912383
0.99025 0.851392 0.914214
0.0411231 0.857664 0.906111
0.0532387 0.859495 0.907729
0.0681163 0.861784 0.90959
0.100771 0.86598 0.911284
0.322225 0.900084 0.912688
0.777798 0.919036 0.904997
0.926635 0.913252 0.903273
0.979232 0.905989 0.904295
0.99025 0.906447 0.910582
0.239567 0.937102 0.892088
0.259037 0.939834 0.893523
0.285283 0.943603 0.894667
0.334356 0.951141 0.895399
0.539879 0.963043 0.891569
0.753536 0.971267 0.889296
0.898283 0.969573 0.888411
0.969009 0.966064 0.892302
0.99025 0.959594 0.90341
0.607248 0.982696 0.884871
0.628 0.983917 0.885649
0.650996 0.985245 0.886549
0.679973 0.986709 0.887556
0.721035 0.988067 0.888411
0.792508 0.988296 0.888777
0.88632 0.988296 0.889296
0.954757 0.988296 0.892149
0.990036 0.988281 0.897322
0.0169985 0.0363165 0.882017
0.0259251 0.0364996 0.882673
0.0442359 0.0365148 0.883864
0.305257 0.0225986 0.890929
0.835996 0.00567636 0.893538
0.921691 0.00296025 0.891066
0.959365 0.00682078 0.888365
0.976181 0.14023 0.907851
0.987762 0.624598 0.943969
0.0163119 0.0471046 0.883833
0.0256504 0.0469368 0.88452
0.044419 0.046952 0.885817
0.337987 0.0287938 0.894133
0.846174 0.0132143 0.894957
0.92639 0.0118563 0.893294
0.961563 0.0158999 0.891157
0.976898 0.156756 0.911452
0.988357 0.654749 0.946395
0.0134585 0.0619516 0.886107
0.0233768 0.0618296 0.886885
0.0403296 0.0614176 0.888075
0.317037 0.0401465 0.899855
0.854002 0.0238499 0.896559
0.931136 0.0238346 0.896162
0.963455 0.0299687 0.895094
0.977676 0.187671 0.916793
0.988968 0.700862 0.950713
0.0110475 0.0992905 0.891203
0.021622 0.0981003 0.891814
0.0349889 0.0945602 0.892271
0.139574 0.0836347 0.898116
0.802014 0.0422827 0.899168
0.91397 0.043946 0.898528
0.962692 0.061677 0.902007
0.978424 0.250813 0.931289
0.989609 0.744945 0.955825
0.00935378 0.486244 0.943862
0.0209964 0.488441 0.945174
0.0347601 0.480064 0.94522
0.0559854 0.429633 0.939651
0.580331 0.344976 0.947768
0.875822 0.313481 0.942046
0.955413 0.343084 0.946029
0.979034 0.517968 0.962066
0.99025 0.778729 0.959472
0.0099031 0.745312 0.970504
0.0222477 0.747448 0.971176
0.0361944 0.746715 0.971832
0.0564279 0.736004 0.972259
0.322072 0.748562 0.971908
0.823804 0.758099 0.96939
0.941909 0.752728 0.968887
0.979522 0.768688 0.967056
0.99025 0.82327 0.960555
0.0231937 0.844373 0.96405
0.0357061 0.846036 0.96495
0.0498207 0.847868 0.965805
0.0746929 0.850645 0.96669
0.207935 0.866499 0.967102
0.742718 0.903151 0.963012
0.919478 0.898558 0.961563
0.976776 0.895155 0.960098
0.99025 0.896208 0.957183
0.156664 0.920607 0.955169
0.174502 0.922957 0.956008
0.193698 0.924697 0.956374
0.246403 0.931701 0.957763
0.420264 0.952346 0.957671
0.737591 0.965331 0.954421
0.895613 0.963882 0.953643
0.968231 0.960418 0.953292
0.99025 0.956268 0.954055
0.575311 0.980575 0.940276
0.597681 0.981949 0.941299
0.622248 0.983368 0.942153
0.653681 0.985077 0.943221
0.700771 0.987213 0.944121
0.782208 0.988266 0.944411
0.884276 0.988327 0.944381
0.95433 0.988281 0.945342
0.98996 0.98822 0.947875
0.0108186 0.0362554 0.894652
0.0196536 0.0364233 0.895247
0.03299 0.0366217 0.89604
0.0683146 0.0367437 0.898283
0.801007 0.00459297 0.906767
0.949294 0.00213626 0.902754
0.963058 0.002121 0.903197
0.97554 0.011902 0.905898
0.987686 0.264851 0.942657
0.0109255 0.0471962 0.896452
0.0200961 0.047013 0.897063
0.0336614 0.0471809 0.897948
0.0700999 0.0475776 0.900236
0.794186 0.0124819 0.908812
0.951385 0.01149 0.905318
0.96405 0.0116426 0.905745
0.97641 0.0220645 0.9084
0.988342 0.297932 0.948516
0.0108492 0.0619059 0.898741
0.0206607 0.0618448 0.899458
0.0338903 0.0615854 0.900359
0.0636606 0.0619059 0.902113
0.771817 0.0266117 0.910613
0.952865 0.0236362 0.908354
0.965057 0.0237583 0.908797
0.977356 0.0359045 0.911696
0.988968 0.339162 0.956268
0.0107424 0.0780041 0.901427
0.0213474 0.0778973 0.90219
0.0344549 0.0775769 0.903029
0.0514229 0.0777142 0.904097
0.714488 0.0430457 0.911681
0.951034 0.03682 0.911192
0.965866 0.0378119 0.912001
0.978225 0.061738 0.917876
0.98967 0.408774 0.969345
0.00984207 0.356268 0.940246
0.0211032 0.362203 0.94168
0.0339513 0.353811 0.941176
0.0491035 0.308095 0.934249
0.446601 0.157656 0.936278
0.883635 0.111376 0.928389
0.957885 0.126848 0.933516
0.978927 0.228061 0.951827
0.99025 0.573541 0.980484
0.00956741 0.754162 0.986496
0.0218204 0.756207 0.986709
0.0354925 0.756497 0.986954
0.0509194 0.742184 0.987182
0.137804 0.669444 0.985336
0.786053 0.659098 0.983948
0.938369 0.648005 0.982757
0.979156 0.683207 0.985168
0.99025 0.754238 0.986068
0.0107118 0.839109 0.986954
0.0229496 0.840955 0.987167
0.0360113 0.842329 0.987366
0.0530404 0.840558 0.987594
0.114672 0.838209 0.987808
0.631067 0.880766 0.986603
0.912184 0.880323 0.986191
0.974044 0.877516 0.986328
0.990295 0.879942 0.98616
0.0791791 0.903685 0.986847
0.0938582 0.905943 0.986999
0.108598 0.90811 0.987305
0.139757 0.912123 0.987579
0.239246 0.924056 0.987625
0.655344 0.954849 0.986175
0.885908 0.955077 0.985641
0.964324 0.95256 0.98555
0.990234 0.95108 0.985519
0.490608 0.97615 0.982437
0.512322 0.977172 0.982803
0.547524 0.978927 0.983093
0.587121 0.981262 0.98352
0.651011 0.985061 0.983871
0.758618 0.988113 0.9841
0.878706 0.98819 0.984482
0.953597 0.988128 0.984863
0.989929 0.988052 0.985916
