public/textures/LUTs/LOS_ANGELES.CUBE
TITLE "Generated by Resolve"
LUT_3D_SIZE 33
0.00515755 0.0129549 0.00877394
0.00515755 0.0129549 0.00877394
0.00788891 0.0129397 0.00881972
0.0117189 0.0129244 0.00888075
0.0415808 0.0139925 0.00975052
0.0824598 0.0155032 0.010956
0.12694 0.0175631 0.0125277
0.173465 0.0198825 0.0142672
0.231098 0.0239261 0.0162509
0.297276 0.0290074 0.0184634
0.3738 0.0357519 0.0241703
0.454612 0.043122 0.0311284
0.531228 0.0545968 0.0407111
0.604685 0.0661936 0.0502785
0.661021 0.078706 0.063035
0.71429 0.0908064 0.0754711
0.757382 0.104295 0.0938277
0.795621 0.117266 0.112337
0.833631 0.131975 0.137682
0.873625 0.150057 0.174289
0.914321 0.178027 0.220356
0.936233 0.260273 0.307103
0.957824 0.341772 0.393011
0.961471 0.417502 0.462608
0.965133 0.493843 0.532799
0.96817 0.55346 0.586114
0.97116 0.611429 0.63772
0.974151 0.654932 0.67744
0.977172 0.69398 0.713497
0.980117 0.7252 0.742687
0.982956 0.7514 0.767422
0.985794 0.773724 0.788327
0.988586 0.792203 0.805386
0.00515755 0.0129549 0.00877394
0.00515755 0.0129549 0.00877394
0.00830091 0.0129397 0.00881972
0.0121767 0.0129244 0.00889601
0.0463722 0.0141756 0.00988785
0.0869306 0.015671 0.0110781
0.132021 0.0178225 0.0127108
0.178546 0.0201267 0.0144503
0.23801 0.024445 0.0164797
0.304204 0.0295415 0.0187076
0.381994 0.0364996 0.0248875
0.462806 0.0438697 0.0318456
0.539132 0.055848 0.0417334
0.611811 0.0675364 0.0515297
0.667338 0.0801404 0.0645151
0.720607 0.0922408 0.0769513
0.762112 0.105898 0.0961166
0.800732 0.11899 0.114794
0.838392 0.134127 0.142046
0.878401 0.152224 0.178653
0.916854 0.187549 0.230396
0.938766 0.26978 0.317143
0.958251 0.350607 0.401129
0.961883 0.426337 0.470741
0.96556 0.502678 0.540917
0.968521 0.560174 0.592096
0.971481 0.61767 0.643259
0.974502 0.659495 0.681636
0.977523 0.698543 0.717708
0.980423 0.728038 0.745373
0.983291 0.754452 0.770306
0.986084 0.775692 0.790143
0.988876 0.794171 0.807202
0.00521859 0.0156252 0.00891127
0.00521859 0.0156558 0.00891127
0.00808728 0.0156863 0.00895705
0.0122225 0.0155184 0.00900282
0.0496376 0.0170138 0.0101015
0.0900282 0.018677 0.0112764
0.136584 0.0213474 0.0127565
0.182864 0.0240635 0.0142214
0.244404 0.0287327 0.0162509
0.310826 0.0338598 0.0184482
0.390204 0.0410468 0.0251774
0.471077 0.0488441 0.0324865
0.54757 0.0608072 0.0424964
0.618814 0.0726635 0.0527962
0.674327 0.0852979 0.0658274
0.727062 0.0975357 0.0787518
0.76788 0.111482 0.0985428
0.806516 0.124712 0.117281
0.844343 0.140703 0.147051
0.884504 0.159213 0.18407
0.920302 0.202136 0.241367
0.941726 0.284703 0.327947
0.958709 0.365011 0.409888
0.962325 0.440589 0.479545
0.965911 0.514656 0.547631
0.968856 0.571817 0.598733
0.971847 0.629389 0.650233
0.974853 0.66836 0.686366
0.977874 0.707179 0.722362
0.980774 0.735195 0.748821
0.983627 0.761166 0.773465
0.986404 0.781353 0.792325
0.989227 0.799847 0.809613
0.00527962 0.0192416 0.00909438
0.00527962 0.0192721 0.00909438
0.00819409 0.0192874 0.0091249
0.0117342 0.0192874 0.00915541
0.0480201 0.0208896 0.0102083
0.0911879 0.022797 0.0114595
0.139666 0.0261692 0.0126192
0.1879 0.0295415 0.0137942
0.251667 0.0343786 0.0158846
0.319326 0.0396429 0.0184176
0.39968 0.0468757 0.025452
0.479438 0.055024 0.0330816
0.556771 0.0669718 0.0432593
0.626017 0.0788434 0.0540169
0.681483 0.0914473 0.0671092
0.732982 0.104021 0.0811017
0.773831 0.11809 0.100984
0.812497 0.131441 0.119799
0.850538 0.148501 0.152239
0.890883 0.167422 0.189761
0.923827 0.217929 0.252491
0.94464 0.300832 0.338842
0.959182 0.380529 0.418784
0.962798 0.456519 0.489113
0.966247 0.527535 0.554467
0.969207 0.584237 0.605463
0.972198 0.639399 0.655238
0.975219 0.677882 0.691157
0.978256 0.716701 0.727367
0.981109 0.742611 0.752163
0.983963 0.768338 0.776883
0.986755 0.787579 0.795056
0.989548 0.805814 0.812192
0.00628672 0.0490272 0.0112764
0.00630198 0.0493172 0.0112917
0.00929274 0.0496071 0.0113375
0.0126345 0.0495613 0.011368
0.0422065 0.050248 0.0117494
0.0798047 0.0496681 0.0121614
0.137026 0.0471351 0.0127413
0.191577 0.0462043 0.0134585
0.256565 0.0477302 0.0151827
0.326757 0.0502632 0.0179141
0.408392 0.0563363 0.0250401
0.489036 0.0639963 0.0331884
0.566857 0.0755016 0.0435645
0.634028 0.0871138 0.054902
0.689525 0.0994736 0.0681926
0.739361 0.112108 0.083238
0.78056 0.126345 0.103487
0.81886 0.139635 0.122301
0.857206 0.1579 0.157824
0.897826 0.177401 0.196155
0.927611 0.235554 0.264332
0.947616 0.318837 0.350561
0.959701 0.397711 0.428611
0.963256 0.473228 0.499016
0.966598 0.541543 0.562188
0.969558 0.597604 0.61297
0.972549 0.650019 0.660777
0.97557 0.68806 0.696635
0.978592 0.725155 0.731762
0.981445 0.75053 0.756359
0.984298 0.775967 0.780911
0.987076 0.794079 0.798047
0.989868 0.812085 0.81503
0.00762951 0.0874342 0.0141299
0.00764477 0.0877241 0.0141451
0.0106203 0.0876326 0.0141604
0.0138247 0.0871901 0.0141451
0.0402228 0.0859388 0.0137179
0.0687572 0.0842451 0.0132143
0.123766 0.0765698 0.0129702
0.18764 0.0675212 0.0129549
0.25864 0.063859 0.0142214
0.332891 0.0625925 0.0170596
0.415991 0.0668345 0.0242771
0.497627 0.0737926 0.0329442
0.576562 0.0846876 0.0436408
0.642634 0.0960861 0.0558175
0.698146 0.10808 0.0693065
0.746609 0.120943 0.0857252
0.787427 0.135088 0.106004
0.825833 0.14905 0.127001
0.864454 0.168093 0.164065
0.905333 0.188174 0.203281
0.931472 0.254429 0.277073
0.950423 0.337407 0.362478
0.96022 0.415274 0.438712
0.963714 0.490196 0.509178
0.966934 0.555688 0.570047
0.969894 0.611093 0.620661
0.9729 0.6607 0.666697
0.975921 0.698222 0.702449
0.978927 0.73344 0.736049
0.981781 0.758602 0.76054
0.984619 0.782986 0.784329
0.987396 0.800565 0.801022
0.990188 0.818372 0.817838
0.00735485 0.130053 0.0160678
0.00735485 0.130388 0.0160678
0.0104372 0.130449 0.016022
0.01355 0.130144 0.0159609
0.0311894 0.129076 0.0155184
0.049485 0.127596 0.0150607
0.103716 0.122652 0.0144656
0.165042 0.115511 0.0137789
0.246128 0.107851 0.0129854
0.331807 0.101442 0.0145266
0.422354 0.100389 0.0216526
0.506188 0.102617 0.0306401
0.586343 0.108202 0.041825
0.651484 0.116228 0.0549477
0.706966 0.125444 0.0689097
0.754559 0.137377 0.087068
0.795682 0.150973 0.108186
0.834302 0.165789 0.132921
0.873228 0.185992 0.171588
0.914443 0.207538 0.212589
0.935851 0.28069 0.291646
0.953475 0.362814 0.377157
0.960876 0.438804 0.452155
0.964202 0.511421 0.522148
0.967315 0.573129 0.580591
0.97026 0.627253 0.630915
0.973251 0.673442 0.674403
0.976272 0.710216 0.709789
0.979248 0.743252 0.741726
0.982101 0.767819 0.765911
0.984939 0.79089 0.788495
0.987716 0.808087 0.804837
0.99025 0.823911 0.819837
0.00660716 0.173617 0.0177005
0.00672923 0.174273 0.017731
0.00985733 0.174197 0.0176242
0.0129854 0.174456 0.0175479
0.0200961 0.173281 0.0173037
0.0266575 0.173175 0.0171054
0.086183 0.17084 0.0161288
0.14728 0.168093 0.0151217
0.225788 0.162371 0.0121767
0.319265 0.153185 0.0106661
0.422095 0.143816 0.0176394
0.512963 0.138506 0.0272526
0.59556 0.136461 0.0391699
0.659892 0.140185 0.053315
0.715801 0.145647 0.0679789
0.762554 0.156466 0.0880293
0.803601 0.169146 0.109972
0.842847 0.185153 0.138949
0.882475 0.207019 0.17995
0.924041 0.230091 0.222934
0.940276 0.309728 0.307561
0.95639 0.390372 0.393194
0.961486 0.462684 0.465797
0.96466 0.533272 0.536126
0.967681 0.591104 0.59176
0.970642 0.643854 0.641596
0.973632 0.686763 0.682734
0.976638 0.722744 0.717678
0.979583 0.753384 0.747677
0.982467 0.777478 0.771679
0.98529 0.799008 0.792905
0.988037 0.815702 0.808759
0.99025 0.82919 0.821576
0.00480659 0.227512 0.0202487
0.00508125 0.227924 0.020264
0.00814832 0.228473 0.0202335
0.0112917 0.22855 0.0201877
0.0155032 0.228519 0.0200809
0.0212406 0.227985 0.0199435
0.0634928 0.226368 0.0193332
0.105882 0.224308 0.018677
0.189517 0.223148 0.0144808
0.284627 0.219989 0.0103609
0.399863 0.210422 0.0135042
0.50779 0.200092 0.021622
0.600046 0.19292 0.0343633
0.666926 0.190524 0.0496071
0.724376 0.189822 0.0650034
0.770382 0.196582 0.0868544
0.811917 0.205203 0.110063
0.851301 0.22121 0.143145
0.889891 0.244007 0.185733
0.927581 0.273213 0.234852
0.943053 0.347234 0.321584
0.958679 0.42211 0.409216
0.96199 0.48954 0.480201
0.965087 0.557015 0.550866
0.968078 0.610544 0.603418
0.971038 0.66154 0.652796
0.974029 0.700877 0.691554
0.97705 0.735729 0.726162
0.979965 0.763821 0.754238
0.982818 0.787243 0.777707
0.985626 0.80737 0.797543
0.988373 0.823407 0.812924
0.99025 0.83447 0.823499
0.00259403 0.286961 0.0231632
0.0030518 0.287358 0.0231937
0.00608835 0.287968 0.0232242
0.00914015 0.288518 0.02327
0.0123751 0.288212 0.023209
0.017258 0.288212 0.0231785
0.0359503 0.286381 0.0230564
0.0592813 0.285267 0.0226139
0.154192 0.287327 0.0170901
0.255192 0.289708 0.0115816
0.371939 0.285908 0.0102541
0.490913 0.277989 0.0139315
0.595254 0.267369 0.0272068
0.670573 0.256229 0.0438087
0.731746 0.246876 0.060502
0.778912 0.247654 0.084947
0.820996 0.250156 0.109606
0.859434 0.2663 0.146593
0.896376 0.289815 0.190707
0.929885 0.323018 0.245884
0.94519 0.388235 0.334951
0.959304 0.453254 0.422568
0.962402 0.517266 0.49424
0.965515 0.581598 0.565927
0.968475 0.63064 0.615228
0.97142 0.679744 0.664225
0.974426 0.715404 0.700603
0.977447 0.748791 0.734752
0.980346 0.774716 0.760998
0.9832 0.797604 0.784115
0.985992 0.816098 0.802396
0.988739 0.831495 0.817288
0.99025 0.840055 0.825574
0.00222782 0.354513 0.0301366
0.00283818 0.355474 0.0302434
0.00582895 0.355779 0.0303502
0.00881972 0.356512 0.0304875
0.0118868 0.35642 0.0305028
0.0161135 0.356619 0.0305638
0.026627 0.355123 0.0304875
0.0442817 0.353994 0.0300145
0.11368 0.356115 0.0268254
0.192401 0.35903 0.0227665
0.319951 0.366598 0.0133516
0.447593 0.370581 0.00869764
0.565118 0.362051 0.0187076
0.656947 0.348486 0.0339971
0.726741 0.33312 0.0517891
0.777584 0.327016 0.0772106
0.821302 0.324163 0.102815
0.859937 0.336156 0.142184
0.89662 0.353643 0.186709
0.927382 0.382559 0.246921
0.944915 0.435554 0.340963
0.959655 0.489845 0.431815
0.962768 0.54786 0.505333
0.96585 0.604669 0.575769
0.968841 0.650599 0.62504
0.971817 0.696727 0.674357
0.974853 0.72932 0.708782
0.977874 0.761334 0.742626
0.980758 0.78497 0.76701
0.983612 0.807218 0.789822
0.986389 0.824186 0.806653
0.989136 0.839292 0.821256
0.99025 0.845472 0.827329
0.0021973 0.423774 0.0378576
0.00296025 0.424231 0.0379797
0.00585946 0.425086 0.0382391
0.00877394 0.425391 0.0383917
0.0117189 0.42591 0.0385748
0.0148928 0.426154 0.0387274
0.0187228 0.424933 0.0386358
0.0292821 0.424536 0.0384985
0.0715496 0.425284 0.0376135
0.133227 0.42948 0.033875
0.272007 0.446296 0.0173648
0.405066 0.458244 0.00721752
0.530632 0.455344 0.0124208
0.634745 0.446281 0.0232853
0.71191 0.431037 0.0405127
0.769497 0.418341 0.0652934
0.815702 0.409018 0.0920272
0.855436 0.412802 0.131914
0.892989 0.421958 0.177386
0.923583 0.442817 0.244343
0.944503 0.483192 0.346181
0.959945 0.526207 0.439689
0.963073 0.577478 0.514519
0.966171 0.627054 0.584207
0.969177 0.669627 0.633951
0.972168 0.710857 0.681743
0.975219 0.741863 0.715648
0.978256 0.772915 0.749584
0.98114 0.794781 0.772503
0.984009 0.81651 0.795239
0.98677 0.832166 0.810712
0.989517 0.846845 0.825025
0.99025 0.850797 0.828977
0.00228885 0.489632 0.0505379
0.00321965 0.49012 0.05066
0.00614939 0.491096 0.0509346
0.00907912 0.491524 0.0511025
0.0120241 0.492241 0.0512856
0.0151369 0.492241 0.0513313
0.0186313 0.491997 0.0513313
0.0267796 0.491402 0.0511177
0.0504616 0.491707 0.0506142
0.0947585 0.495323 0.0468757
0.201328 0.511788 0.0332189
0.322179 0.525521 0.0218204
0.472496 0.533562 0.0145724
0.594034 0.534218 0.0160678
0.679438 0.524163 0.0292058
0.748043 0.512047 0.0497292
0.799924 0.500175 0.0759136
0.842878 0.495888 0.113725
0.880583 0.498039 0.159548
0.913787 0.509926 0.229404
0.941588 0.536278 0.338949
0.959731 0.569024 0.436896
0.96318 0.609934 0.516777
0.966476 0.65008 0.587243
0.969482 0.688136 0.638117
0.972503 0.724346 0.685573
0.97554 0.753582 0.719768
0.978592 0.782193 0.753063
0.98146 0.803265 0.775906
0.984344 0.824247 0.798718
0.987121 0.838926 0.81326
0.989883 0.853452 0.827604
0.99025 0.855329 0.829648
0.00239567 0.55079 0.0627298
0.00347906 0.551583 0.0629892
0.00642405 0.552087 0.0632029
0.00939956 0.552895 0.0634928
0.0123598 0.553597 0.0637369
0.0153964 0.553689 0.063798
0.0186007 0.553658 0.0638285
0.0234531 0.553109 0.0636912
0.0325017 0.552575 0.0634623
0.0610666 0.555764 0.0602731
0.138293 0.56994 0.0500343
0.251575 0.585046 0.03682
0.421103 0.601694 0.0184024
0.551629 0.60882 0.0128939
0.646998 0.6038 0.0215763
0.724407 0.596445 0.0367132
0.780346 0.585275 0.0601511
0.827115 0.577371 0.0924544
0.864652 0.573266 0.137407
0.901686 0.574304 0.206088
0.936873 0.587472 0.323674
0.959182 0.607828 0.428
0.96318 0.638773 0.515663
0.96672 0.671 0.589181
0.969757 0.704707 0.641672
0.972778 0.736645 0.688548
0.975845 0.764279 0.723323
0.978882 0.790539 0.755779
0.981781 0.811078 0.778897
0.984634 0.830884 0.801007
0.987411 0.845029 0.81532
0.990204 0.859388 0.829725
0.99025 0.859617 0.830198
0.00263981 0.597574 0.0758831
0.00389105 0.598367 0.0761425
0.00686656 0.598856 0.0764019
0.00985733 0.599649 0.0767376
0.0128481 0.599985 0.076936
0.0159457 0.600504 0.0771801
0.0191501 0.600305 0.0772106
0.0235904 0.600351 0.0772412
0.0304112 0.599802 0.0770123
0.0514229 0.602182 0.0754559
0.100313 0.609766 0.0710765
0.199664 0.624247 0.0563363
0.360113 0.648325 0.0287175
0.492683 0.66038 0.0171359
0.60354 0.661753 0.0192569
0.693065 0.6589 0.0286412
0.754894 0.651728 0.0475319
0.808682 0.644205 0.0725261
0.847501 0.638666 0.11313
0.887861 0.634806 0.170672
0.926207 0.63978 0.285908
0.953414 0.650904 0.396704
0.961166 0.671427 0.499992
0.966842 0.695308 0.583352
0.96994 0.723552 0.639765
0.973022 0.75021 0.688243
0.97612 0.77525 0.72433
0.979141 0.798566 0.756558
0.98204 0.818021 0.780026
0.984909 0.836408 0.801816
0.987686 0.85037 0.816297
0.99025 0.863233 0.829679
0.99025 0.863218 0.829908
0.00289921 0.642298 0.0885328
0.0043183 0.642893 0.0888685
0.00730907 0.643275 0.0891585
0.0103456 0.643885 0.0895552
0.0133669 0.644144 0.0898451
0.0165103 0.644541 0.0901961
0.0197299 0.64445 0.0903182
0.0236057 0.644556 0.0904555
0.0285344 0.644541 0.0904555
0.0411994 0.644968 0.0904707
0.066041 0.646891 0.0908827
0.151736 0.66154 0.0748302
0.29897 0.689723 0.0422827
0.434623 0.705318 0.0261997
0.564782 0.712215 0.0206607
0.663355 0.713756 0.0245518
0.730495 0.709117 0.0388952
0.789868 0.70425 0.0574807
0.82977 0.698833 0.0923629
0.872786 0.692729 0.135546
0.91342 0.691737 0.244938
0.946639 0.693675 0.357671
0.958602 0.703136 0.478569
0.966781 0.717769 0.57435
0.970001 0.739925 0.635477
0.973175 0.762402 0.686824
0.976318 0.785092 0.724544
0.97937 0.806149 0.757137
0.982269 0.824399 0.781018
0.985153 0.841489 0.802365
0.987945 0.855283 0.817121
0.99025 0.866697 0.829358
0.99025 0.866697 0.829587
0.00390631 0.67451 0.10277
0.00546273 0.675135 0.10309
0.00846876 0.675547 0.103349
0.0115053 0.676219 0.103746
0.0145571 0.67657 0.104005
0.0177462 0.677089 0.104311
0.0210422 0.67718 0.104433
0.0249638 0.677516 0.104585
0.0296941 0.677485 0.104494
0.0402686 0.678248 0.104601
0.0582589 0.679698 0.104799
0.124758 0.691127 0.0945602
0.232349 0.711635 0.075639
0.366918 0.728389 0.0559091
0.516365 0.743587 0.0353857
0.62623 0.749828 0.0298466
0.69778 0.748592 0.0377203
0.762646 0.746349 0.0495155
0.807309 0.741573 0.0785382
0.856229 0.736049 0.11075
0.89691 0.734035 0.204303
0.93521 0.732677 0.308003
0.953079 0.736034 0.443626
0.966079 0.743679 0.556756
0.969726 0.759594 0.624247
0.973205 0.776898 0.680781
0.976425 0.796002 0.721309
0.979522 0.814282 0.755306
0.982483 0.831205 0.78056
0.985382 0.846784 0.802029
0.988174 0.860075 0.817136
0.99025 0.869993 0.828458
0.99025 0.869978 0.828717
0.00483711 0.704753 0.116121
0.0065156 0.705135 0.11632
0.00953689 0.705867 0.116686
0.012604 0.706325 0.11693
0.0156863 0.707027 0.117296
0.0188907 0.707393 0.117464
0.0222629 0.707942 0.117678
0.0261845 0.708186 0.117723
0.030808 0.708705 0.117815
0.0388342 0.709453 0.117861
0.0505226 0.71017 0.117739
0.0960555 0.718257 0.114168
0.166445 0.731563 0.108141
0.304967 0.750988 0.0826886
0.473976 0.77377 0.0479591
0.592218 0.783932 0.034287
0.671031 0.784787 0.0365301
0.739544 0.784695 0.043534
0.787915 0.781247 0.0674907
0.841352 0.776364 0.0940108
0.882506 0.773556 0.17145
0.923262 0.770352 0.258152
0.946303 0.768322 0.404608
0.965118 0.768734 0.53579
0.969299 0.778408 0.610254
0.973098 0.790448 0.672938
0.976394 0.80592 0.716411
0.979583 0.821653 0.752773
0.982605 0.837125 0.779263
0.985534 0.851499 0.801251
0.988373 0.864469 0.817014
0.99025 0.87306 0.827497
0.99025 0.87306 0.827741
0.00737011 0.72932 0.136858
0.00921645 0.729671 0.137163
0.0122835 0.730312 0.137758
0.0153506 0.730739 0.138109
0.0184787 0.731395 0.138674
0.0217594 0.731762 0.138933
0.0251926 0.732265 0.139361
0.0291447 0.732555 0.139467
0.0336309 0.733059 0.139757
0.0409094 0.733532 0.139666
0.0507362 0.734432 0.139696
0.0861677 0.74052 0.13756
0.13727 0.749615 0.133898
0.266743 0.769924 0.105043
0.424262 0.794079 0.0664073
0.544381 0.805707 0.0513466
0.638285 0.808972 0.0509804
0.715724 0.810819 0.0554818
0.764828 0.808454 0.0717937
0.818463 0.8056 0.0894942
0.863539 0.803281 0.153903
0.908095 0.800793 0.225681
0.937118 0.797116 0.367376
0.963104 0.794064 0.510414
0.968246 0.798871 0.58999
0.972854 0.805737 0.660761
0.976272 0.817487 0.708446
0.979538 0.829984 0.748074
0.982635 0.843641 0.776318
0.985626 0.856718 0.799466
0.98851 0.869047 0.816052
0.99025 0.876432 0.826185
0.99025 0.876402 0.826474
0.0106966 0.752712 0.16173
0.0126955 0.753307 0.16228
0.0157626 0.753765 0.162676
0.0188754 0.754482 0.163272
0.021973 0.754986 0.163638
0.0252689 0.755627 0.164111
0.0287022 0.755993 0.164279
0.0326238 0.756588 0.164584
0.0370184 0.756954 0.164584
0.0438087 0.757778 0.164599
0.0524453 0.758785 0.164431
0.077409 0.762707 0.162615
0.110338 0.768368 0.160342
0.228931 0.789395 0.127459
0.370748 0.814908 0.0861372
0.493431 0.827482 0.0699931
0.604074 0.833677 0.0670481
0.691173 0.837095 0.0679942
0.742229 0.835874 0.0769818
0.796384 0.834638 0.0861372
0.844373 0.832944 0.139773
0.892454 0.830961 0.198703
0.926955 0.826429 0.33341
0.96025 0.821134 0.481804
0.96672 0.821988 0.565866
0.972473 0.824033 0.644358
0.976013 0.831388 0.696818
0.9794 0.840024 0.741131
0.982589 0.851316 0.771725
0.985626 0.862608 0.79646
0.988586 0.873854 0.814252
0.99025 0.880323 0.824369
0.99025 0.880278 0.82472
0.01561 0.77557 0.197269
0.0179599 0.776486 0.199466
0.0214389 0.777935 0.202991
0.0246586 0.778714 0.204395
0.0278477 0.779416 0.205463
0.0311742 0.779873 0.205859
0.0346838 0.780484 0.206638
0.0386053 0.780911 0.206806
0.0429847 0.781521 0.20734
0.0494087 0.782208 0.207126
0.0572519 0.78323 0.207172
0.0753643 0.786007 0.206317
0.0974136 0.789273 0.204639
0.196857 0.808988 0.176455
0.31162 0.8318 0.14229
0.436896 0.845945 0.120943
0.564233 0.856321 0.103532
0.659663 0.862287 0.0953994
0.716396 0.862409 0.100618
0.776852 0.862348 0.105806
0.824262 0.860807 0.147372
0.872404 0.858946 0.190997
0.911727 0.854505 0.310475
0.950835 0.849104 0.447211
0.963149 0.846922 0.538003
0.972015 0.845304 0.624002
0.975586 0.848051 0.679957
0.979095 0.852735 0.730434
0.982376 0.860777 0.764141
0.985534 0.869688 0.791989
0.988556 0.879591 0.811154
0.99025 0.885145 0.822003
0.99025 0.884993 0.822461
0.0224002 0.793851 0.245274
0.0254978 0.796323 0.252018
0.0297246 0.799786 0.261479
0.0331273 0.801114 0.264347
0.036347 0.801862 0.265278
0.0396429 0.80238 0.265446
0.0431067 0.803067 0.26598
0.0471046 0.803769 0.2663
0.0513161 0.804273 0.266026
0.0576181 0.805234 0.265904
0.0650034 0.806149 0.265141
0.0806439 0.808515 0.264134
0.0988785 0.811261 0.262928
0.171191 0.826902 0.245686
0.250004 0.844388 0.227024
0.37998 0.860914 0.191363
0.52195 0.876738 0.15169
0.625025 0.88571 0.132509
0.690379 0.886778 0.135836
0.759014 0.887846 0.139635
0.804669 0.886244 0.16762
0.850874 0.884413 0.195514
0.894743 0.880064 0.300755
0.939605 0.875059 0.420691
0.957824 0.871519 0.512322
0.970886 0.868208 0.599466
0.975143 0.86775 0.659922
0.978668 0.868315 0.716106
0.98201 0.87303 0.752941
0.98529 0.878965 0.784909
0.988418 0.8869 0.80618
0.99025 0.8916 0.818677
0.99025 0.891432 0.819181
0.0328527 0.814618 0.306859
0.0365301 0.81796 0.316258
0.0412299 0.822278 0.32845
0.0449226 0.823865 0.332235
0.0481727 0.824445 0.332784
0.0517281 0.825223 0.333684
0.0552071 0.825803 0.333791
0.0593729 0.826551 0.334325
0.0635996 0.827115 0.334081
0.0699779 0.828138 0.334249
0.0770275 0.829068 0.333623
0.0911879 0.831144 0.333227
0.106752 0.833417 0.332784
0.160174 0.845594 0.324605
0.215427 0.858518 0.316808
0.349432 0.876173 0.276783
0.495659 0.894423 0.23238
0.599298 0.903883 0.211139
0.671382 0.906126 0.210239
0.745403 0.908248 0.210254
0.792569 0.906584 0.228519
0.839826 0.904799 0.245945
0.882475 0.901091 0.327916
0.925917 0.897108 0.417823
0.948943 0.893385 0.497292
0.968017 0.889693 0.577615
0.974273 0.887343 0.64004
0.97821 0.885084 0.700313
0.981582 0.886778 0.739757
0.984909 0.889403 0.77612
0.988128 0.895003 0.79939
0.99025 0.898711 0.814923
0.99025 0.89836 0.815549
0.0520638 0.841291 0.4009
0.0555581 0.843412 0.406561
0.0594797 0.845594 0.41207
0.0630808 0.846708 0.414313
0.0664225 0.847333 0.414969
0.0700694 0.848142 0.41593
0.0736095 0.848737 0.416129
0.0778058 0.849515 0.41677
0.0820325 0.850095 0.416663
0.0882887 0.851102 0.41709
0.095079 0.851987 0.4168
0.108492 0.853956 0.417075
0.122896 0.856062 0.41735
0.167559 0.865202 0.414267
0.211948 0.874479 0.412024
0.342962 0.891051 0.381201
0.481621 0.908186 0.348516
0.582162 0.917174 0.329824
0.65893 0.920836 0.320699
0.736431 0.924117 0.313191
0.786587 0.922835 0.323827
0.836835 0.921416 0.333623
0.873701 0.918853 0.381491
0.91014 0.916106 0.429953
0.93753 0.912932 0.493263
0.963943 0.909483 0.561456
0.972961 0.906416 0.622141
0.977676 0.903197 0.682277
0.981155 0.902419 0.724941
0.984497 0.902266 0.765286
0.987732 0.905486 0.790463
0.99025 0.907942 0.810162
0.99025 0.9075 0.810864
0.0741894 0.866453 0.487282
0.0779583 0.867384 0.488975
0.0819409 0.868254 0.49041
0.0858625 0.869093 0.4916
0.0893873 0.869734 0.492164
0.0933547 0.870497 0.492851
0.0970779 0.871092 0.492958
0.101518 0.871839 0.49337
0.105821 0.872435 0.493233
0.112337 0.873396 0.493584
0.119081 0.874235 0.493416
0.132372 0.876219 0.493919
0.146288 0.878294 0.494469
0.184146 0.885557 0.494759
0.220722 0.89276 0.495613
0.347417 0.907454 0.471336
0.476417 0.922179 0.446677
0.571649 0.930114 0.429389
0.649836 0.934478 0.416205
0.726802 0.938079 0.405371
0.779873 0.937072 0.409552
0.832151 0.935973 0.413489
0.865812 0.934112 0.436973
0.899611 0.932174 0.45951
0.927962 0.92958 0.506203
0.956176 0.926848 0.557153
0.968673 0.923659 0.611124
0.976516 0.920104 0.667384
0.980728 0.91809 0.710918
0.9841 0.916259 0.752514
0.98732 0.916945 0.780545
0.99025 0.917708 0.80499
0.99025 0.917113 0.805783
0.108186 0.885496 0.542351
0.113832 0.887343 0.54728
0.119524 0.889128 0.552041
0.12343 0.889998 0.553475
0.126833 0.890578 0.554055
0.130602 0.891295 0.554772
0.134051 0.891829 0.554925
0.138384 0.892622 0.555444
0.142504 0.893248 0.555444
0.149065 0.894224 0.555962
0.156161 0.895262 0.556481
0.169467 0.897429 0.556832
0.18407 0.900038 0.557733
0.218082 0.907744 0.558297
0.250675 0.915282 0.559365
0.368795 0.926009 0.537667
0.484657 0.936461 0.516793
0.570382 0.942321 0.503044
0.64416 0.946365 0.492424
0.715984 0.949584 0.484276
0.771115 0.948821 0.483589
0.824338 0.948028 0.483803
0.859327 0.946578 0.495933
0.894301 0.945251 0.508263
0.920027 0.943465 0.535882
0.945251 0.941543 0.564202
0.961044 0.938781 0.607416
0.974334 0.935668 0.655467
0.980255 0.933074 0.697856
0.983719 0.930571 0.739269
0.986938 0.929534 0.769696
0.990143 0.928939 0.797772
0.99025 0.928344 0.799542
0.145754 0.904967 0.596307
0.153658 0.907622 0.603632
0.161166 0.91014 0.610712
0.165698 0.910979 0.611658
0.169574 0.911559 0.612039
0.173999 0.912261 0.612329
0.177859 0.912779 0.612314
0.183108 0.913619 0.612467
0.187228 0.914122 0.612055
0.196063 0.915328 0.612467
0.204776 0.916381 0.612604
0.220081 0.918761 0.612818
0.23769 0.921752 0.613291
0.269154 0.928847 0.613382
0.301671 0.935775 0.613367
