public/textures/LUTs/LOS_ANGELES.CUBE
TITLE "Generated by Resolve"
LUT_3D_SIZE 5
0.00515755 0.0129549 0.00877394
0.231098 0.0239261 0.0162509
0.757382 0.104295 0.0938277
0.965133 0.493843 0.532799
0.988586 0.792203 0.805386
0.00480659 0.227512 0.0202487
0.189517 0.223148 0.0144808
0.811917 0.205203 0.110063
0.968078 0.610544 0.603418
0.99025 0.83447 0.823499
0.00390631 0.67451 0.10277
0.0296941 0.677485 0.104494
0.69778 0.748592 0.0377203
0.969726 0.759594 0.624247
0.99025 0.869978 0.828717
0.0741894 0.866453 0.487282
0.105821 0.872435 0.493233
0.476417 0.922179 0.446677
0.927962 0.92958 0.506203
0.99025 0.917113 0.805783
0.628153 0.983703 0.756054
0.671366 0.986419 0.75555
0.728267 0.98822 0.751873
0.885222 0.988296 0.744366
0.990066 0.988357 0.761822
0.0108644 0.0164034 0.190295
0.225437 0.0180056 0.190524
0.763104 0.0666056 0.16524
0.964279 0.473228 0.561028
0.987778 0.786587 0.826886
0.00633249 0.205188 0.177356
0.18645 0.196872 0.174182
0.805508 0.16286 0.177157
0.966293 0.578363 0.616007
0.989593 0.830793 0.844572
0.00381476 0.674571 0.147143
0.0289769 0.679133 0.148714
0.698177 0.750942 0.0760662
0.969085 0.75581 0.647425
0.99025 0.869383 0.853132
0.0760967 0.869291 0.527169
0.108263 0.875837 0.536461
0.476158 0.923323 0.499748
0.930449 0.93022 0.55285
0.99025 0.916884 0.831556
0.627863 0.983856 0.781201
0.676173 0.986801 0.782803
0.729747 0.988205 0.779126
0.885542 0.988296 0.774151
0.990066 0.988357 0.789517
0.0361334 0.0328069 0.633585
0.174456 0.0244144 0.648173
0.764782 0.0126955 0.639155
0.963546 0.356924 0.693034
0.987762 0.770581 0.849088
0.0209964 0.0847334 0.652354
0.13724 0.0712444 0.666056
0.793942 0.0520485 0.656352
0.965835 0.473701 0.721004
0.988968 0.814023 0.86128
0.00675975 0.670527 0.702419
0.0311742 0.673747 0.709377
0.729107 0.718898 0.70106
0.967025 0.720775 0.739666
0.99025 0.856336 0.869505
0.0745403 0.873213 0.681956
0.105852 0.879072 0.689906
0.477455 0.922789 0.690349
0.933333 0.928542 0.69575
0.99025 0.915068 0.846616
0.623362 0.983825 0.812467
0.669169 0.986389 0.813443
0.73254 0.988205 0.813977
0.886351 0.988296 0.810605
0.990082 0.988373 0.824262
0.0298314 0.0358282 0.834531
0.0750134 0.0359045 0.84062
0.793118 0.00674449 0.848508
0.955413 0.0469215 0.838407
0.987762 0.713848 0.90016
0.0210269 0.0636454 0.846525
0.0624552 0.0629129 0.851469
0.81149 0.0261997 0.857984
0.961074 0.0838941 0.853269
0.988968 0.767483 0.907195
0.00965896 0.578729 0.913375
0.0348669 0.573419 0.916197
0.65658 0.525551 0.924727
0.957244 0.555795 0.92015
0.99025 0.821897 0.91516
0.0411231 0.857664 0.906111
0.0681163 0.861784 0.90959
0.322225 0.900084 0.912688
0.926635 0.913252 0.903273
0.99025 0.906447 0.910582
0.607248 0.982696 0.884871
0.650996 0.985245 0.886549
0.721035 0.988067 0.888411
0.88632 0.988296 0.889296
0.990036 0.988281 0.897322
0.0108186 0.0362554 0.894652
0.03299 0.0366217 0.89604
0.801007 0.00459297 0.906767
0.963058 0.002121 0.903197
0.987686 0.264851 0.942657
0.0108492 0.0619059 0.898741
0.0338903 0.0615854 0.900359
0.771817 0.0266117 0.910613
0.965057 0.0237583 0.908797
0.988968 0.339162 0.956268
0.00984207 0.356268 0.940246
0.0339513 0.353811 0.941176
0.446601 0.157656 0.936278
0.957885 0.126848 0.933516
0.99025 0.573541 0.980484
0.0107118 0.839109 0.986954
0.0360113 0.842329 0.987366
0.114672 0.838209 0.987808
0.912184 0.880323 0.986191
0.990295 0.879942 0.98616
0.490608 0.97615 0.982437
0.547524 0.978927 0.983093
0.651011 0.985061 0.983871
0.878706 0.98819 0.984482
0.989929 0.988052 0.985916
