public/textures/LUTs/MANHATTAN.CUBE
TITLE "Generated by Resolve"
LUT_3D_SIZE 5
0.0204166 0.0222171 0.0377661
0.239826 0.0369116 0.0437629
0.781399 0.0610971 0.0841382
0.976425 0.476783 0.557885
0.990707 0.831586 0.847105
0.0122835 0.230915 0.0475929
0.232013 0.209552 0.044831
0.846418 0.151186 0.1019
0.979843 0.675013 0.682689
0.991989 0.866514 0.865904
0.00578317 0.646082 0.032639
0.0263676 0.64477 0.031632
0.880293 0.806729 0.0423896
0.981338 0.822995 0.731884
0.994385 0.904433 0.884871
0.0408331 0.815595 0.386007
0.0612802 0.825605 0.397848
0.520684 0.915969 0.269795
0.972519 0.930968 0.565011
0.9953 0.933394 0.877501
0.375509 0.978134 0.790967
0.451347 0.985641 0.788464
0.65127 0.993301 0.783871
0.914244 0.991562 0.771817
0.994583 0.981567 0.841337
0.0224308 0.0234226 0.213428
0.231937 0.0303349 0.229831
0.780468 0.0521096 0.203403
0.975967 0.470405 0.632563
0.990539 0.830076 0.865278
0.0122683 0.203983 0.19295
0.164782 0.191501 0.199863
0.804898 0.126116 0.166674
0.97763 0.57586 0.647883
0.989899 0.852171 0.867628
0.00550851 0.64509 0.068513
0.0251164 0.644831 0.0650492
0.845319 0.817517 0.0708782
0.978851 0.813321 0.718135
0.991684 0.890806 0.885817
0.0420539 0.825925 0.463966
0.0604257 0.829755 0.453864
0.321141 0.894163 0.406043
0.962325 0.935592 0.564141
0.993484 0.930571 0.882612
0.360189 0.977066 0.808331
0.43209 0.984848 0.80592
0.642008 0.993332 0.803082
0.895399 0.992233 0.795773
0.993057 0.984344 0.84567
0.034638 0.00802625 0.65388
0.15935 0.00756847 0.681254
0.77174 0.010605 0.730114
0.955077 0.254459 0.795743
0.990585 0.81326 0.883299
0.0190738 0.0647288 0.648539
0.0792554 0.0478981 0.673594
0.775097 0.0403143 0.734905
0.966506 0.372335 0.809903
0.990051 0.837705 0.885878
0.00852979 0.680751 0.78027
0.0264134 0.676829 0.788083
0.777447 0.806287 0.808103
0.96994 0.793408 0.815396
0.989639 0.869184 0.884565
0.0385901 0.840482 0.748012
0.0568856 0.845197 0.748577
0.285695 0.900786 0.747936
0.941985 0.937209 0.773831
0.99147 0.927077 0.880446
0.33785 0.973571 0.835615
0.400641 0.982574 0.834546
0.633844 0.993271 0.833906
0.88069 0.992584 0.8318
0.988907 0.986603 0.858625
0.0310369 0.00616464 0.813184
0.0740673 0.005066 0.826719
0.793805 0.0041352 0.899229
0.920211 0.0298009 0.904677
0.991257 0.722194 0.939712
0.0216983 0.0315557 0.812894
0.0437629 0.0275273 0.824857
0.785855 0.0232242 0.901381
0.926604 0.0573892 0.915068
0.990631 0.774899 0.939742
0.0096437 0.618662 0.939818
0.0263981 0.598413 0.94519
0.565316 0.601419 0.951736
0.95671 0.563806 0.951843
0.990036 0.827558 0.941955
0.0232242 0.826444 0.930541
0.0403143 0.829816 0.933013
0.205234 0.866926 0.934249
0.921416 0.92694 0.93106
0.989288 0.920134 0.930755
0.306889 0.962509 0.911971
0.327443 0.968353 0.912718
0.558816 0.991562 0.913039
0.877562 0.990768 0.91194
0.983581 0.985992 0.920333
0.0163272 0.00482185 0.86247
0.0339971 0.0037995 0.863828
0.838865 0.00363165 0.940993
0.933577 0.004654 0.947356
0.962249 0.133501 0.965957
0.0152438 0.0239109 0.865827
0.0288701 0.0229801 0.866896
0.82771 0.0213931 0.943145
0.936141 0.0225528 0.951995
0.965911 0.169238 0.973968
0.0112459 0.451133 0.959365
0.0261997 0.395544 0.948852
0.15082 0.241962 0.936477
0.929656 0.146807 0.976272
0.987823 0.431968 0.994018
0.0145418 0.810712 0.990173
0.0299077 0.812177 0.991455
0.0689097 0.814466 0.993545
0.896941 0.904387 0.993774
0.98851 0.895933 0.993408
0.174731 0.933822 0.986389
0.211719 0.935668 0.987076
0.32871 0.95761 0.988128
0.866361 0.98555 0.987243
0.976928 0.981552 0.986465
