public/textures/LUTs/MANHATTAN.CUBE
TITLE "Generated by Resolve"
LUT_3D_SIZE 9
0.0204166 0.0222171 0.0377661
0.0709544 0.0239719 0.0395514
0.239826 0.0369116 0.0437629
0.558099 0.0415045 0.0441444
0.781399 0.0610971 0.0841382
0.893523 0.126101 0.222507
0.976425 0.476783 0.557885
0.984573 0.756191 0.786389
0.990707 0.831586 0.847105
0.0207218 0.0708171 0.0397955
0.0683452 0.0649729 0.0406348
0.269276 0.0611124 0.0433661
0.597253 0.0540169 0.0452735
0.79968 0.077348 0.0913252
0.910155 0.177371 0.261494
0.978256 0.546975 0.598215
0.984787 0.78175 0.797269
0.990784 0.842863 0.850141
0.0122835 0.230915 0.0475929
0.0218509 0.227314 0.0474403
0.232013 0.209552 0.044831
0.676875 0.152102 0.0390631
0.846418 0.151186 0.1019
0.94786 0.354467 0.356512
0.979843 0.675013 0.682689
0.985855 0.813428 0.817472
0.991989 0.866514 0.865904
0.00634775 0.4822 0.0326085
0.0150454 0.479835 0.0328222
0.0608988 0.470405 0.0321202
0.700038 0.535515 0.019379
0.913787 0.480995 0.0862745
0.969284 0.596445 0.411337
0.980957 0.77174 0.740139
0.986984 0.843412 0.835386
0.993133 0.88809 0.878386
0.00578317 0.646082 0.032639
0.0145113 0.645502 0.0322423
0.0263676 0.64477 0.031632
0.342336 0.728954 0.0264439
0.880293 0.806729 0.0423896
0.966278 0.785519 0.331411
0.981338 0.822995 0.731884
0.987884 0.867185 0.842512
0.994385 0.904433 0.884871
0.0146181 0.737011 0.127687
0.0232853 0.738445 0.125109
0.0345312 0.740429 0.121004
0.0775769 0.750469 0.105531
0.764141 0.895888 0.0565957
0.939773 0.886656 0.146792
0.980941 0.876844 0.670512
0.988251 0.891463 0.83653
0.995026 0.91783 0.883696
0.0408331 0.815595 0.386007
0.0507973 0.823407 0.40354
0.0612802 0.825605 0.397848
0.0851911 0.831006 0.387137
0.520684 0.915969 0.269795
0.891127 0.943282 0.200595
0.972519 0.930968 0.565011
0.98819 0.923247 0.817411
0.9953 0.933394 0.877501
0.108263 0.891218 0.673472
0.120699 0.897124 0.683497
0.129641 0.900252 0.679271
0.151019 0.90959 0.674601
0.406378 0.957366 0.653193
0.847242 0.97499 0.597162
0.940719 0.969512 0.62327
0.985748 0.960098 0.781598
0.995163 0.955871 0.863279
0.375509 0.978134 0.790967
0.408301 0.981918 0.789822
0.451347 0.985641 0.788464
0.519677 0.99057 0.786664
0.65127 0.993301 0.783871
0.823545 0.99263 0.777234
0.914244 0.991562 0.771817
0.970199 0.988876 0.78201
0.994583 0.981567 0.841337
0.0212863 0.0233616 0.0742046
0.06981 0.0243229 0.0789654
0.239063 0.0355535 0.0736553
0.555734 0.0394751 0.0635996
0.780865 0.0597391 0.0988479
0.893172 0.124407 0.255634
0.976638 0.481697 0.5906
0.984482 0.753918 0.796719
0.9906 0.830991 0.856214
0.0211337 0.0657054 0.0707408
0.05832 0.0621958 0.07187
0.232151 0.056733 0.0651408
0.555428 0.0552224 0.0592355
0.782406 0.0707713 0.0944533
0.895994 0.141955 0.248981
0.977218 0.501961 0.583566
0.9841 0.761822 0.790722
0.990326 0.839231 0.855558
0.0125124 0.226902 0.053666
0.0215457 0.224094 0.0531472
0.202014 0.212009 0.0532998
0.628794 0.168185 0.0505837
0.825772 0.151171 0.101625
0.935729 0.290135 0.315541
0.978576 0.62031 0.65153
0.984588 0.801587 0.814099
0.990585 0.857359 0.86424
0.00636301 0.480659 0.0383764
0.0147555 0.47837 0.0383307
0.0513313 0.474861 0.0373999
0.6309 0.537758 0.0270085
0.900206 0.493477 0.088838
0.963668 0.57145 0.359335
0.979568 0.748196 0.719615
0.98558 0.831678 0.831113
0.991791 0.880156 0.878431
0.00572213 0.64596 0.041825
0.0141146 0.645594 0.04094
0.0259709 0.645136 0.0401617
0.25951 0.70808 0.0359808
0.863035 0.812589 0.0476081
0.960311 0.791806 0.305913
0.980316 0.818097 0.728588
0.98674 0.859983 0.840742
0.993118 0.898787 0.887098
0.0146181 0.737896 0.145815
0.0229648 0.739544 0.143267
0.0342718 0.741375 0.13933
0.0712291 0.750759 0.128985
0.713726 0.891539 0.0683757
0.929625 0.890242 0.143694
0.97998 0.87808 0.659617
0.987274 0.889494 0.834424
0.994018 0.914351 0.886946
0.0425727 0.823514 0.429694
0.0503853 0.824979 0.424125
0.0610513 0.827329 0.418936
0.0843824 0.832792 0.409689
0.400778 0.901579 0.333074
0.879393 0.944976 0.230518
0.968795 0.933211 0.557031
0.987366 0.924361 0.814267
0.994385 0.93196 0.880476
0.112779 0.895384 0.703517
0.120226 0.897642 0.70016
0.129641 0.901106 0.696712
0.150256 0.909957 0.691295
0.351553 0.954391 0.679164
0.832654 0.976211 0.632547
0.933577 0.971023 0.643076
0.982696 0.961913 0.779141
0.994369 0.956283 0.866087
0.370794 0.978027 0.79942
0.403235 0.981903 0.798123
0.44596 0.985733 0.796658
0.514443 0.990692 0.794842
0.645197 0.993362 0.79292
0.813245 0.992844 0.78822
0.905196 0.991897 0.783215
0.965286 0.989456 0.791272
0.99382 0.982971 0.843229
0.0224308 0.0234226 0.213428
0.0563058 0.0233768 0.227924
0.231937 0.0303349 0.229831
0.552529 0.0238346 0.201312
0.780468 0.0521096 0.203403
0.893553 0.116762 0.351308
0.975967 0.470405 0.632563
0.984405 0.750393 0.80795
0.990539 0.830076 0.865278
0.0200656 0.0405432 0.201404
0.0403906 0.0372778 0.216983
0.224094 0.0419623 0.223514
0.54992 0.0367132 0.192279
0.783261 0.0633097 0.194842
0.896605 0.131991 0.346899
0.97702 0.49778 0.632242
0.984161 0.763043 0.806668
0.990265 0.8383 0.86479
0.0122683 0.203983 0.19295
0.0210269 0.199512 0.197299
0.164782 0.191501 0.199863
0.568978 0.156909 0.162631
0.804898 0.126116 0.166674
0.921599 0.241901 0.349874
0.97763 0.57586 0.647883
0.983917 0.786877 0.813031
0.989899 0.852171 0.867628
0.00637827 0.473854 0.107271
0.0146792 0.471 0.108339
0.0471809 0.468971 0.104417
0.557534 0.529168 0.0877546
0.88246 0.493935 0.132967
0.956359 0.53843 0.362478
0.97821 0.715328 0.696864
0.984405 0.820935 0.828809
0.990509 0.871794 0.877775
0.00550851 0.64509 0.068513
0.0137636 0.644297 0.067277
0.0251164 0.644831 0.0650492
0.203494 0.693614 0.0613565
0.845319 0.817517 0.0708782
0.95317 0.794324 0.285359
0.978851 0.813321 0.718135
0.985412 0.851072 0.836561
0.991684 0.890806 0.885817
0.0144503 0.739483 0.179812
0.0227054 0.741146 0.177646
0.0338293 0.743648 0.17435
0.0691386 0.752499 0.167041
0.648585 0.884337 0.0907301
0.919264 0.894011 0.165881
0.978927 0.879133 0.661997
0.986267 0.88748 0.831998
0.99295 0.910185 0.889021
0.0420539 0.825925 0.463966
0.0498207 0.827451 0.459251
0.0604257 0.829755 0.453864
0.0836805 0.836072 0.449668
0.321141 0.894163 0.406043
0.867338 0.946761 0.291783
0.962325 0.935592 0.564141
0.98645 0.925948 0.812757
0.993484 0.930571 0.882612
0.110964 0.895354 0.721813
0.118456 0.897658 0.719203
0.129259 0.9019 0.717464
0.150164 0.911101 0.714015
0.327688 0.95375 0.70573
0.81709 0.977646 0.676493
0.925032 0.972183 0.676127
0.979568 0.963745 0.783169
0.993622 0.957046 0.868574
0.360189 0.977066 0.808331
0.390265 0.980865 0.807172
0.43209 0.984848 0.80592
0.514412 0.990982 0.805249
0.642008 0.993332 0.803082
0.804303 0.992996 0.800214
0.895399 0.992233 0.795773
0.960586 0.98999 0.801144
0.993057 0.984344 0.84567
0.0273136 0.0100099 0.453529
0.0465248 0.00961318 0.479026
0.203235 0.00921645 0.489815
0.545693 0.00988785 0.502617
0.78175 0.0320439 0.500969
0.892302 0.0906996 0.546151
0.968963 0.406699 0.705165
0.98439 0.734112 0.822507
0.990524 0.825269 0.872892
0.022797 0.0213474 0.437064
0.0367132 0.0201267 0.460334
0.192721 0.0183871 0.484688
0.540017 0.0194553 0.495796
0.782971 0.042359 0.493904
0.894636 0.102144 0.543603
0.972915 0.440482 0.705547
0.984161 0.748486 0.821683
0.990234 0.833799 0.872526
0.0144198 0.139651 0.44509
0.0231785 0.129 0.45626
0.114443 0.109865 0.479164
0.533837 0.0814069 0.498482
0.796872 0.0814069 0.494301
0.909957 0.166384 0.556252
0.976959 0.530968 0.722881
0.983932 0.776013 0.826688
0.990005 0.848722 0.8766
0.00860609 0.466377 0.46978
0.0168765 0.459709 0.477363
0.0435645 0.451362 0.483925
0.443976 0.488365 0.497169
0.847028 0.459083 0.465812
0.943801 0.497276 0.55201
0.976684 0.674052 0.72781
0.983566 0.8047 0.827878
0.989715 0.863493 0.878813
0.00662242 0.662608 0.363897
0.0148318 0.662303 0.36846
0.0254978 0.662425 0.366049
0.160708 0.701549 0.349004
0.821408 0.817349 0.350347
0.941131 0.795056 0.517937
0.975586 0.807828 0.72665
0.984176 0.840101 0.833051
0.990494 0.881056 0.883406
0.014313 0.754879 0.370016
0.0224765 0.756008 0.368917
0.0335241 0.758495 0.36672
0.066392 0.767086 0.359792
0.553216 0.877455 0.297414
0.907759 0.895247 0.362997
0.973373 0.880537 0.688014
0.985168 0.884199 0.828611
0.991638 0.903716 0.884672
0.0411688 0.833097 0.564248
0.0489204 0.83476 0.561212
0.0598459 0.837919 0.559533
0.082887 0.844404 0.556878
0.303075 0.898238 0.541436
0.853651 0.947875 0.485801
0.952667 0.93727 0.629801
0.985443 0.927214 0.811765
0.992554 0.928771 0.881285
0.108171 0.895109 0.74699
0.115419 0.897322 0.744595
0.126711 0.901701 0.743725
0.149676 0.912245 0.743008
0.312947 0.953582 0.738613
0.794873 0.978256 0.72607
0.915953 0.973281 0.725185
0.976135 0.965591 0.791501
0.992859 0.95787 0.86836
0.346014 0.975479 0.818463
0.375387 0.979263 0.817517
0.425711 0.984756 0.817212
0.509453 0.990921 0.816846
0.639536 0.993317 0.81529
0.800626 0.992981 0.812772
0.885954 0.992523 0.810407
0.955795 0.990524 0.81384
0.991547 0.985595 0.848859
0.034638 0.00802625 0.65388
0.0473335 0.00782788 0.669734
0.15935 0.00756847 0.681254
0.53521 0.00642405 0.718929
0.77174 0.010605 0.730114
0.884489 0.0503395 0.737362
0.955077 0.254459 0.795743
0.984543 0.674388 0.850568
0.990585 0.81326 0.883299
0.0313573 0.0186618 0.643153
0.0410163 0.0178378 0.659495
0.145418 0.0163272 0.679271
0.525734 0.0152438 0.716152
0.770932 0.0195468 0.728023
0.886839 0.0607156 0.737926
0.956603 0.278202 0.795361
0.984283 0.696239 0.84918
0.990326 0.822293 0.882612
0.0190738 0.0647288 0.648539
0.0275731 0.0582742 0.65893
0.0792554 0.0478981 0.673594
0.489723 0.0375219 0.717632
0.775097 0.0403143 0.734905
0.896193 0.0862593 0.751064
0.966506 0.372335 0.809903
0.984054 0.738827 0.851865
0.990051 0.837705 0.885878
0.0120089 0.39234 0.732631
0.0196536 0.378515 0.736599
0.0391699 0.352544 0.742397
0.317128 0.347402 0.775235
0.809888 0.302007 0.792386
0.921874 0.332021 0.795407
0.974548 0.573037 0.827115
0.98378 0.781216 0.853284
0.989868 0.853544 0.888457
0.00852979 0.680751 0.78027
0.016495 0.678172 0.784268
0.0264134 0.676829 0.788083
0.111971 0.702968 0.798016
0.777447 0.806287 0.808103
0.919326 0.788708 0.800366
0.96994 0.793408 0.815396
0.983352 0.826154 0.846464
0.989639 0.869184 0.884565
0.0137636 0.777539 0.741054
0.0218204 0.778256 0.744152
0.0324559 0.780468 0.746181
0.0618296 0.787243 0.747906
0.425711 0.882322 0.750027
0.894255 0.89221 0.759304
0.963684 0.878538 0.803281
0.983795 0.878996 0.841413
0.990402 0.895491 0.884077
0.0385901 0.840482 0.748012
0.0461433 0.84213 0.748531
0.0568856 0.845197 0.748577
0.0793622 0.851972 0.748287
0.285695 0.900786 0.747936
0.828916 0.946746 0.742596
0.941985 0.937209 0.773831
0.983856 0.927337 0.830854
0.99147 0.927077 0.880446
0.103273 0.894392 0.791928
0.110262 0.896406 0.790982
0.121538 0.900542 0.790555
0.144701 0.910857 0.790051
0.300572 0.95227 0.78883
0.787121 0.977584 0.786831
0.905638 0.973754 0.7897
0.971878 0.966766 0.815991
0.991974 0.958923 0.870222
0.33785 0.973571 0.835615
0.356039 0.976913 0.834791
0.400641 0.982574 0.834546
0.487373 0.9897 0.834257
0.633844 0.993271 0.833906
0.798917 0.992935 0.832532
0.88069 0.992584 0.8318
0.950881 0.990738 0.833967
0.988907 0.986603 0.858625
0.035584 0.00735485 0.753048
0.0445869 0.00688182 0.765332
0.117845 0.00628672 0.774273
0.524681 0.00610361 0.821424
0.777234 0.00514229 0.840299
0.86598 0.0138552 0.841611
0.938674 0.107164 0.865507
0.982376 0.534752 0.895949
0.990814 0.790021 0.90573
0.033753 0.0175479 0.748714
0.0404974 0.016846 0.757855
0.101366 0.0151675 0.772702
0.512016 0.014786 0.818982
0.775479 0.0137331 0.839109
0.867247 0.0234989 0.84181
0.942061 0.129 0.867933
0.982574 0.562005 0.895354
0.990524 0.801373 0.904494
0.0224002 0.0414893 0.75227
0.0293736 0.0393225 0.759045
0.0580453 0.0348974 0.768215
0.444099 0.0300603 0.815732
0.771176 0.0276036 0.842054
0.873503 0.0395209 0.849561
0.949767 0.179232 0.877577
0.984024 0.628412 0.897841
0.99025 0.818326 0.906554
0.0142672 0.29099 0.819699
0.0212253 0.273167 0.819577
0.0370336 0.240299 0.817197
0.196933 0.186175 0.826322
0.769833 0.131868 0.871061
0.88838 0.131899 0.877501
0.961669 0.338445 0.895094
0.9841 0.710201 0.899428
0.990005 0.835508 0.908675
0.0091249 0.656062 0.889143
0.016434 0.653071 0.890684
0.0267796 0.646906 0.893416
0.0786603 0.647593 0.896941
0.708492 0.743099 0.901534
0.906676 0.716228 0.901961
0.96434 0.734585 0.897169
0.983413 0.798993 0.896376
0.989776 0.853742 0.907408
0.0110475 0.768917 0.88101
0.0188602 0.769009 0.882963
0.0287175 0.770016 0.885374
0.0503548 0.773037 0.887083
0.365042 0.859556 0.886641
0.876158 0.882307 0.885634
0.949233 0.87422 0.881743
0.981399 0.872312 0.885451
0.989471 0.88658 0.899748
0.0314488 0.835401 0.863447
0.038941 0.836988 0.864713
0.0491798 0.839658 0.866087
0.069276 0.845411 0.866865
0.258274 0.887953 0.865904
0.817975 0.9411 0.86331
0.931533 0.9337 0.86836
0.980804 0.925002 0.881056
0.990188 0.924712 0.898009
0.0925612 0.889982 0.856229
0.0994736 0.891554 0.856565
0.110323 0.894942 0.85684
0.132692 0.903944 0.857023
0.280766 0.944701 0.856031
0.777523 0.97525 0.854063
0.897566 0.972259 0.856138
0.967102 0.966003 0.86685
0.990951 0.959014 0.892195
0.32784 0.96994 0.868528
0.336095 0.972671 0.868193
0.363607 0.977798 0.867994
0.442054 0.98677 0.867872
0.611337 0.993164 0.867475
0.794293 0.992813 0.866743
0.879499 0.992111 0.867033
0.944732 0.990494 0.869215
0.986297 0.986786 0.883146
0.0310369 0.00616464 0.813184
0.0370336 0.00541695 0.82121
0.0740673 0.005066 0.826719
0.476158 0.00547799 0.872129
0.793805 0.0041352 0.899229
0.874647 0.00579843 0.901381
0.920211 0.0298009 0.904677
0.971756 0.270466 0.936721
0.991257 0.722194 0.939712
0.0302892 0.016022 0.810803
0.0350195 0.0153658 0.817365
0.063508 0.0139467 0.826108
0.459342 0.0139467 0.870451
0.791806 0.0125734 0.899107
0.87425 0.014374 0.901549
0.921614 0.0389868 0.906767
0.973587 0.307057 0.937072
0.990936 0.742199 0.938567
0.0216983 0.0315557 0.812894
0.0274357 0.0298466 0.818631
0.0437629 0.0275273 0.824857
0.348089 0.0249332 0.861128
0.785855 0.0232242 0.901381
0.875532 0.0260777 0.905699
0.926604 0.0573892 0.915068
0.977646 0.381216 0.940826
0.990631 0.774899 0.939742
0.0149996 0.153475 0.844175
0.0208743 0.135637 0.84332
0.0320287 0.112505 0.842344
0.106218 0.0844739 0.845029
0.746502 0.0604868 0.909834
0.875395 0.0601053 0.917815
0.935882 0.121965 0.931136
0.981323 0.496818 0.945418
0.990372 0.80238 0.941619
0.0096437 0.618662 0.939818
0.0162661 0.611688 0.942275
0.0263981 0.598413 0.94519
0.0554665 0.569909 0.944945
0.565316 0.601419 0.951736
0.897032 0.531472 0.953872
0.95671 0.563806 0.951843
0.983093 0.713436 0.945922
0.990036 0.827558 0.941955
0.0105898 0.758221 0.937758
0.0178683 0.757748 0.938811
0.0275578 0.75819 0.939956
0.0443275 0.758221 0.941222
0.220523 0.807813 0.94197
0.850645 0.865278 0.942733
0.941924 0.855253 0.94226
0.979675 0.854902 0.938888
0.989548 0.870985 0.938338
0.0232242 0.826444 0.930541
0.0303807 0.827314 0.931762
0.0403143 0.829816 0.933013
0.0570687 0.833539 0.934203
0.205234 0.866926 0.934249
0.798718 0.932036 0.932082
0.921416 0.92694 0.93106
0.972137 0.92163 0.929381
0.989288 0.920134 0.930755
0.0755016 0.882429 0.917891
0.0822766 0.883696 0.918868
0.0923629 0.886259 0.919768
0.111696 0.892454 0.920531
0.237995 0.928252 0.920348
0.757031 0.97081 0.918746
0.894987 0.968154 0.917769
0.961089 0.963302 0.921263
0.989288 0.957412 0.929503
0.306889 0.962509 0.911971
0.315877 0.964523 0.912291
0.327443 0.968353 0.912718
0.372488 0.977447 0.912932
0.558816 0.991562 0.913039
0.784482 0.991821 0.912398
0.877562 0.990768 0.91194
0.939712 0.989334 0.913481
0.983581 0.985992 0.920333
0.0230411 0.00512703 0.85124
0.0277104 0.00425727 0.85536
0.046479 0.00408942 0.858457
0.356558 0.0039826 0.89041
0.819348 0.00363165 0.9346
0.892042 0.00430304 0.93875
0.924071 0.00770581 0.940124
0.946593 0.0357519 0.945296
0.992004 0.50985 0.97499
0.0229648 0.0148165 0.85124
0.0266117 0.0142977 0.854139
0.0417487 0.0131228 0.858457
0.320806 0.0124819 0.887327
0.817395 0.0120394 0.934844
0.891722 0.0127718 0.939544
0.924666 0.0164645 0.941207
0.949172 0.0523842 0.949264
0.99176 0.534371 0.974121
0.0183261 0.0253758 0.853895
0.0227665 0.0247501 0.855955
0.0342565 0.0237583 0.858534
0.180941 0.0223239 0.874601
0.814618 0.0214847 0.936385
0.892668 0.0223087 0.941924
0.927001 0.0273594 0.945373
0.953567 0.077348 0.956573
0.991531 0.596445 0.974914
0.0143587 0.0828717 0.865553
0.0195315 0.0771038 0.866209
0.0293126 0.0683452 0.866911
0.0528115 0.0542916 0.867323
0.742763 0.0397498 0.937362
0.879957 0.0402228 0.947463
0.927459 0.050309 0.954543
0.960174 0.133806 0.968383
0.99118 0.671595 0.976226
0.0102083 0.557031 0.966934
0.0162966 0.54313 0.966506
0.0261234 0.517342 0.963714
0.0392157 0.442786 0.950271
0.368521 0.385763 0.965087
0.870466 0.279637 0.97641
0.940597 0.310597 0.980972
0.980835 0.446418 0.9832
0.990662 0.76347 0.976852
0.0102846 0.7467 0.971817
0.0167086 0.746029 0.972946
0.0260471 0.745022 0.974594
0.0385443 0.74168 0.976303
0.110842 0.751247 0.977584
0.801312 0.843305 0.978576
0.936767 0.821286 0.979782
0.977249 0.825284 0.978378
0.98967 0.847883 0.974441
0.018204 0.817914 0.968627
0.0251164 0.818494 0.969207
0.0347295 0.820462 0.970047
0.0483711 0.822965 0.970947
0.107454 0.838071 0.971466
0.68893 0.919356 0.970733
0.910246 0.916762 0.971649
0.967102 0.911162 0.971618
0.98909 0.909865 0.969253
0.053666 0.872709 0.963561
0.0602121 0.87396 0.964446
0.0696574 0.876188 0.965499
0.0854047 0.880156 0.966628
0.160098 0.90457 0.966995
0.699138 0.963302 0.965499
0.890425 0.962371 0.964675
0.954238 0.959213 0.964523
0.98613 0.955856 0.962737
0.260655 0.949355 0.954681
0.270436 0.949844 0.955306
0.288411 0.952804 0.956039
0.314687 0.960082 0.956771
0.445426 0.981598 0.957031
0.761151 0.989761 0.956619
0.874144 0.988495 0.955947
0.938247 0.987121 0.955688
0.980529 0.984222 0.958099
0.0163272 0.00482185 0.86247
0.0208743 0.00408942 0.863096
0.0339971 0.0037995 0.863828
0.140856 0.00430304 0.874662
0.838865 0.00363165 0.940993
0.913756 0.0043183 0.945602
0.933577 0.004654 0.947356
0.942946 0.00962844 0.949355
0.962249 0.133501 0.965957
0.0165866 0.014435 0.863966
0.0197452 0.0140078 0.864485
0.0312505 0.0130159 0.865217
0.113268 0.0127718 0.873137
0.836332 0.0120699 0.941924
0.913695 0.0127718 0.947311
0.934432 0.013138 0.949248
0.944045 0.0185092 0.95169
0.963577 0.144884 0.969024
0.0152438 0.0239109 0.865827
0.0191043 0.0235294 0.866285
0.0288701 0.0229801 0.866896
0.0516823 0.0220951 0.868559
0.82771 0.0213931 0.943145
0.915892 0.0221256 0.949966
0.936141 0.0225528 0.951995
0.946151 0.0292363 0.955795
0.965911 0.169238 0.973968
0.0141909 0.0473182 0.8719
0.0187076 0.0432136 0.87129
0.0283055 0.0379339 0.870558
0.0391394 0.0335546 0.870405
0.717464 0.0312505 0.938369
0.907652 0.0317388 0.953338
0.935012 0.0342718 0.956878
0.949966 0.0473793 0.963531
0.971801 0.22295 0.983368
0.0112459 0.451133 0.959365
0.0166629 0.426703 0.954925
0.0261997 0.395544 0.948852
0.0359808 0.341283 0.939147
0.15082 0.241962 0.936477
0.848661 0.150561 0.970336
0.929656 0.146807 0.976272
0.964614 0.203769 0.98555
0.987823 0.431968 0.994018
0.00944533 0.741436 0.991836
0.0152285 0.740475 0.992462
0.024445 0.739712 0.99321
0.033753 0.733608 0.993973
0.0654765 0.712657 0.994965
0.648478 0.805615 0.995193
0.931548 0.754208 0.995636
0.975708 0.762264 0.995712
0.990204 0.795422 0.995193
0.0145418 0.810712 0.990173
0.0207523 0.811078 0.990692
0.0299077 0.812177 0.991455
0.0405737 0.811856 0.992462
0.0689097 0.814466 0.993545
0.529198 0.886015 0.993942
0.896941 0.904387 0.993774
0.963714 0.895796 0.993912
0.98851 0.895933 0.993408
0.0365911 0.863996 0.989425
0.0430457 0.86508 0.989807
0.0522164 0.867094 0.990341
0.0652171 0.870451 0.990967
0.10016 0.88014 0.991547
0.552651 0.945495 0.991592
0.873671 0.957061 0.99086
0.946181 0.952956 0.990921
0.984054 0.949401 0.990555
0.174731 0.933822 0.986389
0.1906 0.934325 0.986786
0.211719 0.935668 0.987076
0.244404 0.939925 0.987793
0.32871 0.95761 0.988128
0.70779 0.985992 0.987549
0.866361 0.98555 0.987243
0.935592 0.983551 0.98674
0.976928 0.981552 0.986465
