public/textures/LUTs/MANHATTAN.CUBE
TITLE "Generated by Resolve"
LUT_3D_SIZE 33
0.0204166 0.0222171 0.0377661
0.0219577 0.0222171 0.0377966
0.0247654 0.0222171 0.0378271
0.041413 0.0228122 0.0384222
0.0709544 0.0239719 0.0395514
0.103548 0.025452 0.0407416
0.138415 0.0273136 0.0419776
0.182467 0.0307469 0.0430762
0.239826 0.0369116 0.0437629
0.306294 0.0423743 0.0437476
0.391455 0.0441901 0.0411688
0.476387 0.0455634 0.0391699
0.558099 0.0415045 0.0441444
0.635645 0.0376593 0.0488441
0.689387 0.0431525 0.0582132
0.739574 0.0504158 0.0685588
0.781399 0.0610971 0.0841382
0.81413 0.0723735 0.100694
0.842054 0.08542 0.125444
0.867063 0.105196 0.17261
0.893523 0.126101 0.222507
0.919219 0.202029 0.300832
0.947982 0.29337 0.391867
0.973968 0.3935 0.488502
0.976425 0.476783 0.557885
0.979385 0.577508 0.641794
0.981338 0.643946 0.696452
0.982864 0.697276 0.739162
0.984573 0.756191 0.786389
0.986099 0.781659 0.8065
0.987472 0.798795 0.819928
0.989166 0.819394 0.836225
0.990707 0.831586 0.847105
0.0204013 0.023682 0.0378271
0.0221256 0.0235752 0.0378424
0.0250248 0.0235142 0.0378729
0.0439765 0.0242924 0.0385748
0.0731365 0.0255283 0.0396735
0.105364 0.0272221 0.0408179
0.140139 0.0293431 0.0419928
0.18349 0.0330053 0.0429847
0.241443 0.0392462 0.0436561
0.305409 0.0445258 0.0436103
0.390188 0.0463417 0.0410163
0.474815 0.0478676 0.0388037
0.555901 0.0437018 0.0437476
0.636301 0.0395819 0.0486458
0.690532 0.0450904 0.0581369
0.739879 0.0521859 0.0683452
0.780072 0.062211 0.0830091
0.812818 0.0735027 0.0996109
0.842832 0.0873274 0.125505
0.867872 0.107378 0.172869
0.892409 0.127016 0.219318
0.91989 0.2056 0.301534
0.94844 0.29836 0.392859
0.973999 0.391012 0.48249
0.976593 0.482628 0.558984
0.979187 0.574289 0.635508
0.981323 0.648966 0.697246
0.982849 0.701518 0.739742
0.98439 0.754009 0.782223
0.985901 0.782254 0.804974
0.987442 0.801129 0.820111
0.988952 0.819806 0.835096
0.990478 0.831846 0.845869
0.0203861 0.0263981 0.0379034
0.0218204 0.0263676 0.0379187
0.0248875 0.0261997 0.0379644
0.0474861 0.0271305 0.0387884
0.0766613 0.0285191 0.0398871
0.109483 0.0306706 0.0409705
0.144991 0.0331884 0.0420539
0.193027 0.037705 0.0429084
0.251652 0.0439765 0.0435492
0.320317 0.0484169 0.0428626
0.404913 0.0502327 0.040238
0.488106 0.0507668 0.0391699
0.567941 0.0464179 0.0440833
0.647089 0.0420996 0.0489357
0.696834 0.0487984 0.0589761
0.745815 0.0558175 0.0691386
0.783948 0.066041 0.0842451
0.816403 0.0771954 0.100771
0.845747 0.0916915 0.128801
0.870771 0.112078 0.17644
0.895094 0.131899 0.222736
0.922377 0.216037 0.307424
0.950637 0.310796 0.399191
0.974517 0.404028 0.487556
0.976944 0.495125 0.563836
0.979339 0.585245 0.639338
0.981353 0.658351 0.70016
0.982879 0.709133 0.741863
0.98439 0.759976 0.783581
0.985916 0.786664 0.805615
0.987442 0.804791 0.820691
0.988952 0.822599 0.835508
0.990478 0.834607 0.846281
0.0204929 0.0421149 0.0385595
0.0218967 0.0415503 0.0385595
0.0245823 0.0406806 0.0385595
0.0455329 0.0394293 0.0391699
0.0759136 0.0391852 0.0401617
0.112444 0.0400397 0.0411688
0.149874 0.0413825 0.0421454
0.201694 0.0453956 0.0429084
0.259663 0.0507362 0.043534
0.333089 0.0538949 0.0423438
0.418372 0.0553597 0.0396887
0.502953 0.0543832 0.0399481
0.584405 0.0494392 0.0450446
0.658778 0.0466163 0.0508736
0.707774 0.0534981 0.0611124
0.756771 0.0603952 0.0712902
0.791913 0.0714733 0.0878309
0.824079 0.0825208 0.104234
0.851835 0.0992447 0.138186
0.876753 0.120516 0.185916
0.901228 0.145281 0.234806
0.928435 0.239643 0.324987
0.955642 0.334142 0.415229
0.975326 0.427588 0.501442
0.977539 0.517037 0.576547
0.979706 0.605386 0.650935
0.981521 0.671733 0.706645
0.983017 0.720485 0.747478
0.984527 0.769757 0.788739
0.986038 0.792233 0.807767
0.987533 0.809461 0.822431
0.989044 0.826307 0.836805
0.99057 0.838163 0.847425
0.0207218 0.0708171 0.0397955
0.0220951 0.0703136 0.0397803
0.0245365 0.0696117 0.0397803
0.0410315 0.0675059 0.0400702
0.0683452 0.0649729 0.0406348
0.1093 0.0610513 0.041413
0.150958 0.0577096 0.0422065
0.20911 0.0589761 0.0427863
0.269276 0.0611124 0.0433661
0.348074 0.0620127 0.0414588
0.43357 0.0624857 0.0386816
0.516793 0.0597086 0.0401465
0.597253 0.0540169 0.0452735
0.668559 0.0522621 0.0522164
0.717937 0.0589609 0.0627451
0.766033 0.0658885 0.0738537
0.79968 0.077348 0.0913252
0.832364 0.0883955 0.108293
0.859312 0.109026 0.150668
0.88455 0.132357 0.199832
0.910155 0.177371 0.261494
0.936706 0.272892 0.352239
0.963211 0.368353 0.442939
0.976287 0.459617 0.524407
0.978256 0.546975 0.598215
0.980209 0.634318 0.671931
0.981811 0.68954 0.71873
0.983307 0.736355 0.758602
0.984787 0.78175 0.797269
0.986282 0.798672 0.811719
0.987778 0.815564 0.826185
0.989273 0.831067 0.839551
0.990784 0.842863 0.850141
0.0196841 0.102007 0.0410315
0.021088 0.101381 0.0410163
0.0235142 0.100496 0.041001
0.0344244 0.0987259 0.0411078
0.057023 0.0943618 0.0412909
0.0983749 0.0869917 0.0417945
0.147509 0.0784161 0.0424201
0.211185 0.0756237 0.0424506
0.275029 0.0741283 0.0427863
0.362554 0.0726329 0.0401923
0.451682 0.0717479 0.0372625
0.533913 0.0663767 0.0403601
0.61413 0.0595407 0.0455177
0.679164 0.0590829 0.0533913
0.727581 0.0652018 0.063859
0.773007 0.0724193 0.076051
0.806943 0.0838788 0.093904
0.839567 0.0946822 0.111177
0.866239 0.120302 0.1608
0.892073 0.146441 0.211887
0.91841 0.209262 0.285161
0.94432 0.306798 0.377676
0.970184 0.404318 0.470222
0.977111 0.492622 0.547433
0.978897 0.579553 0.62153
0.980652 0.663798 0.69337
0.982147 0.708507 0.732189
0.983642 0.753292 0.771069
0.985122 0.7897 0.802655
0.986603 0.806271 0.816953
0.988083 0.822644 0.831083
0.989593 0.836744 0.843458
0.991089 0.848356 0.853864
0.0167391 0.136904 0.0423133
0.0181888 0.13608 0.0422827
0.0206302 0.135332 0.0422827
0.0268254 0.134463 0.0423133
0.0383154 0.131579 0.042359
0.0780194 0.125719 0.0428779
0.130739 0.119387 0.0436561
0.202777 0.11487 0.043061
0.272999 0.111955 0.0424353
0.370275 0.106737 0.0381476
0.467124 0.102235 0.033814
0.553109 0.0890211 0.0384222
0.635798 0.075288 0.0440833
0.694301 0.0739605 0.0534829
0.741802 0.0779431 0.0642405
0.783642 0.0845808 0.0780804
0.8168 0.0950332 0.0961471
0.848646 0.107683 0.117617
0.875502 0.140322 0.171283
0.901915 0.172549 0.224094
0.92752 0.249805 0.306935
0.951507 0.347585 0.401709
0.975204 0.444144 0.495354
0.977584 0.528176 0.56939
0.979263 0.611963 0.642741
0.980911 0.685405 0.707332
0.982422 0.727611 0.745174
0.983917 0.769268 0.782544
0.985428 0.79823 0.808316
0.986908 0.814374 0.822492
0.988403 0.830549 0.836637
0.989914 0.843183 0.847959
0.991424 0.854673 0.858289
0.0141451 0.177203 0.0442054
0.0155795 0.176135 0.0441444
0.0180209 0.175357 0.0441138
0.021088 0.174701 0.0441138
0.0249027 0.172839 0.0440223
0.0562448 0.167437 0.0442969
0.110735 0.16199 0.0450599
0.185885 0.156283 0.043946
0.267338 0.150378 0.0422217
0.37464 0.141253 0.0360266
0.47895 0.13315 0.0301061
0.566964 0.111727 0.0357671
0.652079 0.0904402 0.041886
0.707591 0.0880751 0.0530251
0.75584 0.0899214 0.064622
0.794781 0.0965591 0.0806134
0.827771 0.106233 0.0992752
0.858366 0.124727 0.128725
0.885786 0.163302 0.184176
0.912749 0.20148 0.238682
0.936553 0.293141 0.332174
0.957885 0.387915 0.425925
0.97641 0.481544 0.517449
0.977996 0.562051 0.590005
0.979583 0.642405 0.662486
0.98114 0.705104 0.719539
0.982651 0.744259 0.756008
0.984146 0.7832 0.792309
0.985656 0.805966 0.813077
0.987152 0.821653 0.827115
0.988663 0.837552 0.841306
0.990188 0.849149 0.85182
0.99173 0.860594 0.862196
0.0122835 0.230915 0.0475929
0.0137331 0.229877 0.0475319
0.016144 0.229175 0.0475013
0.0188754 0.228153 0.0474556
0.0218509 0.227314 0.0474403
0.0381781 0.223865 0.0475013
0.0738842 0.217166 0.047715
0.144945 0.213291 0.0466011
0.232013 0.209552 0.044831
0.35967 0.202533 0.0357061
0.485512 0.19559 0.0264591
0.583246 0.173816 0.0326696
0.676875 0.152102 0.0390631
0.729107 0.14406 0.0514687
0.776944 0.137499 0.0639658
0.813565 0.142199 0.0822156
0.846418 0.151186 0.1019
0.876204 0.176684 0.140612
0.903227 0.217304 0.196323
0.929351 0.259983 0.25362
0.94786 0.354467 0.356512
0.965209 0.442939 0.452995
0.976745 0.525628 0.53962
0.978302 0.600748 0.611566
0.979843 0.675013 0.682689
0.981353 0.725139 0.731441
0.982849 0.760113 0.765942
0.98436 0.795224 0.800702
0.985855 0.813428 0.817472
0.98735 0.828763 0.831418
0.988861 0.843671 0.844999
0.990433 0.855131 0.855451
0.991989 0.866514 0.865904
0.0105135 0.286458 0.0496529
0.0119631 0.285191 0.0497139
0.0143587 0.284413 0.0497444
0.0167544 0.28394 0.0497292
0.0191348 0.282628 0.0497444
0.0261387 0.280522 0.0497749
0.0407721 0.273625 0.0500038
0.105257 0.268666 0.0491798
0.196658 0.267964 0.0474098
0.334691 0.265293 0.0365606
0.484337 0.261845 0.0234836
0.596002 0.241566 0.0292668
0.70074 0.222553 0.0358587
0.750393 0.205493 0.0494392
0.797345 0.189822 0.0626841
0.832227 0.19411 0.0826581
0.864973 0.201968 0.103563
0.893935 0.232578 0.149859
0.920638 0.274434 0.206729
0.943633 0.328145 0.2766
0.957916 0.41622 0.383749
0.971008 0.497475 0.482368
0.977111 0.570855 0.564431
0.978622 0.638849 0.634333
0.980133 0.706859 0.704311
0.981628 0.744564 0.74374
0.983108 0.775937 0.776776
0.984588 0.805814 0.808133
0.986084 0.820798 0.821973
0.987564 0.835904 0.835828
0.989105 0.849821 0.848646
0.990662 0.860945 0.8589
0.992218 0.872038 0.869139
0.00900282 0.355474 0.0454414
0.0104829 0.354253 0.0454871
0.0128786 0.353582 0.0454871
0.015259 0.352651 0.0455024
0.0176547 0.352102 0.0455024
0.0223545 0.350256 0.0456092
0.0309148 0.346197 0.0458839
0.0721904 0.34052 0.0451972
0.14432 0.337591 0.0434272
0.281788 0.34432 0.0343633
0.44477 0.351675 0.0224002
0.586908 0.337758 0.0249485
0.719066 0.321813 0.0301518
0.771664 0.299031 0.0440833
0.820996 0.278538 0.0575875
0.8533 0.278935 0.0788586
0.883909 0.281163 0.100404
0.910094 0.310185 0.148119
0.93431 0.347189 0.20206
0.95256 0.400763 0.284062
0.963912 0.478279 0.400824
0.974472 0.551232 0.507836
0.977417 0.614542 0.584634
0.978943 0.676616 0.655711
0.980438 0.735256 0.723033
0.981918 0.76286 0.754772
0.983398 0.79028 0.786465
0.984863 0.81387 0.812833
0.986343 0.828367 0.826474
0.987854 0.843122 0.840284
0.989364 0.855741 0.852064
0.990921 0.866667 0.862242
0.992493 0.877607 0.872404
0.00750744 0.423819 0.0412299
0.00900282 0.422736 0.0412909
0.0113985 0.422156 0.0412604
0.0137789 0.421363 0.0412604
0.0161746 0.420981 0.0412757
0.018967 0.419348 0.041474
0.022385 0.416831 0.0418555
0.0435187 0.412589 0.0412604
0.0914931 0.408591 0.0391241
0.225559 0.42295 0.0315099
0.398154 0.444404 0.0211948
0.565988 0.441657 0.0208591
0.727901 0.432227 0.0234836
0.791882 0.409369 0.036759
0.845869 0.388373 0.0500191
0.875319 0.382696 0.0723278
0.903593 0.379782 0.094255
0.924834 0.40206 0.138201
0.943999 0.426307 0.185321
0.957839 0.472969 0.279118
0.967453 0.539345 0.409567
0.976104 0.600381 0.52694
0.977661 0.655406 0.600793
0.979217 0.710018 0.673777
0.980743 0.754833 0.733227
0.982223 0.77911 0.764797
0.983703 0.803204 0.795956
0.985183 0.821912 0.817533
0.986664 0.835996 0.831037
0.988144 0.850202 0.844678
0.989685 0.861769 0.855589
0.991241 0.872435 0.865629
0.992798 0.88307 0.875624
0.00634775 0.4822 0.0326085
0.0078584 0.481224 0.0327306
0.0102541 0.480751 0.0327611
0.0126497 0.48011 0.0328069
0.0150454 0.479835 0.0328222
0.0176547 0.478569 0.0329595
0.0205539 0.477165 0.0331426
0.0319219 0.474754 0.03299
0.0608988 0.470405 0.0321202
0.156603 0.482902 0.0279393
0.301472 0.506294 0.0212711
0.493187 0.523827 0.0193637
0.700038 0.535515 0.019379
0.788876 0.51873 0.0294347
0.853559 0.499779 0.0412909
0.885222 0.489006 0.0639658
0.913787 0.480995 0.0862745
0.932525 0.492439 0.126986
0.949279 0.5066 0.168307
0.960861 0.545205 0.273777
0.969284 0.596445 0.411337
0.97615 0.643793 0.53196
0.977768 0.69073 0.608881
0.9794 0.737652 0.685695
0.980957 0.77174 0.740139
0.982483 0.793225 0.772396
0.983978 0.814206 0.803845
0.985489 0.829648 0.821668
0.986984 0.843412 0.835386
0.988479 0.857267 0.849073
0.990036 0.867658 0.858946
0.991592 0.878126 0.868955
0.993133 0.88809 0.878386
0.00520333 0.540078 0.0240482
0.00674449 0.539117 0.0241855
0.00914015 0.538659 0.0242466
0.0115358 0.538109 0.0243229
0.0139162 0.537957 0.0243076
0.0164187 0.536965 0.0243839
0.0190585 0.536065 0.0243687
0.0246738 0.534142 0.0243992
0.0375067 0.530724 0.0243381
0.0890516 0.537224 0.0236515
0.18613 0.556954 0.0216831
0.395148 0.591196 0.0192874
0.649973 0.629114 0.0171359
0.764996 0.626764 0.0230106
0.841077 0.612879 0.0317693
0.878645 0.598108 0.053193
0.91043 0.584665 0.0758068
0.930404 0.58732 0.115084
0.948302 0.592935 0.153857
0.960159 0.617975 0.26656
0.969268 0.651438 0.406134
0.975982 0.685603 0.524407
0.977737 0.723293 0.607889
0.979492 0.760693 0.690257
0.981109 0.785809 0.741756
0.982666 0.804318 0.775799
0.984207 0.823011 0.809522
0.985748 0.836652 0.824369
0.987274 0.850126 0.838422
0.988815 0.862852 0.851591
0.990402 0.873213 0.861799
0.991943 0.883436 0.871748
0.993484 0.892546 0.880598
0.005066 0.580194 0.0244602
0.0065919 0.579614 0.0244144
0.00898756 0.57937 0.0243839
0.0113832 0.579049 0.0243534
0.0137484 0.578668 0.0243229
0.0162203 0.578347 0.0242924
0.0187839 0.577401 0.0242161
0.0226291 0.576425 0.0241093
0.0294194 0.574975 0.0239261
0.0552224 0.578058 0.0235752
0.115816 0.59234 0.0230716
0.303899 0.633219 0.0209354
0.569406 0.689311 0.0177768
0.719066 0.705653 0.019791
0.82002 0.705226 0.0243381
0.868864 0.694133 0.04271
0.904707 0.680369 0.0645151
0.927031 0.676768 0.101564
0.946746 0.673747 0.138842
0.959243 0.686641 0.256291
0.969146 0.704753 0.397971
0.975753 0.724971 0.514916
0.977691 0.752056 0.605356
0.979568 0.779919 0.693278
0.981231 0.798672 0.742885
0.982803 0.814374 0.778668
0.984375 0.829618 0.811673
0.985962 0.842893 0.826413
0.987518 0.856062 0.840986
0.989105 0.868101 0.853849
0.990707 0.878202 0.864118
0.992294 0.888457 0.874388
0.99382 0.896834 0.882658
0.00514229 0.61622 0.026978
0.00669871 0.615656 0.0269322
0.00909438 0.615137 0.0268711
0.0114748 0.614847 0.0268406
0.0138705 0.614847 0.0268254
0.0163272 0.614343 0.0267643
0.0188907 0.613947 0.0267033
0.0221561 0.61326 0.0265965
0.0269932 0.612573 0.0264134
0.0406195 0.612879 0.0261082
0.0768139 0.618814 0.0256199
0.2206 0.653819 0.024033
0.45864 0.713817 0.0214542
0.636683 0.745525 0.0206149
0.782544 0.761639 0.0210117
0.851652 0.757565 0.034287
0.893141 0.744686 0.0529793
0.920043 0.737179 0.0875257
0.94229 0.732586 0.1234
0.956588 0.736889 0.233646
0.96791 0.744961 0.36791
0.97496 0.758099 0.483085
0.977279 0.776852 0.585611
0.979568 0.79678 0.686381
0.981292 0.811063 0.737377
0.982895 0.824186 0.77731
0.984497 0.837171 0.811322
0.986114 0.849485 0.826688
0.987732 0.861891 0.842023
0.989334 0.872877 0.854566
0.990982 0.882994 0.865415
0.992599 0.892958 0.87599
0.994156 0.900847 0.884016
0.00578317 0.646082 0.032639
0.00732433 0.645762 0.0325017
0.00973526 0.645716 0.0324254
0.0121157 0.645624 0.0323339
0.0145113 0.645502 0.0322423
0.0169833 0.645258 0.0321202
0.0195315 0.645121 0.0320287
0.0225376 0.644785 0.0318456
0.0263676 0.64477 0.031632
0.0339055 0.644709 0.0311894
0.0532082 0.646082 0.0303807
0.144198 0.670237 0.0288701
0.342336 0.728954 0.0264439
0.544198 0.774929 0.0233463
0.738277 0.81001 0.0199283
0.833021 0.815518 0.0278935
0.880293 0.806729 0.0423896
0.911818 0.798901 0.0721599
0.936873 0.791516 0.106569
0.953521 0.78645 0.20647
0.966278 0.785519 0.331411
0.97409 0.789273 0.448341
0.976883 0.800855 0.565667
0.979599 0.812131 0.680095
0.981338 0.822995 0.731884
0.982956 0.833417 0.775677
0.984604 0.844266 0.810834
0.986236 0.855619 0.826627
0.987884 0.867185 0.842512
0.989532 0.877379 0.855009
0.991196 0.887251 0.866163
0.992828 0.89691 0.876997
0.994385 0.904433 0.884871
0.00680552 0.670787 0.0403449
0.00836194 0.670558 0.0401923
0.0107729 0.670649 0.040116
0.0131685 0.67071 0.0400244
0.0155642 0.670726 0.0399329
0.0180514 0.67068 0.0397803
0.0206607 0.670802 0.0396582
0.023621 0.670726 0.0394141
0.0272831 0.67097 0.0391394
0.03299 0.671382 0.0387427
0.0460822 0.672221 0.0378729
0.0926223 0.684123 0.0366064
0.220905 0.724025 0.0346227
0.423499 0.772747 0.031281
0.677836 0.825925 0.0269474
0.805051 0.842466 0.0299382
0.857633 0.837476 0.0380865
0.896025 0.830976 0.0612802
0.926146 0.824475 0.0915999
0.947188 0.819242 0.16846
0.962661 0.814984 0.273732
0.972259 0.815488 0.390341
0.975982 0.821546 0.529976
0.979553 0.828382 0.665217
0.981323 0.83592 0.720958
0.983001 0.84387 0.771542
0.984665 0.852628 0.808515
0.986343 0.86273 0.825376
0.988022 0.872877 0.841978
0.989685 0.882246 0.854566
0.991363 0.891402 0.866102
0.993027 0.900481 0.877073
0.994598 0.907881 0.885176
0.00834669 0.694347 0.0554208
0.0099031 0.69424 0.0547036
0.0122988 0.694484 0.0543221
0.0146792 0.694697 0.0539254
0.0170443 0.694881 0.0535134
0.0195468 0.695033 0.0530251
0.0221866 0.695369 0.0528267
0.0251011 0.695537 0.0522011
0.0286107 0.69601 0.0517891
0.0330663 0.696483 0.0509651
0.0412146 0.697276 0.0492256
0.0601663 0.702159 0.0467536
0.115724 0.722255 0.043122
0.295369 0.767422 0.0390936
0.610376 0.838651 0.0338293
0.777462 0.868299 0.0326543
0.835615 0.866667 0.0349279
0.880018 0.861753 0.0515908
0.914458 0.855116 0.0777295
0.939971 0.849012 0.131716
0.958007 0.842618 0.211658
0.969985 0.84007 0.32105
0.974807 0.841733 0.485634
0.979461 0.843671 0.645319
0.981292 0.849134 0.708217
0.983001 0.85452 0.766094
0.98471 0.861494 0.805447
0.986435 0.870085 0.823316
0.988113 0.878477 0.840787
0.989807 0.887053 0.853574
0.991501 0.895659 0.865553
0.993164 0.903868 0.876585
0.994751 0.91107 0.884962
0.0115206 0.715892 0.0919051
0.013077 0.715862 0.0911421
0.0154421 0.716228 0.0906996
0.0178378 0.716564 0.0901961
0.0202029 0.716869 0.089662
0.0226902 0.717144 0.0889906
0.0252995 0.717601 0.0885023
0.0281987 0.717876 0.0875563
0.0315862 0.718441 0.0867475
0.0357671 0.718959 0.0854353
0.042771 0.720088 0.0835889
0.0552224 0.722698 0.0803235
0.0951247 0.735882 0.0743877
0.223377 0.768872 0.0652323
0.516167 0.838331 0.0516823
0.711116 0.876844 0.0449226
0.803204 0.883558 0.0438544
0.862318 0.883421 0.0532998
0.89926 0.878111 0.071931
0.928817 0.872679 0.109636
0.950164 0.866758 0.169039
0.966064 0.862287 0.261463
0.972778 0.860945 0.440986
0.97908 0.859785 0.617395
0.981186 0.86247 0.692683
0.982971 0.865461 0.758877
0.984741 0.870604 0.801648
0.986481 0.877272 0.820676
0.98822 0.884153 0.839521
0.989914 0.891859 0.852354
0.991638 0.899702 0.864897
0.993301 0.907286 0.876051
0.994904 0.914168 0.884657
0.0146181 0.737011 0.127687
0.0161898 0.737072 0.126879
0.0185397 0.737545 0.126375
0.0209049 0.738003 0.125765
0.0232853 0.738445 0.125109
0.0257725 0.738842 0.124239
0.0283665 0.739422 0.123491
0.0312047 0.739788 0.12224
0.0345312 0.740429 0.121004
0.0383917 0.740993 0.119219
0.0444038 0.742046 0.116655
0.0528725 0.743709 0.113191
0.0775769 0.750469 0.105531
0.162097 0.771893 0.0934768
0.424155 0.836561 0.0718242
0.632349 0.880629 0.0592203
0.764141 0.895888 0.0565957
0.844923 0.900984 0.0605783
0.882124 0.89691 0.0715801
0.914427 0.892439 0.0975814
0.939773 0.886656 0.146792
0.95993 0.882002 0.220905
0.969253 0.879088 0.400931
0.978164 0.876539 0.579477
0.980941 0.876844 0.670512
0.982895 0.878218 0.746761
0.984741 0.881239 0.794965
0.986526 0.886458 0.816083
0.988251 0.891463 0.83653
0.990005 0.898054 0.85005
0.99173 0.904768 0.863172
0.993408 0.911391 0.874693
0.995026 0.91783 0.883696
0.0188296 0.755215 0.175906
0.0206302 0.756252 0.177951
0.023331 0.758038 0.181796
0.025803 0.75903 0.182696
0.0281529 0.759503 0.181704
0.0306249 0.760159 0.18114
0.0331579 0.76054 0.179568
0.035996 0.761166 0.178515
0.0391852 0.761608 0.17641
0.0429084 0.762387 0.174823
0.0483711 0.763378 0.171756
0.0551766 0.764767 0.168261
0.0724804 0.768688 0.159365
0.120775 0.78027 0.145266
0.33106 0.834531 0.117205
0.540215 0.880415 0.0915389
0.717922 0.904784 0.0767224
0.828061 0.91606 0.0716716
0.866712 0.913191 0.0754711
0.901259 0.909651 0.0908675
0.929397 0.904936 0.128374
0.953811 0.90045 0.183078
0.965545 0.895903 0.361944
0.976944 0.892042 0.542428
0.980636 0.890837 0.646281
0.982742 0.890211 0.732097
0.98471 0.891386 0.788205
0.986511 0.89456 0.811383
0.988281 0.898116 0.833646
0.990051 0.903624 0.847715
0.991791 0.909331 0.86154
0.9935 0.915129 0.873426
0.995117 0.921065 0.882704
0.0235142 0.77319 0.229603
0.0256962 0.775494 0.23624
0.0289158 0.779126 0.246693
0.0315709 0.780804 0.25008
0.0338903 0.781292 0.249165
0.0363165 0.781735 0.247883
0.0388952 0.782345 0.246967
0.0416266 0.782757 0.245151
0.0448005 0.783429 0.243717
0.0484016 0.783993 0.241382
0.0535744 0.785168 0.23917
0.059617 0.786358 0.235996
0.0739452 0.789578 0.229252
0.0999771 0.795819 0.219318
0.240986 0.834531 0.193698
0.419409 0.874632 0.161364
0.65539 0.9084 0.119371
0.808667 0.927062 0.096849
0.85095 0.924895 0.0988022
0.888014 0.922347 0.108675
0.916304 0.918441 0.137743
0.942092 0.914656 0.173312
0.957488 0.910475 0.337118
0.972412 0.906661 0.505943
0.978744 0.904051 0.619669
0.982025 0.90248 0.712734
0.984649 0.902205 0.777432
0.986481 0.903838 0.803983
0.988296 0.905806 0.82948
0.990097 0.910262 0.844541
0.991852 0.914519 0.859327
0.993561 0.919463 0.871534
0.995209 0.924697 0.881453
0.0286107 0.791501 0.285817
0.0309758 0.794873 0.29575
0.0346227 0.800229 0.312154
0.0373999 0.802563 0.317678
0.0396582 0.803082 0.316609
0.0420691 0.80354 0.315343
0.0445411 0.803922 0.31368
0.047303 0.804578 0.312505
0.05037 0.805035 0.310292
0.0539254 0.805829 0.308644
0.0588235 0.806958 0.306554
0.0642405 0.807996 0.303655
0.0758526 0.81059 0.298955
0.0895857 0.813519 0.29218
0.162097 0.837018 0.269825
0.285695 0.86688 0.237049
0.583108 0.910567 0.166369
0.788342 0.938094 0.122499
0.834913 0.936522 0.122301
0.875105 0.934783 0.127489
0.903304 0.931731 0.147982
0.929732 0.928603 0.168109
0.948394 0.924804 0.317494
0.966766 0.920836 0.472374
0.976104 0.917769 0.590723
0.980911 0.915114 0.689662
0.984558 0.913512 0.764111
0.986419 0.913863 0.794568
0.988266 0.914534 0.823972
0.990097 0.91751 0.840391
0.991882 0.920729 0.856184
0.993606 0.92459 0.869093
0.99527 0.929091 0.87953
0.0408331 0.815595 0.386007
0.0428473 0.817731 0.391562
0.0459602 0.821256 0.401465
0.0485542 0.822919 0.404593
0.0507973 0.823407 0.40354
0.0532387 0.824079 0.403021
0.0556039 0.824475 0.401221
0.0582132 0.824918 0.399237
0.0612802 0.825605 0.397848
0.064744 0.826398 0.396384
0.0693828 0.827314 0.393622
0.0745861 0.82855 0.39173
0.0851911 0.831006 0.387137
0.0960555 0.833356 0.381506
0.145388 0.851377 0.364126
0.218509 0.872557 0.339834
0.520684 0.915969 0.269795
0.755779 0.947677 0.213413
0.813489 0.946685 0.200549
0.862455 0.945434 0.19205
0.891127 0.943282 0.200595
0.917494 0.941238 0.20856
0.938766 0.937789 0.320882
0.959854 0.934188 0.451209
0.972519 0.930968 0.565011
0.979339 0.927642 0.665721
0.984405 0.925109 0.749126
0.986328 0.92398 0.784283
0.98819 0.923247 0.817411
0.990066 0.924773 0.835889
0.991882 0.926863 0.85272
0.993622 0.929656 0.866499
0.9953 0.933394 0.877501
0.0531777 0.839933 0.487266
0.0548562 0.840818 0.488304
0.0574502 0.842542 0.491859
0.0598154 0.843473 0.492439
0.0620432 0.843946 0.491402
0.0643168 0.844388 0.489998
0.0667887 0.844999 0.489219
0.0693523 0.845441 0.487327
0.072221 0.84593 0.485161
0.075639 0.846723 0.483833
0.0802777 0.847852 0.482261
0.0851453 0.848859 0.479728
0.0950027 0.851392 0.476616
0.105028 0.853773 0.472496
0.141924 0.868269 0.460609
0.183612 0.884276 0.445548
0.465888 0.92343 0.397345
0.713161 0.956252 0.352132
0.786053 0.955245 0.330602
0.849378 0.954284 0.315557
0.879728 0.952285 0.317678
0.907317 0.950484 0.320806
0.928512 0.947845 0.38793
0.948989 0.945068 0.473304
0.964431 0.942031 0.561349
0.974929 0.938659 0.650477
0.983337 0.936019 0.731365
0.985718 0.934173 0.770886
0.988037 0.932616 0.809308
0.989975 0.933013 0.829953
0.991836 0.933913 0.848051
0.993606 0.935775 0.862867
0.995315 0.938399 0.874784
0.0682536 0.861112 0.571283
0.0697795 0.861509 0.570916
0.0720073 0.862135 0.570703
0.0742199 0.86276 0.570352
0.0763104 0.863264 0.569619
0.0786755 0.863935 0.569192
0.0808423 0.864408 0.567895
0.083238 0.864912 0.566415
0.0861677 0.86566 0.565316
0.0892805 0.866331 0.563546
0.0938125 0.867536 0.562219
